;FLAVOR:RepRap
;TIME:271
;Filament used: 0.116648m
;Layer height: 0.2
;Generated with Cura_SteamEngine 2.4.0
M190 S60
M104 S195
M109 S195
G21 ;metric values
G90 ;absolute positioning
M82 ;set extruder to absolute mode
M107 ;start with the fan off
G28 X0 Y0 ;move X/Y to min endstops
G28 Z0 ;move Z to min endstops
G1 Z15.0 F9000 ;move the platform down 15mm
G92 E0 ;zero the extruded length
G1 F200 E3 ;extrude 3mm of feed stock
G92 E0 ;zero the extruded length again
G1 F9000;Put printing message on LCD screen
M117 Printing...
;LAYER_COUNT:30
;LAYER:0
M107
G1 F2700 E-4
G0 F3000 X102.085 Y102.178 Z0.3
;TYPE:SKIRT
G1 F2700 E0
G1 F900 X102.542 Y101.723 E0.03378
G1 X102.906 Y101.41 E0.05893
G1 X103.528 Y100.963 E0.09905
G1 X105.169 Y99.988 E0.19905
G1 X105.698 Y99.72 E0.23011
G1 X106.323 Y99.509 E0.26467
G1 X108.18 Y99.033 E0.36509
G1 X108.763 Y98.925 E0.39615
G1 X109.279 Y98.895 E0.42323
G1 X110.743 Y98.897 E0.49992
G1 X111.615 Y98.986 E0.54583
G1 X112.42 Y99.15 E0.58887
G1 X112.976 Y99.301 E0.61905
G1 X114.452 Y99.81 E0.70084
G1 X114.999 Y100.041 E0.73194
G1 X115.4 Y100.27 E0.75613
G1 X116.621 Y101.056 E0.8322
G1 X117.241 Y101.54 E0.87341
G1 X117.722 Y101.989 E0.90788
G1 X118.083 Y102.367 E0.93526
G1 X118.991 Y103.443 E1.00901
G1 X119.342 Y103.921 E1.04008
G1 X119.589 Y104.364 E1.06665
G1 X120.358 Y105.953 E1.15912
G1 X120.655 Y106.763 E1.20431
G1 X120.817 Y107.386 E1.23804
G1 X120.922 Y107.922 E1.26665
G1 X121.107 Y109.336 E1.34135
G1 X121.144 Y109.928 E1.37242
G1 X121.116 Y110.403 E1.39735
G1 X120.961 Y111.77 E1.46942
G1 X120.883 Y112.236 E1.49417
G1 X120.691 Y113.093 E1.54017
G1 X120.522 Y113.661 E1.57122
G1 X120.382 Y113.997 E1.59029
G1 X119.709 Y115.434 E1.67341
G1 X119.422 Y115.953 E1.70448
G1 X119.116 Y116.37 E1.73157
G1 X117.99 Y117.733 E1.82419
G1 X117.478 Y118.258 E1.8626
G1 X117.106 Y118.58 E1.88837
G1 X116.606 Y118.954 E1.92108
G1 X115.396 Y119.732 E1.99644
G1 X114.837 Y120.036 E2.02977
G1 X114.395 Y120.237 E2.05521
G1 X113.811 Y120.454 E2.08785
G1 X112.463 Y120.849 E2.16143
G1 X111.788 Y120.991 E2.19756
G1 X111.167 Y121.071 E2.23036
G1 X110.437 Y121.104 E2.26864
G1 X108.66 Y121.036 E2.3618
G1 X108.07 Y120.973 E2.39288
G1 X107.601 Y120.865 E2.41809
G1 X106.192 Y120.456 E2.49495
G1 X105.465 Y120.172 E2.53584
G1 X104.894 Y119.889 E2.56922
G1 X104.422 Y119.618 E2.59773
G1 X103.237 Y118.835 E2.67213
G1 X102.766 Y118.476 E2.70316
G1 X102.429 Y118.148 E2.72779
G1 X101.497 Y117.138 E2.79979
G1 X101.133 Y116.687 E2.83015
G1 X100.545 Y115.852 E2.88364
G1 X100.238 Y115.346 E2.91465
G1 X100.066 Y114.973 E2.93617
G1 X99.384 Y113.292 E3.0312
G1 X99.198 Y112.729 E3.06226
G1 X99.105 Y112.256 E3.08751
G1 X98.904 Y110.839 E3.16248
G1 X98.863 Y110.046 E3.20408
G1 X98.889 Y109.391 E3.23842
G1 X98.961 Y108.756 E3.27189
G1 X99.279 Y107.058 E3.36239
G1 X99.427 Y106.484 E3.39344
G1 X99.669 Y105.899 E3.4266
G1 X100.525 Y104.188 E3.52683
G1 X100.825 Y103.677 E3.55787
G1 X101.134 Y103.276 E3.58439
G1 X102.085 Y102.178 E3.66048
G0 F3000 X102.387 Y102.44
G1 F900 X102.803 Y102.026 E3.69122
G1 X103.167 Y101.713 E3.71637
G1 X103.732 Y101.307 E3.75282
G1 X105.373 Y100.332 E3.85281
G1 X105.878 Y100.078 E3.88242
G1 X106.423 Y99.896 E3.91252
G1 X108.28 Y99.42 E4.01295
G1 X108.836 Y99.319 E4.04255
G1 X109.278 Y99.295 E4.06574
G1 X110.742 Y99.297 E4.14243
G1 X111.536 Y99.378 E4.18424
G1 X112.341 Y99.542 E4.22727
G1 X112.846 Y99.68 E4.2547
G1 X114.322 Y100.189 E4.33649
G1 X114.842 Y100.41 E4.36608
G1 X115.183 Y100.607 E4.38671
G1 X116.404 Y101.393 E4.46278
G1 X116.968 Y101.832 E4.50022
G1 X117.449 Y102.281 E4.53469
G1 X117.777 Y102.625 E4.55959
G1 X118.685 Y103.701 E4.63334
G1 X119.018 Y104.158 E4.66296
G1 X119.229 Y104.539 E4.68578
G1 X119.998 Y106.128 E4.77825
G1 X120.268 Y106.863 E4.81927
G1 X120.43 Y107.486 E4.85299
G1 X120.525 Y107.974 E4.87904
G1 X120.71 Y109.388 E4.95374
G1 X120.744 Y109.952 E4.98334
G1 X120.719 Y110.358 E5.00465
G1 X120.564 Y111.725 E5.07672
G1 X120.492 Y112.148 E5.09919
G1 X120.3 Y113.005 E5.1452
G1 X120.138 Y113.547 E5.17483
G1 X120.019 Y113.828 E5.19082
G1 X119.346 Y115.265 E5.27394
G1 X119.071 Y115.758 E5.30351
G1 X118.808 Y116.116 E5.32679
G1 X117.682 Y117.479 E5.4194
G1 X117.216 Y117.955 E5.45429
G1 X116.844 Y118.277 E5.48007
G1 X116.389 Y118.618 E5.50985
G1 X115.179 Y119.396 E5.58521
G1 X114.672 Y119.672 E5.61545
G1 X114.23 Y119.873 E5.64089
G1 X113.699 Y120.071 E5.67057
G1 X112.351 Y120.466 E5.74416
G1 X111.737 Y120.594 E5.77701
G1 X111.116 Y120.674 E5.80981
G1 X110.452 Y120.704 E5.84463
G1 X108.675 Y120.636 E5.93779
G1 X108.113 Y120.575 E5.9674
G1 X107.713 Y120.48 E5.98894
G1 X106.304 Y120.071 E6.06579
G1 X105.643 Y119.814 E6.10295
G1 X105.072 Y119.531 E6.13633
G1 X104.643 Y119.284 E6.16226
G1 X103.458 Y118.501 E6.23666
G1 X103.009 Y118.157 E6.26629
G1 X102.723 Y117.877 E6.28726
G1 X101.791 Y116.867 E6.35925
G1 X101.461 Y116.457 E6.38682
G1 X100.873 Y115.622 E6.44032
G1 X100.581 Y115.138 E6.46993
G1 X100.436 Y114.823 E6.4881
G1 X99.754 Y113.142 E6.58313
G1 X99.579 Y112.604 E6.61277
G1 X99.501 Y112.2 E6.63432
G1 X99.3 Y110.783 E6.70929
G1 X99.263 Y110.062 E6.74711
G1 X99.289 Y109.407 E6.78145
G1 X99.354 Y108.83 E6.81187
G1 X99.672 Y107.132 E6.90236
G1 X99.815 Y106.585 E6.93198
G1 X100.027 Y106.078 E6.96077
G1 X100.883 Y104.367 E7.06099
G1 X101.171 Y103.881 E7.09058
G1 X101.436 Y103.538 E7.11329
G1 X102.387 Y102.44 E7.18938
G0 F3000 X102.69 Y102.702
G1 F900 X103.064 Y102.329 E7.21705
G1 X103.428 Y102.016 E7.2422
G1 X103.936 Y101.651 E7.27497
G1 X105.577 Y100.676 E7.37496
G1 X106.057 Y100.437 E7.40305
G1 X106.522 Y100.284 E7.42869
G1 X108.379 Y99.808 E7.52912
G1 X108.907 Y99.714 E7.55721
G1 X109.278 Y99.695 E7.57667
G1 X110.742 Y99.697 E7.65336
G1 X111.456 Y99.769 E7.69095
G1 X112.261 Y99.933 E7.73399
G1 X112.716 Y100.058 E7.75871
G1 X114.192 Y100.567 E7.8405
G1 X114.684 Y100.779 E7.86856
G1 X114.967 Y100.943 E7.88569
G1 X116.188 Y101.729 E7.96176
G1 X116.696 Y102.124 E7.99547
G1 X117.177 Y102.573 E8.02994
G1 X117.471 Y102.883 E8.05232
G1 X118.379 Y103.959 E8.12608
G1 X118.694 Y104.394 E8.15421
G1 X118.868 Y104.713 E8.17325
G1 X119.637 Y106.302 E8.26572
G1 X119.881 Y106.964 E8.30268
G1 X120.043 Y107.587 E8.3364
G1 X120.129 Y108.026 E8.35983
G1 X120.314 Y109.44 E8.43454
G1 X120.343 Y109.975 E8.46261
G1 X120.321 Y110.313 E8.48035
G1 X120.166 Y111.68 E8.55242
G1 X120.102 Y112.061 E8.57266
G1 X119.91 Y112.918 E8.61866
G1 X119.657 Y113.658 E8.65963
G1 X118.984 Y115.095 E8.74275
G1 X118.721 Y115.562 E8.77083
G1 X118.499 Y115.861 E8.79034
G1 X117.373 Y117.224 E8.88295
G1 X116.954 Y117.653 E8.91436
G1 X116.582 Y117.975 E8.94014
G1 X116.173 Y118.281 E8.9669
G1 X114.963 Y119.059 E9.04225
G1 X114.506 Y119.308 E9.06952
G1 X114.064 Y119.509 E9.09495
G1 X113.586 Y119.687 E9.12167
G1 X112.238 Y120.082 E9.19526
G1 X111.686 Y120.197 E9.22479
G1 X111.065 Y120.277 E9.25759
G1 X110.467 Y120.304 E9.28895
G1 X108.69 Y120.236 E9.38211
G1 X108.157 Y120.176 E9.4102
G1 X107.824 Y120.096 E9.42814
G1 X106.415 Y119.687 E9.505
G1 X105.82 Y119.456 E9.53844
G1 X105.249 Y119.173 E9.57182
G1 X104.863 Y118.951 E9.59515
G1 X103.678 Y118.168 E9.66955
G1 X103.254 Y117.839 E9.69766
G1 X103.017 Y117.605 E9.71511
G1 X102.085 Y116.595 E9.7871
G1 X101.788 Y116.227 E9.81188
G1 X101.2 Y115.392 E9.86537
G1 X100.924 Y114.931 E9.89352
G1 X100.807 Y114.672 E9.90841
G1 X100.125 Y112.991 E10.00344
G1 X99.961 Y112.481 E10.0315
G1 X99.897 Y112.144 E10.04947
G1 X99.696 Y110.727 E10.12444
G1 X99.663 Y110.078 E10.15848
G1 X99.689 Y109.423 E10.19282
G1 X99.748 Y108.903 E10.22024
G1 X100.066 Y107.205 E10.31073
G1 X100.203 Y106.687 E10.3388
G1 X100.384 Y106.257 E10.36324
G1 X101.24 Y104.546 E10.46346
G1 X101.515 Y104.086 E10.49154
G1 X101.739 Y103.8 E10.51057
G1 X102.69 Y102.702 E10.58666
G0 F3000 X102.992 Y102.964
G1 F900 X103.325 Y102.633 E10.61126
G1 X103.689 Y102.32 E10.63641
G1 X104.14 Y101.995 E10.66553
G1 X105.781 Y101.02 E10.76552
G1 X106.235 Y100.797 E10.79202
G1 X106.621 Y100.671 E10.81329
G1 X108.478 Y100.195 E10.91371
G1 X108.977 Y100.109 E10.94023
G1 X109.277 Y100.095 E10.95597
G1 X110.741 Y100.097 E11.03266
G1 X111.376 Y100.161 E11.06609
G1 X112.181 Y100.325 E11.10913
G1 X112.585 Y100.436 E11.13107
G1 X114.061 Y100.945 E11.21286
G1 X114.525 Y101.147 E11.23937
G1 X114.75 Y101.279 E11.25304
G1 X115.971 Y102.065 E11.32911
G1 X116.423 Y102.417 E11.35912
G1 X116.904 Y102.866 E11.39359
G1 X117.166 Y103.141 E11.41348
G1 X118.074 Y104.217 E11.48724
G1 X118.368 Y104.628 E11.51371
G1 X118.508 Y104.887 E11.52913
G1 X119.277 Y106.476 E11.62161
G1 X119.494 Y107.065 E11.65449
G1 X119.656 Y107.688 E11.68821
G1 X119.732 Y108.078 E11.70902
G1 X119.917 Y109.492 E11.78373
G1 X119.943 Y109.997 E11.81022
G1 X119.924 Y110.268 E11.82445
G1 X119.769 Y111.635 E11.89652
G1 X119.712 Y111.974 E11.91452
G1 X119.52 Y112.831 E11.96053
G1 X119.295 Y113.488 E11.99691
G1 X118.622 Y114.925 E12.08003
G1 X118.372 Y115.365 E12.10654
G1 X118.191 Y115.606 E12.12233
G1 X117.065 Y116.969 E12.21495
G1 X116.692 Y117.35 E12.24288
G1 X116.32 Y117.672 E12.26865
G1 X115.957 Y117.945 E12.29244
G1 X114.747 Y118.723 E12.3678
G1 X114.341 Y118.944 E12.39201
G1 X113.899 Y119.145 E12.41745
G1 X113.474 Y119.303 E12.4412
G1 X112.126 Y119.698 E12.51479
G1 X111.635 Y119.801 E12.54107
G1 X111.014 Y119.881 E12.57387
G1 X110.483 Y119.905 E12.60171
G1 X108.706 Y119.837 E12.69487
G1 X108.204 Y119.777 E12.72135
G1 X107.936 Y119.712 E12.7358
G1 X106.527 Y119.303 E12.81265
G1 X105.998 Y119.097 E12.84239
G1 X105.427 Y118.814 E12.87578
G1 X105.084 Y118.617 E12.8965
G1 X103.899 Y117.834 E12.9709
G1 X103.5 Y117.523 E12.9974
G1 X103.311 Y117.334 E13.0114
G1 X102.379 Y116.324 E13.0834
G1 X102.115 Y115.996 E13.10545
G1 X101.527 Y115.161 E13.15895
G1 X101.178 Y114.522 E13.19709
G1 X100.496 Y112.841 E13.29212
G1 X100.343 Y112.359 E13.31861
G1 X100.293 Y112.087 E13.3331
G1 X100.092 Y110.67 E13.40807
G1 X100.063 Y110.094 E13.43828
G1 X100.089 Y109.439 E13.47262
G1 X100.141 Y108.977 E13.49698
G1 X100.459 Y107.279 E13.58747
G1 X100.591 Y106.791 E13.61396
G1 X100.742 Y106.436 E13.63417
G1 X101.598 Y104.725 E13.73439
G1 X101.859 Y104.292 E13.76087
G1 X102.041 Y104.062 E13.77624
G1 X102.992 Y102.964 E13.85233
G1 F2700 E9.85233
G0 F3000 X105.075 Y104.459
G0 X105.652 Y105.124
G0 X106.065 Y106.047
G0 X105.967 Y106.03
;TYPE:WALL-OUTER
G1 F2700 E13.85233
G1 F900 X105.633 Y105.119 E13.90316
G1 X105.79 Y104.983 E13.91404
G1 X106.645 Y105.443 E13.9649
G1 X106.658 Y105.435 E13.9657
G1 X107.249 Y105.054 E14.00253
G1 X107.186 Y104.086 E14.05335
G1 X107.374 Y104 E14.06418
G1 X108.064 Y104.682 E14.115
G1 X108.224 Y104.636 E14.12372
G1 X108.753 Y104.481 E14.1526
G1 X108.966 Y103.533 E14.2035
G1 X109.171 Y103.503 E14.21435
G1 X109.642 Y104.353 E14.26526
G1 X109.963 Y104.353 E14.28207
G1 X110.358 Y104.353 E14.30276
G1 X110.829 Y103.503 E14.35367
G1 X111.034 Y103.533 E14.36452
G1 X111.247 Y104.481 E14.41542
G1 X111.706 Y104.615 E14.44047
G1 X111.936 Y104.682 E14.45302
G1 X112.626 Y104 E14.50384
G1 X112.814 Y104.086 E14.51467
G1 X112.751 Y105.054 E14.56549
G1 X113.288 Y105.4 E14.59895
G1 X113.355 Y105.443 E14.60312
G1 X114.21 Y104.983 E14.65398
G1 X114.367 Y105.119 E14.66486
G1 X114.033 Y106.03 E14.71569
G1 X114.503 Y106.573 E14.75331
G1 X115.454 Y106.372 E14.80423
G1 X115.565 Y106.546 E14.81504
G1 X114.988 Y107.327 E14.86591
G1 X115.287 Y107.98 E14.90353
G1 X116.254 Y108.056 E14.95434
G1 X116.312 Y108.254 E14.96515
G1 X115.539 Y108.841 E15.016
G1 X115.642 Y109.551 E15.05358
G1 X115.728 Y109.584 E15.0584
G1 X116.549 Y109.898 E15.10445
G1 X116.549 Y110.102 E15.11514
G1 X115.728 Y110.416 E15.16118
G1 X115.642 Y110.448 E15.16599
G1 X115.539 Y111.158 E15.20357
G1 X116.312 Y111.746 E15.25445
G1 X116.254 Y111.944 E15.26526
G1 X115.287 Y112.02 E15.31607
G1 X114.988 Y112.672 E15.35364
G1 X115.565 Y113.454 E15.40455
G1 X115.454 Y113.627 E15.41532
G1 X114.503 Y113.428 E15.46622
G1 X114.033 Y113.97 E15.5038
G1 X114.367 Y114.881 E15.55463
G1 X114.21 Y115.017 E15.56551
G1 X113.355 Y114.557 E15.61637
G1 X113.289 Y114.599 E15.62047
G1 X112.751 Y114.946 E15.654
G1 X112.814 Y115.914 E15.70482
G1 X112.627 Y116 E15.7156
G1 X111.936 Y115.318 E15.76646
G1 X111.706 Y115.385 E15.77901
G1 X111.247 Y115.519 E15.80406
G1 X111.034 Y116.467 E15.85496
G1 X110.829 Y116.497 E15.86581
G1 X110.358 Y115.648 E15.91667
G1 X109.963 Y115.648 E15.93736
G1 X109.642 Y115.648 E15.95418
G1 X109.171 Y116.497 E16.00504
G1 X108.966 Y116.467 E16.01589
G1 X108.753 Y115.519 E16.06679
G1 X108.225 Y115.365 E16.0956
G1 X108.064 Y115.318 E16.10439
G1 X107.373 Y116 E16.15525
G1 X107.186 Y115.914 E16.16603
G1 X107.249 Y114.946 E16.21684
G1 X106.659 Y114.566 E16.25361
G1 X106.645 Y114.557 E16.25448
G1 X105.79 Y115.017 E16.30534
G1 X105.633 Y114.881 E16.31622
G1 X105.967 Y113.97 E16.36705
G1 X105.497 Y113.428 E16.40463
G1 X104.546 Y113.627 E16.45553
G1 X104.435 Y113.454 E16.46629
G1 X105.012 Y112.672 E16.5172
G1 X104.713 Y112.02 E16.55478
G1 X103.746 Y111.944 E16.60559
G1 X103.688 Y111.746 E16.6164
G1 X104.461 Y111.158 E16.66728
G1 X104.358 Y110.448 E16.70486
G1 X104.211 Y110.392 E16.7131
G1 X103.69 Y110.193 E16.74231
G1 X103.451 Y110.102 E16.75571
G1 X103.451 Y109.898 E16.7664
G1 X103.69 Y109.807 E16.77672
G1 X104.211 Y109.607 E16.80595
G1 X104.358 Y109.551 E16.81419
G1 X104.461 Y108.841 E16.85177
G1 X103.688 Y108.254 E16.90262
G1 X103.746 Y108.056 E16.91343
G1 X104.713 Y107.98 E16.96424
G1 X105.012 Y107.327 E17.00186
G1 X104.435 Y106.546 E17.05273
G1 X104.546 Y106.372 E17.06354
G1 X105.497 Y106.573 E17.11446
G1 X105.967 Y106.03 E17.15208
G0 F3000 X105.899 Y105.843
G0 X105.55 Y106.795
G1 F900 X105.224 Y107.434 E17.18966
G1 X104.898 Y108.074 E17.21054
G1 X104.775 Y108.315 E17.22247
G1 X104.686 Y108.877 E17.25228
G1 X104.573 Y109.585 E17.2731
G1 X104.549 Y109.741 E17.27973
G1 X104.507 Y110 E17.29348
G1 X104.548 Y110.257 E17.30711
G1 X104.572 Y110.413 E17.31373
G1 X104.685 Y111.122 E17.33453
G1 X104.775 Y111.686 E17.36445
G1 X104.897 Y111.925 E17.37851
G1 X105.223 Y112.564 E17.39949
G1 X105.55 Y113.205 E17.43719
G1 X105.634 Y113.289 E17.44341
G1 X106.141 Y113.796 E17.46413
G1 X106.757 Y114.413 E17.50957
G1 X107.363 Y114.721 E17.52859
G1 X108.161 Y115.128 E17.57365
G1 X108.277 Y115.187 E17.57656
G1 X108.792 Y115.269 E17.5912
G1 X109.679 Y115.41 E17.63625
G1 X109.963 Y115.456 E17.63979
G1 X110.318 Y115.4 E17.64981
G1 X111.205 Y115.258 E17.69687
G1 X111.648 Y115.187 E17.71037
G1 X111.823 Y115.098 E17.7138
G1 X112.621 Y114.692 E17.7607
G1 X113.168 Y114.413 E17.78082
G0 X113.189 Y114.392
G1 X113.821 Y113.76 E17.82764
G1 X114.328 Y113.252 E17.8533
G1 X114.375 Y113.205 E17.85678
G1 X114.717 Y112.535 E17.89618
G1 X115.043 Y111.896 E17.92324
G1 X115.15 Y111.686 E17.93431
G1 X115.24 Y111.111 E17.96479
G1 X115.352 Y110.402 E17.99275
G1 X115.366 Y110.312 E17.99697
G1 X115.416 Y110 E18.01353
G1 X115.367 Y109.689 E18.03002
G1 X115.353 Y109.597 E18.03433
G1 X115.241 Y108.888 E18.06219
G1 X115.15 Y108.315 E18.09259
G1 X115.043 Y108.105 E18.10493
G1 X114.718 Y107.466 E18.13211
G1 X114.375 Y106.795 E18.17158
G1 X114.329 Y106.749 E18.17499
G1 X113.822 Y106.241 E18.20079
G1 X113.189 Y105.608 E18.24681
G0 X113.168 Y105.587
G1 X112.622 Y105.309 E18.26691
G1 X111.823 Y104.902 E18.31198
G1 X111.648 Y104.813 E18.31732
G1 X111.206 Y104.743 E18.33081
G1 X110.318 Y104.602 E18.37791
G1 X109.963 Y104.545 E18.3855
G1 X109.68 Y104.59 E18.3912
G1 X108.793 Y104.731 E18.43825
G1 X108.277 Y104.813 E18.45288
G1 X108.162 Y104.872 E18.4539
G1 X107.364 Y105.278 E18.5008
G1 X106.757 Y105.587 E18.51982
G1 X106.141 Y106.204 E18.5655
G1 X105.635 Y106.71 E18.58609
G1 X105.55 Y106.795 E18.5909
G0 F3000 X105.46 Y106.973
G0 X105.106 Y106.803
G1 F900 X105.075 Y107.055 E18.59928
G0 F3000 X104.549 Y108.226
G1 F900 X104.399 Y108.359 E18.60611
G0 F3000 X104.252 Y108.212
G0 X104.498 Y108.826
G0 X104.389 Y109.575
G0 X104.173 Y109.829
G0 X104.243 Y109.899
G1 F900 X104.115 Y110.055 E18.61419
G1 X103.785 Y110.008 E18.6203
G0 F3000 X104.478 Y111.549
G1 F900 X104.337 Y111.691 E18.62785
G1 X104.103 Y111.74 E18.63336
G0 F3000 X105.19 Y113.109
G1 F900 X105.013 Y113.215 E18.64241
G1 X104.836 Y113.321 E18.64722
G0 F3000 X106.188 Y114.39
