;FLAVOR:RepRap
;TIME:20175
;Filament used: 20.552m
;Layer height: 0.2
;Generated with Cura_SteamEngine 2.4.0
M190 S60
M104 S195
M109 S195
G21 ;metric values
G90 ;absolute positioning
M82 ;set extruder to absolute mode
M107 ;start with the fan off
G28 X0 Y0 ;move X/Y to min endstops
G28 Z0 ;move Z to min endstops
G1 Z15.0 F9000 ;move the platform down 15mm
G92 E0 ;zero the extruded length
G1 F200 E3 ;extrude 3mm of feed stock
G92 E0 ;zero the extruded length again
G1 F9000;Put printing message on LCD screen
M117 Printing...
;LAYER_COUNT:225
;LAYER:0
M107
G1 F2700 E-4
G0 F3000 X49.896 Y36.54 Z0.3
G0 X50.122 Y36.293
;TYPE:SKIRT
G1 F2700 E0
G1 F1500 X55.284 Y31.117 E0.38294
G1 X55.342 Y31.06 E0.3872
G1 X60.785 Y25.822 E0.78291
G1 X63.369 Y23.054 E0.98127
G1 X63.463 Y22.957 E0.98835
G1 X69.204 Y17.211 E1.41385
G1 X69.631 Y16.84 E1.44348
G1 X70.106 Y16.533 E1.47311
G1 X70.619 Y16.297 E1.50269
G1 X71.161 Y16.134 E1.53234
G1 X71.72 Y16.05 E1.56195
G1 X72.067 Y16.038 E1.58014
G1 X167.619 Y16.821 E6.58577
G1 X173.094 Y16.711 E6.87263
G1 X178.495 Y16.297 E7.15639
G1 X183.905 Y15.572 E7.44233
G1 X189.211 Y14.554 E7.72535
G1 X191.849 Y13.931 E7.86734
G1 X197.083 Y12.457 E8.15219
G1 X202.264 Y10.676 E8.43918
G1 X204.709 Y9.718 E8.57674
G1 X206.609 Y8.925 E8.68459
G1 X207.144 Y8.745 E8.71416
G1 X207.7 Y8.642 E8.74379
G1 X208.265 Y8.619 E8.77341
G1 X208.828 Y8.675 E8.80305
G1 X209.377 Y8.81 E8.83266
G1 X209.901 Y9.021 E8.86225
G1 X210.391 Y9.304 E8.8919
G1 X210.977 Y9.788 E8.93171
G1 X216.62 Y15.429 E9.34969
G1 X216.991 Y15.856 E9.37932
G1 X217.297 Y16.331 E9.40892
G1 X217.534 Y16.844 E9.43852
G1 X217.696 Y17.386 E9.46815
G1 X217.78 Y17.945 E9.49777
G1 X217.784 Y18.51 E9.52736
G1 X217.709 Y19.071 E9.55701
G1 X217.555 Y19.615 E9.58663
G1 X217.326 Y20.132 E9.61625
G1 X217.027 Y20.611 E9.64583
G1 X216.62 Y21.086 E9.6786
G1 X32.785 Y204.918 E23.29757
G1 X32.358 Y205.289 E23.3272
G1 X31.883 Y205.596 E23.35683
G1 X31.37 Y205.832 E23.38641
G1 X30.828 Y205.994 E23.41604
G1 X30.269 Y206.078 E23.44565
G1 X29.704 Y206.082 E23.47525
G1 X29.144 Y206.006 E23.50485
G1 X28.6 Y205.853 E23.53446
G1 X28.083 Y205.624 E23.56408
G1 X27.603 Y205.324 E23.59373
G1 X27.129 Y204.918 E23.62642
G1 X21.486 Y199.275 E24.04448
G1 X21.115 Y198.848 E24.07411
G1 X20.808 Y198.373 E24.10373
G1 X20.572 Y197.86 E24.13332
G1 X20.41 Y197.318 E24.16295
G1 X20.326 Y196.759 E24.19256
G1 X20.322 Y196.194 E24.22216
G1 X20.398 Y195.634 E24.25176
G1 X20.551 Y195.09 E24.28137
G1 X20.767 Y194.599 E24.30947
G1 X24.117 Y188.17 E24.68923
G1 X25.224 Y185.758 E24.82825
G1 X27.289 Y180.704 E25.11425
G1 X29.058 Y175.561 E25.39916
G1 X30.541 Y170.299 E25.68554
G1 X31.159 Y167.69 E25.826
G1 X31.699 Y165.071 E25.96608
G1 X32.572 Y159.738 E26.24916
G1 X48.99 Y38.581 E32.65395
G1 X49.106 Y38.027 E32.6836
G1 X49.298 Y37.496 E32.71318
G1 X49.563 Y36.996 E32.74282
G1 X49.896 Y36.54 E32.7724
G1 X50.122 Y36.293 E32.78994
G0 F3000 X50.405 Y36.576
G1 F1500 X55.567 Y31.4 E33.17287
G1 X55.62 Y31.348 E33.17676
G1 X61.063 Y26.11 E33.57248
G1 X63.661 Y23.327 E33.77191
G1 X63.746 Y23.24 E33.77829
G1 X69.487 Y17.494 E34.20378
G1 X69.894 Y17.143 E34.23194
G1 X70.347 Y16.858 E34.25997
G1 X70.838 Y16.642 E34.28807
G1 X71.356 Y16.502 E34.31618
G1 X72.063 Y16.438 E34.35337
G1 X167.624 Y17.221 E39.35947
G1 X173.114 Y17.111 E39.64712
G1 X178.544 Y16.694 E39.93241
G1 X183.944 Y15.971 E40.21781
G1 X189.331 Y14.938 E40.50515
G1 X191.93 Y14.323 E40.64506
G1 X197.216 Y12.835 E40.93272
G1 X202.379 Y11.06 E41.21872
G1 X204.908 Y10.069 E41.36101
G1 X206.763 Y9.295 E41.4663
G1 X207.272 Y9.126 E41.4944
G1 X207.8 Y9.034 E41.52248
G1 X208.336 Y9.022 E41.55056
G1 X208.868 Y9.09 E41.57866
G1 X209.384 Y9.236 E41.60675
G1 X209.873 Y9.457 E41.63486
G1 X210.323 Y9.748 E41.66293
G1 X210.694 Y10.071 E41.6887
G1 X216.337 Y15.712 E42.10668
G1 X216.687 Y16.118 E42.13476
G1 X216.973 Y16.572 E42.16287
G1 X217.188 Y17.063 E42.19094
G1 X217.328 Y17.581 E42.21905
G1 X217.389 Y18.114 E42.24716
G1 X217.371 Y18.65 E42.27525
G1 X217.273 Y19.177 E42.30333
G1 X217.098 Y19.684 E42.33143
G1 X216.849 Y20.159 E42.35952
G1 X216.533 Y20.592 E42.3876
G1 X216.338 Y20.804 E42.40269
G1 X32.503 Y204.636 E56.02166
G1 X32.096 Y204.986 E56.04978
G1 X31.642 Y205.271 E56.07786
G1 X31.151 Y205.486 E56.10594
G1 X30.633 Y205.626 E56.13405
G1 X30.1 Y205.687 E56.16215
G1 X29.565 Y205.669 E56.19019
G1 X29.037 Y205.571 E56.21832
G1 X28.53 Y205.395 E56.24644
G1 X28.055 Y205.147 E56.27451
G1 X27.622 Y204.83 E56.30262
G1 X27.411 Y204.636 E56.31763
G1 X21.768 Y198.993 E56.73569
G1 X21.419 Y198.586 E56.76377
G1 X21.133 Y198.132 E56.79188
G1 X20.918 Y197.641 E56.81996
G1 X20.778 Y197.123 E56.84807
G1 X20.717 Y196.59 E56.87617
G1 X20.735 Y196.055 E56.90421
G1 X20.833 Y195.527 E56.93234
G1 X21.121 Y194.783 E56.97414
G1 X24.481 Y188.335 E57.35502
G1 X25.595 Y185.908 E57.49491
G1 X27.668 Y180.834 E57.78204
G1 X29.437 Y175.69 E58.067
G1 X30.926 Y170.408 E58.35448
G1 X31.552 Y167.765 E58.49676
G1 X32.094 Y165.138 E58.63727
G1 X32.97 Y159.785 E58.92142
G1 X49.387 Y38.635 E65.32583
G1 X49.498 Y38.11 E65.35394
G1 X49.686 Y37.608 E65.38202
G1 X49.947 Y37.139 E65.41014
G1 X50.405 Y36.576 E65.44816
G0 F3000 X50.688 Y36.858
G1 F1500 X55.85 Y31.682 E65.83109
G1 X55.897 Y31.636 E65.83454
G1 X61.36 Y26.379 E66.2317
G1 X63.954 Y23.6 E66.43084
G1 X64.029 Y23.522 E66.43651
G1 X69.77 Y17.776 E66.862
G1 X70.155 Y17.448 E66.8885
G1 X70.586 Y17.184 E66.91498
G1 X71.054 Y16.992 E66.94147
G1 X71.546 Y16.875 E66.96797
G1 X72.06 Y16.838 E66.99496
G1 X167.629 Y17.621 E72.00148
G1 X173.118 Y17.511 E72.28908
G1 X178.592 Y17.091 E72.57668
G1 X184.018 Y16.364 E72.86346
G1 X189.406 Y15.33 E73.15086
G1 X192.039 Y14.708 E73.29258
G1 X197.329 Y13.219 E73.58047
G1 X202.536 Y11.429 E73.8689
G1 X205.028 Y10.452 E74.00912
G1 X206.917 Y9.664 E74.11634
G1 X207.397 Y9.507 E74.14279
G1 X207.896 Y9.427 E74.16927
G1 X208.402 Y9.427 E74.19577
G1 X208.901 Y9.507 E74.22225
G1 X209.382 Y9.664 E74.24875
G1 X209.831 Y9.895 E74.2752
G1 X210.411 Y10.354 E74.31395
G1 X216.054 Y15.995 E74.73193
G1 X216.383 Y16.379 E74.75842
G1 X216.646 Y16.811 E74.78491
G1 X216.838 Y17.278 E74.81136
G1 X216.955 Y17.77 E74.83785
G1 X216.992 Y18.275 E74.86438
G1 X216.949 Y18.778 E74.89082
G1 X216.828 Y19.269 E74.91731
G1 X216.631 Y19.735 E74.94382
G1 X216.363 Y20.163 E74.97027
G1 X216.055 Y20.521 E74.99501
G1 X32.22 Y204.353 E88.61398
G1 X31.835 Y204.681 E88.64047
G1 X31.404 Y204.944 E88.66692
G1 X30.936 Y205.137 E88.69344
G1 X30.444 Y205.253 E88.71992
G1 X29.94 Y205.29 E88.74639
G1 X29.436 Y205.247 E88.77289
G1 X28.945 Y205.126 E88.79938
G1 X28.48 Y204.929 E88.82584
G1 X28.051 Y204.661 E88.85233
G1 X27.694 Y204.353 E88.87703
G1 X22.051 Y198.71 E89.29509
G1 X21.723 Y198.325 E89.32158
G1 X21.46 Y197.894 E89.34803
G1 X21.267 Y197.426 E89.37455
G1 X21.151 Y196.934 E89.40103
G1 X21.114 Y196.43 E89.4275
G1 X21.157 Y195.926 E89.454
G1 X21.278 Y195.435 E89.48049
G1 X21.476 Y194.968 E89.50706
G1 X24.842 Y188.508 E89.88865
G1 X25.963 Y186.066 E90.02941
G1 X28.038 Y180.988 E90.31677
G1 X29.821 Y175.802 E90.60404
G1 X31.311 Y170.518 E90.89164
G1 X31.947 Y167.834 E91.03613
G1 X32.487 Y165.214 E91.17627
G1 X33.362 Y159.866 E91.46014
G1 X49.783 Y38.688 E97.86604
G1 X49.89 Y38.194 E97.89252
G1 X50.074 Y37.723 E97.919
G1 X50.33 Y37.287 E97.94549
G1 X50.688 Y36.858 E97.97476
G1 F2700 E93.97476
G0 F3000 X52.617 Y38.501
G0 X53.524 Y39.407
G0 X53.596 Y39.443
G0 X53.507 Y39.399
;TYPE:WALL-INNER
G1 F2700 E97.97476
G1 F1500 X58.456 Y34.45 E98.3414
G1 X58.597 Y34.309 E98.35184
G1 X58.738 Y34.45 E98.35859
G1 X65.88 Y41.594 E98.88777
G1 X66.021 Y41.735 E98.89821
G1 X66.162 Y41.594 E98.90496
G1 X74.648 Y33.108 E99.53363
G1 X67.223 Y25.683 E100.08369
G1 X72.278 Y20.628 E100.45818
G1 X199.909 Y21.689 E107.14433
G1 X208.148 Y13.45 E107.7547
G1 X212.957 Y18.259 E108.11097
G1 X29.959 Y201.257 E121.66804
G1 X25.15 Y196.448 E122.0243
G1 X33.354 Y188.244 E122.63208
G1 X53.507 Y39.399 E130.50043
G0 F3000 X53.596 Y39.443
G0 X60.188 Y49.533
G0 X60.242 Y49.616
G1 F1500 X59.99 Y49.797 E130.51668
G1 X59.757 Y49.996 E130.53273
G1 X59.54 Y50.217 E130.54896
G1 X59.344 Y50.454 E130.56507
G1 X59.17 Y50.705 E130.58107
G1 X59.016 Y50.972 E130.59721
G1 X58.886 Y51.25 E130.61329
G1 X58.779 Y51.541 E130.62953
G1 X58.7 Y51.838 E130.64563
G1 X58.647 Y52.128 E130.66108
G1 X44.934 Y153.397 E136.01444
G1 X44.908 Y153.692 E136.02995
G1 X44.907 Y154.002 E136.04619
G1 X44.933 Y154.31 E136.06238
G1 X44.983 Y154.615 E136.07857
G1 X45.062 Y154.915 E136.09483
G1 X45.165 Y155.205 E136.11095
G1 X45.293 Y155.486 E136.12712
G1 X45.444 Y155.756 E136.14333
G1 X45.619 Y156.012 E136.15957
G1 X45.812 Y156.25 E136.17562
G1 X46.028 Y156.474 E136.19192
G1 X46.263 Y156.677 E136.20819
G1 X46.511 Y156.858 E136.22428
G1 X46.776 Y157.02 E136.24055
G1 X47.054 Y157.155 E136.25674
G1 X47.34 Y157.267 E136.27282
G1 X47.637 Y157.355 E136.28905
G1 X47.941 Y157.416 E136.30529
G1 X48.249 Y157.451 E136.32153
G1 X48.557 Y157.46 E136.33767
G1 X48.864 Y157.442 E136.35378
G1 X49.171 Y157.4 E136.37002
G1 X49.474 Y157.328 E136.38633
G1 X49.766 Y157.232 E136.40243
G1 X50.051 Y157.112 E136.41863
G1 X50.325 Y156.967 E136.43487
G1 X50.584 Y156.799 E136.45104
G1 X50.828 Y156.611 E136.46718
G1 X51.041 Y156.415 E136.48234
G1 X108.526 Y98.931 E140.74098
G1 X108.717 Y98.725 E140.75569
G1 X108.901 Y98.488 E140.77141
G1 X109.064 Y98.238 E140.78704
G1 X109.206 Y97.977 E140.80261
G1 X109.325 Y97.705 E140.81816
G1 X109.422 Y97.423 E140.83378
G1 X109.497 Y97.133 E140.84947
G1 X109.546 Y96.838 E140.86514
G1 X109.57 Y96.541 E140.88075
G1 X109.57 Y96.244 E140.89631
G1 X109.546 Y95.946 E140.91197
G1 X109.496 Y95.65 E140.92769
G1 X109.423 Y95.363 E140.94321
G1 X109.325 Y95.08 E140.95889
G1 X109.205 Y94.808 E140.97447
G1 X109.063 Y94.546 E140.99008
G1 X108.899 Y94.295 E141.00579
G1 X108.716 Y94.063 E141.02126
G1 X108.528 Y93.857 E141.03587
G1 X64.747 Y50.077 E144.27927
G1 X64.539 Y49.885 E144.2941
G1 X64.295 Y49.696 E144.31027
G1 X64.037 Y49.53 E144.32634
G1 X63.767 Y49.386 E144.34237
G1 X63.484 Y49.265 E144.35849
G1 X63.191 Y49.167 E144.37468
G1 X62.891 Y49.097 E144.39081
G1 X62.588 Y49.052 E144.40686
G1 X62.282 Y49.033 E144.42292
G1 X61.975 Y49.038 E144.43901
G1 X61.668 Y49.071 E144.45518
G1 X61.366 Y49.131 E144.47131
G1 X61.07 Y49.216 E144.48744
G1 X60.78 Y49.326 E144.50369
G1 X60.505 Y49.462 E144.51976
G1 X60.242 Y49.616 E144.53573
G0 F3000 X60.188 Y49.533
G0 X82.963 Y33.288
G0 X83.044 Y33.23
G1 F1500 X83.229 Y33.469 E144.55156
G1 X83.422 Y33.679 E144.5665
G1 X126.062 Y76.32 E147.72544
G1 X126.268 Y76.511 E147.74016
G1 X126.505 Y76.695 E147.75588
G1 X126.753 Y76.857 E147.7714
G1 X127.015 Y76.999 E147.78701
G1 X127.287 Y77.119 E147.80258
G1 X127.57 Y77.217 E147.81827
G1 X127.86 Y77.29 E147.83393
G1 X128.154 Y77.339 E147.84955
G1 X128.451 Y77.364 E147.86516
G1 X128.75 Y77.364 E147.88082
G1 X129.048 Y77.339 E147.89649
G1 X129.341 Y77.289 E147.91206
G1 X129.629 Y77.217 E147.92761
G1 X129.914 Y77.118 E147.94342
G1 X130.187 Y76.997 E147.95906
G1 X130.447 Y76.856 E147.97455
G1 X130.695 Y76.694 E147.99007
G1 X130.931 Y76.51 E148.00575
G1 X131.136 Y76.32 E148.02039
G1 X173.074 Y34.382 E151.12729
G1 X173.267 Y34.172 E151.14223
G1 X173.453 Y33.935 E151.15801
G1 X173.619 Y33.679 E151.17399
G1 X173.759 Y33.413 E151.18974
G1 X173.881 Y33.137 E151.20555
G1 X173.977 Y32.85 E151.2214
G1 X174.048 Y32.558 E151.23714
G1 X174.097 Y32.259 E151.25302
G1 X174.119 Y31.955 E151.26898
G1 X174.116 Y31.653 E151.2848
G1 X174.087 Y31.353 E151.30059
G1 X174.033 Y31.056 E151.31641
G1 X173.955 Y30.763 E151.33229
G1 X173.85 Y30.479 E151.34815
G1 X173.726 Y30.206 E151.36386
G1 X173.577 Y29.941 E151.37978
G1 X173.405 Y29.691 E151.39568
G1 X173.215 Y29.457 E151.41147
G1 X173.004 Y29.24 E151.42732
G1 X172.779 Y29.042 E151.44303
G1 X172.535 Y28.861 E151.45894
G1 X172.278 Y28.703 E151.47474
G1 X172.009 Y28.566 E151.49056
G1 X171.727 Y28.453 E151.50647
G1 X171.439 Y28.364 E151.52226
G1 X171.143 Y28.3 E151.53813
G1 X170.845 Y28.26 E151.55388
G1 X170.564 Y28.245 E151.56862
G1 X85.995 Y27.543 E155.99889
G1 X85.703 Y27.552 E156.0142
G1 X85.401 Y27.588 E156.03013
G1 X85.102 Y27.65 E156.04613
G1 X84.81 Y27.736 E156.06207
G1 X84.527 Y27.847 E156.078
G1 X84.253 Y27.982 E156.094
G1 X83.993 Y28.138 E156.10988
G1 X83.747 Y28.315 E156.12576
G1 X83.516 Y28.514 E156.14173
G1 X83.302 Y28.732 E156.15773
G1 X83.109 Y28.966 E156.17362
G1 X82.936 Y29.215 E156.1895
G1 X82.784 Y29.478 E156.20542
G1 X82.654 Y29.754 E156.2214
G1 X82.549 Y30.041 E156.23741
G1 X82.468 Y30.333 E156.25328
G1 X82.412 Y30.634 E156.26932
G1 X82.382 Y30.936 E156.28522
G1 X82.377 Y31.238 E156.30104
G1 X82.398 Y31.543 E156.31705
G1 X82.445 Y31.844 E156.33301
G1 X82.516 Y32.138 E156.34886
G1 X82.613 Y32.428 E156.36488
G1 X82.733 Y32.707 E156.38079
G1 X82.878 Y32.976 E156.39679
G1 X83.044 Y33.23 E156.41269
G0 F3000 X83.37 Y32.998
;TYPE:WALL-OUTER
G1 F1500 X83.535 Y33.211 E156.4268
G1 X83.711 Y33.402 E156.44041
G1 X126.339 Y76.032 E159.5985
G1 X126.527 Y76.206 E159.61192
G1 X126.737 Y76.369 E159.62585
G1 X126.958 Y76.513 E159.63966
G1 X127.191 Y76.64 E159.65356
G1 X127.433 Y76.746 E159.6674
G1 X127.685 Y76.833 E159.68137
G1 X127.942 Y76.898 E159.69526
G1 X128.204 Y76.942 E159.70917
G1 X128.468 Y76.964 E159.72305
G1 X128.733 Y76.964 E159.73693
G1 X128.997 Y76.942 E159.75081
G1 X129.259 Y76.897 E159.76474
G1 X129.515 Y76.833 E159.77856
G1 X129.767 Y76.746 E159.79253
G1 X130.01 Y76.638 E159.80646
G1 X130.242 Y76.512 E159.82029
G1 X130.462 Y76.368 E159.83406
G1 X130.672 Y76.205 E159.84799
G1 X130.859 Y76.032 E159.86133
G1 X172.785 Y34.105 E162.96738
G1 X172.962 Y33.913 E162.98106
G1 X173.127 Y33.702 E162.99509
G1 X173.274 Y33.476 E163.00921
G1 X173.399 Y33.239 E163.02325
G1 X173.507 Y32.993 E163.03732
G1 X173.592 Y32.739 E163.05135
G1 X173.656 Y32.478 E163.06543
G1 X173.699 Y32.212 E163.07955
G1 X173.719 Y31.942 E163.09373
G1 X173.716 Y31.675 E163.10772
G1 X173.69 Y31.408 E163.12177
G1 X173.642 Y31.143 E163.13588
G1 X173.573 Y30.884 E163.14992
G1 X173.48 Y30.631 E163.16404
G1 X173.369 Y30.387 E163.17808
G1 X173.237 Y30.153 E163.19215
G1 X173.084 Y29.931 E163.20628
G1 X172.916 Y29.723 E163.22028
G1 X172.728 Y29.53 E163.2344
G1 X172.527 Y29.353 E163.24843
G1 X172.311 Y29.193 E163.26251
G1 X172.082 Y29.052 E163.2766
G1 X171.843 Y28.931 E163.29063
G1 X171.593 Y28.83 E163.30475
G1 X171.337 Y28.751 E163.31879
G1 X171.074 Y28.694 E163.33289
G1 X170.808 Y28.659 E163.34694
G1 X170.551 Y28.645 E163.36042
G1 X85.999 Y27.943 E167.78981
G1 X85.733 Y27.951 E167.80375
G1 X85.465 Y27.983 E167.81789
G1 X85.2 Y28.038 E167.83207
G1 X84.94 Y28.115 E167.84627
G1 X84.688 Y28.213 E167.86043
G1 X84.445 Y28.333 E167.87463
G1 X84.214 Y28.472 E167.88875
G1 X83.995 Y28.63 E167.9029
G1 X83.79 Y28.806 E167.91705
G1 X83.6 Y29 E167.93128
G1 X83.428 Y29.208 E167.94542
G1 X83.274 Y29.429 E167.95953
G1 X83.139 Y29.664 E167.97373
G1 X83.023 Y29.909 E167.98793
G1 X82.93 Y30.163 E168.0021
G1 X82.858 Y30.423 E168.01623
G1 X82.808 Y30.69 E168.03046
G1 X82.782 Y30.959 E168.04461
G1 X82.777 Y31.228 E168.05871
G1 X82.796 Y31.498 E168.07289
G1 X82.838 Y31.766 E168.0871
G1 X82.901 Y32.028 E168.10121
G1 X82.987 Y32.285 E168.11541
G1 X83.094 Y32.533 E168.12956
G1 X83.222 Y32.772 E168.14376
G1 X83.37 Y32.998 E168.15791
G0 F3000 X83.492 Y33.156
G0 X83.096 Y33.461
G0 X74.435 Y33.461
G0 X74.082 Y33.108
G1 F1500 X66.657 Y25.683 E168.70798
G1 X72.113 Y20.227 E169.11218
G1 X199.745 Y21.288 E175.79838
G1 X208.007 Y13.025 E176.41049
G1 X208.148 Y12.884 E176.42093
G1 X208.289 Y13.025 E176.42768
G1 X213.523 Y18.259 E176.81543
G1 X29.959 Y201.823 E190.41443
G1 X24.725 Y196.589 E190.80218
G1 X24.584 Y196.448 E190.81263
G1 X24.725 Y196.307 E190.81938
G1 X32.976 Y188.057 E191.4306
G1 X53.129 Y39.211 E199.299
G1 X58.456 Y33.884 E199.69364
G1 X58.597 Y33.743 E199.70408
G1 X58.738 Y33.884 E199.71083
G1 X65.88 Y41.028 E200.24001
G1 X66.021 Y41.169 E200.25045
G1 X66.162 Y41.028 E200.2572
G1 X74.082 Y33.108 E200.84394
G0 F3000 X73.941 Y32.967
G0 X74.295 Y32.615
G0 X74.688 Y33.108
G0 X64.104 Y49.455
G0 X63.834 Y49.875
G1 F1500 X63.594 Y49.747 E200.85818
G1 X63.342 Y49.639 E200.87255
