;FLAVOR:RepRap
;TIME:1241
;Filament used: 1.06169m
;Layer height: 0.2
;Generated with Cura_SteamEngine 2.4.0
M190 S60
M104 S195
M109 S195
G21 ;metric values
G90 ;absolute positioning
M82 ;set extruder to absolute mode
M107 ;start with the fan off
G28 X0 Y0 ;move X/Y to min endstops
G28 Z0 ;move Z to min endstops
G1 Z15.0 F9000 ;move the platform down 15mm
G92 E0 ;zero the extruded length
G1 F200 E3 ;extrude 3mm of feed stock
G92 E0 ;zero the extruded length again
G1 F9000;Put printing message on LCD screen
M117 Printing...
;LAYER_COUNT:55
;LAYER:0
M107
G1 F2700 E-4
G0 F3000 X88.637 Y91.374 Z0.3
;TYPE:SKIRT
G1 F2700 E0
G1 F1200 X89.001 Y91.027 E0.02634
G1 X91.13 Y89.239 E0.17198
G1 X91.538 Y88.938 E0.19854
G1 X93.881 Y87.431 E0.34448
G1 X94.319 Y87.187 E0.37074
G1 X96.783 Y86.008 E0.51383
G1 X97.248 Y85.82 E0.54011
G1 X99.896 Y84.94 E0.68628
G1 X100.344 Y84.82 E0.71058
G1 X102.608 Y84.35 E0.83171
G1 X103.063 Y84.282 E0.85581
G1 X105.786 Y84.037 E0.99903
G1 X106.284 Y84.023 E1.02512
G1 X109.048 Y84.12 E1.17
G1 X109.55 Y84.17 E1.19643
G1 X112.261 Y84.611 E1.34031
G1 X112.663 Y84.698 E1.36186
G1 X114.408 Y85.17 E1.45655
G1 X114.809 Y85.301 E1.47865
G1 X117.422 Y86.313 E1.62544
G1 X117.878 Y86.524 E1.65176
G1 X120.285 Y87.824 E1.79507
G1 X120.711 Y88.09 E1.82138
G1 X122.981 Y89.714 E1.96759
G1 X123.37 Y90.031 E1.99388
G1 X125.375 Y91.886 E2.13696
G1 X125.619 Y92.131 E2.15508
G1 X128.125 Y94.888 E2.35025
G1 X131.962 Y98.774 E2.63633
G1 X133.907 Y100.586 E2.77558
G1 X137.841 Y103.964 E3.04721
G1 X138.243 Y104.362 E3.07684
G1 X138.584 Y104.812 E3.10642
G1 X138.859 Y105.307 E3.13608
G1 X139.062 Y105.834 E3.16567
G1 X139.188 Y106.385 E3.19528
G1 X139.235 Y106.996 E3.22738
G1 X139.24 Y112.992 E3.54148
G1 X139.201 Y113.556 E3.57109
G1 X139.082 Y114.108 E3.60067
G1 X138.887 Y114.639 E3.63031
G1 X138.618 Y115.137 E3.65996
G1 X138.283 Y115.591 E3.68951
G1 X137.805 Y116.064 E3.72474
G1 X135.917 Y117.642 E3.85364
G1 X131.863 Y121.319 E4.14035
G1 X128.029 Y125.212 E4.42657
G1 X125.185 Y128.312 E4.64695
G1 X124.87 Y128.62 E4.67003
G1 X122.774 Y130.451 E4.81583
G1 X122.374 Y130.758 E4.84224
G1 X120.094 Y132.291 E4.98616
G1 X119.777 Y132.484 E5.00561
G1 X118.576 Y133.139 E5.07727
G1 X118.236 Y133.304 E5.09707
G1 X115.694 Y134.393 E5.24193
G1 X115.224 Y134.56 E5.26806
G1 X112.603 Y135.313 E5.41092
G1 X112.195 Y135.408 E5.43286
G1 X110.359 Y135.733 E5.53053
G1 X109.945 Y135.784 E5.55238
G1 X107.221 Y135.977 E5.69544
G1 X106.719 Y135.981 E5.72174
G1 X103.941 Y135.829 E5.86748
G1 X103.478 Y135.776 E5.89189
G1 X101.179 Y135.378 E6.01412
G1 X100.814 Y135.297 E6.0337
G1 X99.089 Y134.829 E6.12733
G1 X98.692 Y134.699 E6.14921
G1 X96.078 Y133.687 E6.29605
G1 X95.62 Y133.476 E6.32247
G1 X93.2 Y132.168 E6.46657
G1 X92.772 Y131.901 E6.493
G1 X90.515 Y130.284 E6.63844
G1 X90.129 Y129.968 E6.66457
G1 X88.124 Y128.113 E6.80766
G1 X87.777 Y127.749 E6.83401
G1 X85.989 Y125.62 E6.97965
G1 X85.688 Y125.212 E7.00621
G1 X84.181 Y122.869 E7.15214
G1 X83.937 Y122.431 E7.1784
G1 X82.758 Y119.967 E7.3215
G1 X82.57 Y119.502 E7.34777
G1 X81.69 Y116.854 E7.49394
G1 X81.57 Y116.406 E7.51824
G1 X81.1 Y114.142 E7.63937
G1 X81.032 Y113.688 E7.66341
G1 X80.787 Y110.967 E7.80653
G1 X80.773 Y110.467 E7.83273
G1 X80.871 Y107.693 E7.97814
G1 X80.921 Y107.19 E8.00462
G1 X81.365 Y104.467 E8.14915
G1 X81.453 Y104.064 E8.17075
G1 X81.921 Y102.339 E8.26438
G1 X82.051 Y101.942 E8.28627
G1 X83.063 Y99.328 E8.4331
G1 X83.274 Y98.871 E8.45947
G1 X84.574 Y96.464 E8.60278
G1 X84.84 Y96.037 E8.62913
G1 X86.465 Y93.767 E8.77537
G1 X86.782 Y93.379 E8.80162
G1 X88.637 Y91.374 E8.94471
G0 F3000 X88.93 Y91.645
G1 F1200 X89.258 Y91.333 E8.96842
G1 X91.387 Y89.545 E9.11406
G1 X91.755 Y89.274 E9.138
G1 X94.098 Y87.767 E9.28394
G1 X94.491 Y87.548 E9.30751
G1 X96.955 Y86.369 E9.4506
G1 X97.374 Y86.2 E9.47426
G1 X100.022 Y85.32 E9.62044
G1 X100.425 Y85.211 E9.64231
G1 X102.689 Y84.741 E9.76343
G1 X103.098 Y84.68 E9.7851
G1 X105.821 Y84.435 E9.92832
G1 X106.27 Y84.423 E9.95185
G1 X109.034 Y84.52 E10.09673
G1 X109.486 Y84.565 E10.12052
G1 X112.197 Y85.006 E10.2644
G1 X112.559 Y85.084 E10.2838
G1 X114.304 Y85.556 E10.3785
G1 X114.664 Y85.674 E10.39834
G1 X117.277 Y86.686 E10.54513
G1 X117.688 Y86.875 E10.56883
G1 X120.095 Y88.175 E10.71213
G1 X120.479 Y88.415 E10.73586
G1 X122.749 Y90.039 E10.88207
G1 X123.099 Y90.324 E10.90571
G1 X125.104 Y92.179 E11.0488
G1 X125.323 Y92.401 E11.06514
G1 X127.816 Y95.144 E11.25931
G1 X131.688 Y99.065 E11.54798
G1 X133.656 Y100.898 E11.68886
G1 X137.58 Y104.268 E11.95982
G1 X137.96 Y104.647 E11.98794
G1 X138.279 Y105.077 E12.01598
G1 X138.531 Y105.551 E12.0441
G1 X138.71 Y106.057 E12.07222
G1 X138.811 Y106.583 E12.10028
G1 X138.835 Y106.996 E12.12195
G1 X138.84 Y112.992 E12.43605
G1 X138.801 Y113.527 E12.46415
G1 X138.682 Y114.05 E12.49225
G1 X138.487 Y114.549 E12.52031
G1 X138.22 Y115.015 E12.54845
G1 X137.887 Y115.435 E12.57652
G1 X137.548 Y115.757 E12.60102
G1 X135.662 Y117.333 E12.72977
G1 X131.591 Y121.025 E13.01766
G1 X127.747 Y124.93 E13.30471
G1 X124.891 Y128.042 E13.52597
G1 X124.606 Y128.319 E13.54679
G1 X122.51 Y130.15 E13.69259
G1 X122.151 Y130.426 E13.71631
G1 X119.871 Y131.959 E13.86023
G1 X119.586 Y132.133 E13.87773
G1 X118.385 Y132.788 E13.94939
G1 X118.079 Y132.936 E13.96719
G1 X115.537 Y134.025 E14.11206
G1 X115.113 Y134.176 E14.13564
G1 X112.492 Y134.929 E14.27849
G1 X112.125 Y135.014 E14.29823
G1 X110.289 Y135.339 E14.3959
G1 X109.916 Y135.385 E14.41559
G1 X107.192 Y135.578 E14.55864
G1 X106.741 Y135.582 E14.58227
G1 X103.963 Y135.43 E14.72801
G1 X103.546 Y135.382 E14.75
G1 X101.247 Y134.984 E14.87222
G1 X100.918 Y134.911 E14.88988
G1 X99.193 Y134.443 E14.98351
G1 X98.836 Y134.326 E15.00319
G1 X96.222 Y133.314 E15.15002
G1 X95.81 Y133.124 E15.17379
G1 X93.39 Y131.816 E15.31789
G1 X93.005 Y131.575 E15.34169
G1 X90.748 Y129.958 E15.48713
G1 X90.4 Y129.675 E15.51063
G1 X88.395 Y127.82 E15.65372
G1 X88.083 Y127.492 E15.67743
G1 X86.295 Y125.363 E15.82307
G1 X86.024 Y124.995 E15.84701
G1 X84.517 Y122.652 E15.99295
G1 X84.298 Y122.259 E16.01651
G1 X83.119 Y119.795 E16.15961
G1 X82.95 Y119.376 E16.18327
G1 X82.07 Y116.728 E16.32945
G1 X81.961 Y116.325 E16.35132
G1 X81.491 Y114.061 E16.47244
G1 X81.431 Y113.652 E16.4941
G1 X81.186 Y110.931 E16.63721
G1 X81.173 Y110.481 E16.6608
G1 X81.271 Y107.707 E16.8062
G1 X81.316 Y107.255 E16.83
G1 X81.76 Y104.532 E16.97453
G1 X81.839 Y104.168 E16.99404
G1 X82.307 Y102.443 E17.08767
G1 X82.424 Y102.086 E17.10735
G1 X83.436 Y99.472 E17.25419
G1 X83.625 Y99.061 E17.27788
G1 X84.925 Y96.654 E17.42119
G1 X85.166 Y96.269 E17.44498
G1 X86.791 Y93.999 E17.59122
G1 X87.075 Y93.65 E17.61479
G1 X88.93 Y91.645 E17.75788
G0 F3000 X89.224 Y91.917
G1 F1200 X89.515 Y91.64 E17.77893
G1 X91.644 Y89.852 E17.92457
G1 X91.971 Y89.611 E17.94585
G1 X94.314 Y88.104 E18.09178
G1 X94.664 Y87.908 E18.1128
G1 X97.128 Y86.729 E18.25589
G1 X97.5 Y86.579 E18.2769
G1 X100.148 Y85.699 E18.42307
G1 X100.507 Y85.603 E18.44254
G1 X102.771 Y85.133 E18.56367
G1 X103.134 Y85.079 E18.58289
G1 X105.857 Y84.834 E18.72611
G1 X106.256 Y84.823 E18.74702
G1 X109.02 Y84.92 E18.8919
G1 X109.422 Y84.96 E18.91306
G1 X112.133 Y85.401 E19.05695
G1 X112.455 Y85.47 E19.0742
G1 X114.2 Y85.942 E19.16889
G1 X114.52 Y86.047 E19.18654
G1 X117.133 Y87.059 E19.33332
G1 X117.498 Y87.227 E19.35437
G1 X119.905 Y88.527 E19.49768
G1 X120.246 Y88.74 E19.51874
G1 X122.516 Y90.364 E19.66495
G1 X122.827 Y90.618 E19.68599
G1 X124.832 Y92.473 E19.82907
G1 X125.027 Y92.67 E19.84359
G1 X127.53 Y95.424 E20.03854
G1 X131.401 Y99.344 E20.32714
G1 X133.381 Y101.188 E20.46888
G1 X137.32 Y104.571 E20.74088
G1 X137.676 Y104.93 E20.76736
G1 X137.972 Y105.34 E20.79385
G1 X138.199 Y105.792 E20.82035
G1 X138.352 Y106.274 E20.84684
G1 X138.435 Y106.996 E20.88491
G1 X138.44 Y112.992 E21.19901
G1 X138.4 Y113.496 E21.22549
G1 X138.282 Y113.988 E21.252
G1 X138.088 Y114.455 E21.27849
G1 X137.822 Y114.885 E21.30497
G1 X137.492 Y115.268 E21.33146
G1 X137.292 Y115.451 E21.34566
G1 X135.379 Y117.049 E21.47623
G1 X131.312 Y120.738 E21.76387
G1 X127.45 Y124.661 E22.05225
G1 X124.596 Y127.771 E22.27337
G1 X124.343 Y128.018 E22.29189
G1 X122.247 Y129.849 E22.43768
G1 X121.928 Y130.095 E22.45878
G1 X119.648 Y131.628 E22.60271
G1 X119.394 Y131.781 E22.61824
G1 X118.193 Y132.436 E22.6899
G1 X117.921 Y132.568 E22.70574
G1 X115.379 Y133.657 E22.85061
G1 X115.003 Y133.792 E22.87154
G1 X112.382 Y134.545 E23.01439
G1 X112.056 Y134.62 E23.03192
G1 X110.22 Y134.945 E23.12959
G1 X109.888 Y134.986 E23.14711
G1 X107.164 Y135.179 E23.29017
G1 X106.763 Y135.182 E23.31117
G1 X103.985 Y135.03 E23.45692
G1 X103.614 Y134.988 E23.47647
G1 X101.315 Y134.59 E23.5987
G1 X101.023 Y134.525 E23.61437
G1 X99.298 Y134.057 E23.708
G1 X98.981 Y133.953 E23.72548
G1 X96.367 Y132.941 E23.87231
G1 X96 Y132.772 E23.89348
G1 X93.58 Y131.464 E24.03758
G1 X93.238 Y131.25 E24.05872
G1 X90.981 Y129.633 E24.20416
G1 X90.672 Y129.381 E24.22505
G1 X88.667 Y127.526 E24.36814
G1 X88.39 Y127.235 E24.38918
G1 X86.602 Y125.106 E24.53482
G1 X86.361 Y124.779 E24.5561
G1 X84.854 Y122.436 E24.70204
G1 X84.658 Y122.086 E24.72305
G1 X83.479 Y119.622 E24.86614
G1 X83.329 Y119.25 E24.88715
G1 X82.449 Y116.602 E25.03333
G1 X82.353 Y116.243 E25.05279
G1 X81.883 Y113.979 E25.17392
G1 X81.829 Y113.616 E25.19315
G1 X81.584 Y110.895 E25.33626
G1 X81.573 Y110.495 E25.35722
G1 X81.671 Y107.721 E25.50263
G1 X81.711 Y107.319 E25.52379
G1 X82.155 Y104.596 E25.66832
G1 X82.225 Y104.273 E25.68563
G1 X82.693 Y102.548 E25.77926
G1 X82.797 Y102.231 E25.79674
G1 X83.809 Y99.617 E25.94358
G1 X83.977 Y99.251 E25.96467
G1 X85.277 Y96.844 E26.10798
G1 X85.491 Y96.502 E26.12911
G1 X87.116 Y94.232 E26.27535
G1 X87.369 Y93.922 E26.29631
G1 X89.224 Y91.917 E26.4394
G1 F2700 E22.4394
G0 F3000 X91.009 Y93.704
G0 X91.918 Y94.611
G0 X92.162 Y94.479
G0 X92.093 Y94.408
;TYPE:WALL-INNER
G1 F2700 E26.4394
G1 F1200 X92.105 Y94.396 E26.44029
G1 X93.102 Y93.518 E26.50988
G1 X93.116 Y93.507 E26.51082
G1 X94.172 Y92.687 E26.58085
G1 X95.276 Y91.937 E26.65077
G1 X95.289 Y91.928 E26.6516
G1 X96.436 Y91.25 E26.7214
G1 X96.449 Y91.244 E26.72215
G1 X97.63 Y90.641 E26.79161
G1 X97.647 Y90.634 E26.79257
G1 X98.864 Y90.107 E26.86205
G1 X98.885 Y90.098 E26.86324
G1 X100.129 Y89.651 E26.93249
G1 X100.146 Y89.646 E26.93342
G1 X101.418 Y89.277 E27.0028
G1 X101.436 Y89.271 E27.00379
G1 X102.728 Y88.982 E27.07315
G1 X102.749 Y88.979 E27.07426
G1 X104.06 Y88.772 E27.14378
G1 X104.077 Y88.769 E27.14469
G1 X105.398 Y88.644 E27.2142
G1 X105.415 Y88.644 E27.21509
G1 X106.75 Y88.6 E27.28506
G1 X108.087 Y88.643 E27.35513
G1 X108.103 Y88.644 E27.35597
G1 X109.424 Y88.769 E27.42548
G1 X109.44 Y88.771 E27.42633
G1 X110.75 Y88.978 E27.4958
G1 X110.772 Y88.982 E27.49697
G1 X112.064 Y89.271 E27.56633
G1 X112.08 Y89.275 E27.56719
G1 X113.352 Y89.645 E27.63659
G1 X113.371 Y89.651 E27.63763
G1 X114.615 Y90.098 E27.70688
G1 X114.635 Y90.106 E27.70801
G1 X115.852 Y90.633 E27.77748
G1 X115.87 Y90.641 E27.77851
G1 X117.05 Y91.243 E27.8479
G1 X117.064 Y91.25 E27.84872
G1 X118.211 Y91.928 E27.91852
G1 X118.223 Y91.936 E27.91928
G1 X119.328 Y92.687 E27.98926
G1 X120.384 Y93.507 E28.0593
G1 X120.398 Y93.518 E28.06024
G1 X121.395 Y94.396 E28.12983
G1 X121.405 Y94.406 E28.13057
G1 X122.342 Y95.343 E28.19998
G1 X122.354 Y95.355 E28.20087
G1 X123.232 Y96.352 E28.27047
G1 X123.243 Y96.366 E28.2714
G1 X124.063 Y97.422 E28.34144
G1 X124.818 Y98.532 E28.41176
G1 X124.823 Y98.541 E28.4123
G1 X125.5 Y99.687 E28.48202
G1 X125.506 Y99.699 E28.48273
G1 X126.109 Y100.88 E28.55219
G1 X126.116 Y100.897 E28.55315
G1 X126.642 Y102.113 E28.62256
G1 X126.65 Y102.13 E28.62354
G1 X127.1 Y103.379 E28.69309
G1 X127.105 Y103.396 E28.69402
G1 X127.474 Y104.669 E28.76345
G1 X127.479 Y104.685 E28.76433
G1 X127.767 Y105.972 E28.83341
G1 X127.771 Y105.999 E28.83484
G1 X127.979 Y107.309 E28.90433
G1 X128.026 Y107.6 E28.91977
G1 X134.65 Y107.6 E29.26676
G1 X134.65 Y107.9 E29.28248
G1 X128.026 Y107.9 E29.54273
G1 X127.735 Y107.9 E29.55797
G1 X127.71 Y107.63 E29.57217
G1 X127.684 Y107.356 E29.58314
G1 X127.476 Y106.047 E29.63487
G1 X127.188 Y104.752 E29.68694
G1 X126.817 Y103.48 E29.73862
G1 X126.368 Y102.233 E29.79068
G1 X125.841 Y101.017 E29.84268
G1 X125.24 Y99.836 E29.89466
G1 X124.565 Y98.695 E29.94662
G1 X123.82 Y97.598 E29.99861
G1 X123.007 Y96.55 E30.05045
G1 X122.131 Y95.556 E30.10228
G1 X121.194 Y94.619 E30.1542
G1 X120.2 Y93.743 E30.20602
G1 X119.152 Y92.93 E30.25797
G1 X118.055 Y92.185 E30.30991
G1 X116.914 Y91.51 E30.36194
G1 X115.733 Y90.909 E30.41389
G1 X114.517 Y90.382 E30.46582
G1 X113.27 Y89.933 E30.51773
G1 X111.998 Y89.562 E30.56944
G1 X110.703 Y89.274 E30.62128
G1 X109.395 Y89.066 E30.67293
G1 X108.076 Y88.942 E30.7246
G1 X106.75 Y88.9 E30.77655
G1 X105.425 Y88.942 E30.82839
G1 X104.106 Y89.066 E30.88016
G1 X102.797 Y89.274 E30.93179
G1 X101.502 Y89.562 E30.98378
G1 X100.23 Y89.933 E31.03539
G1 X98.983 Y90.382 E31.08727
G1 X97.767 Y90.909 E31.13925
G1 X96.586 Y91.51 E31.19123
G1 X95.445 Y92.185 E31.24318
G1 X94.348 Y92.93 E31.29528
G1 X93.3 Y93.743 E31.34712
G1 X92.306 Y94.619 E31.39886
G1 X91.369 Y95.556 E31.46828
G1 X90.493 Y96.55 E31.53769
G1 X89.68 Y97.598 E31.60717
G1 X88.935 Y98.695 E31.67663
G1 X88.26 Y99.836 E31.74608
G1 X87.659 Y101.017 E31.8155
G1 X87.132 Y102.233 E31.88492
G1 X86.683 Y103.48 E31.95435
G1 X86.312 Y104.752 E32.02376
G1 X86.024 Y106.047 E32.09326
G1 X85.816 Y107.356 E32.16269
G1 X85.692 Y108.675 E32.23209
G1 X85.65 Y110 E32.30153
G1 X85.692 Y111.325 E32.37098
G1 X85.816 Y112.644 E32.44038
G1 X86.024 Y113.953 E32.50981
G1 X86.312 Y115.248 E32.5793
G1 X86.683 Y116.52 E32.64871
G1 X87.132 Y117.767 E32.71814
G1 X87.659 Y118.983 E32.78757
G1 X88.26 Y120.164 E32.85698
G1 X88.935 Y121.305 E32.92643
G1 X89.68 Y122.402 E32.9959
G1 X90.493 Y123.45 E33.06538
G1 X91.369 Y124.444 E33.13478
G1 X92.306 Y125.381 E33.2042
G1 X93.3 Y126.257 E33.2736
G1 X94.348 Y127.07 E33.34309
G1 X95.445 Y127.815 E33.41255
G1 X96.586 Y128.49 E33.482
G1 X97.767 Y129.091 E33.55142
G1 X98.983 Y129.618 E33.62084
G1 X100.23 Y130.067 E33.69027
G1 X101.502 Y130.438 E33.75968
G1 X102.797 Y130.726 E33.82917
G1 X104.106 Y130.934 E33.89861
G1 X105.425 Y131.058 E33.96801
G1 X106.75 Y131.1 E34.03745
G1 X108.076 Y131.058 E34.10695
G1 X109.395 Y130.934 E34.17635
G1 X110.703 Y130.726 E34.24573
G1 X111.998 Y130.438 E34.31522
G1 X113.27 Y130.067 E34.38463
G1 X114.517 Y129.618 E34.45406
G1 X115.733 Y129.091 E34.52349
G1 X116.914 Y128.49 E34.5929
G1 X118.055 Y127.815 E34.66235
G1 X119.152 Y127.07 E34.73182
G1 X120.2 Y126.257 E34.8013
G1 X121.194 Y125.381 E34.8707
G1 X122.131 Y124.444 E34.94012
G1 X123.007 Y123.45 E35.00953
G1 X123.82 Y122.402 E35.07901
G1 X124.565 Y121.305 E35.14847
G1 X125.24 Y120.164 E35.21792
G1 X125.841 Y118.983 E35.28734
G1 X126.368 Y117.767 E35.35676
G1 X126.817 Y116.52 E35.42619
G1 X127.188 Y115.248 E35.4956
G1 X127.476 Y113.953 E35.56509
G1 X127.684 Y112.644 E35.63453
G1 X127.709 Y112.371 E35.64889
G1 X127.735 Y112.1 E35.66315
G1 X128.026 Y112.1 E35.67839
G1 X134.65 Y112.1 E36.02539
G1 X134.65 Y112.4 E36.0411
G1 X128.026 Y112.4 E36.30135
G1 X127.98 Y112.69 E36.31333
G1 X127.772 Y114 E36.36527
G1 X127.768 Y114.022 E36.3663
G1 X127.482 Y115.303 E36.41768
G1 X127.474 Y115.33 E36.41916
G1 X127.105 Y116.603 E36.4709
G1 X127.099 Y116.621 E36.47176
G1 X126.654 Y117.86 E36.5234
G1 X126.643 Y117.885 E36.52483
G1 X126.117 Y119.103 E36.57687
G1 X126.11 Y119.118 E36.57763
G1 X125.508 Y120.3 E36.62976
G1 X125.503 Y120.309 E36.6303
G1 X124.822 Y121.461 E36.68305
G1 X124.814 Y121.473 E36.68371
G1 X124.063 Y122.578 E36.73618
G1 X123.243 Y123.634 E36.7886
G1 X123.232 Y123.648 E36.78941
G1 X122.354 Y124.645 E36.84145
G1 X122.344 Y124.655 E36.84219
G1 X121.406 Y125.593 E36.89414
G1 X121.397 Y125.602 E36.89473
G1 X120.398 Y126.482 E36.9469
G1 X120.384 Y126.493 E36.94771
G1 X119.328 Y127.313 E37.00021
G1 X118.224 Y128.063 E37.05276
G1 X118.211 Y128.072 E37.05359
G1 X117.064 Y128.75 E37.10589
G1 X117.051 Y128.756 E37.10664
G1 X115.869 Y129.359 E37.15869
G1 X115.853 Y129.366 E37.15949
G1 X114.636 Y129.893 E37.21151
G1 X114.616 Y129.902 E37.21266
