;FLAVOR:RepRap
;TIME:12143
;Filament used: 8.31944m
;Layer height: 0.2
;Generated with Cura_SteamEngine 2.4.0
M190 S60
M104 S195
M109 S195
G21 ;metric values
G90 ;absolute positioning
M82 ;set extruder to absolute mode
M107 ;start with the fan off
G28 X0 Y0 ;move X/Y to min endstops
G28 Z0 ;move Z to min endstops
G1 Z15.0 F9000 ;move the platform down 15mm
G92 E0 ;zero the extruded length
G1 F200 E3 ;extrude 3mm of feed stock
G92 E0 ;zero the extruded length again
G1 F9000;Put printing message on LCD screen
M117 Printing...
;LAYER_COUNT:66
;LAYER:0
M107
G1 F2700 E-4
G0 F3000 X35.6 Y33.312 Z0.3
;TYPE:SKIRT
G1 F2700 E0
G1 F1200 X40.262 Y28.363 E0.35617
G1 X40.678 Y27.98 E0.38579
G1 X41.144 Y27.659 E0.41543
G1 X41.65 Y27.408 E0.44502
G1 X42.187 Y27.23 E0.47465
G1 X42.743 Y27.129 E0.50426
G1 X43.308 Y27.108 E0.53387
G1 X44.118 Y27.219 E0.5767
G1 X49.148 Y28.441 E0.84786
G1 X49.687 Y28.613 E0.8775
G1 X50.196 Y28.859 E0.90711
G1 X50.735 Y29.23 E0.94139
G1 X52.788 Y30.908 E1.08029
G1 X57.161 Y34.184 E1.36652
G1 X61.668 Y37.18 E1.65002
G1 X66.359 Y39.927 E1.93479
G1 X71.19 Y42.402 E2.21914
G1 X76.159 Y44.601 E2.50379
G1 X81.242 Y46.517 E2.78835
G1 X86.426 Y48.141 E3.07293
G1 X91.735 Y49.482 E3.35977
G1 X94.318 Y50.015 E3.49793
G1 X99.689 Y50.894 E3.78304
G1 X105.111 Y51.47 E4.06866
G1 X110.52 Y51.735 E4.35235
G1 X115.953 Y51.695 E4.63697
G1 X121.365 Y51.348 E4.92105
G1 X128.396 Y50.442 E5.29242
G1 X128.902 Y50.409 E5.31898
G1 X130.607 Y50.407 E5.4083
G1 X130.826 Y50.413 E5.41977
G1 X133.189 Y50.54 E5.54374
G1 X138.68 Y50.611 E5.8314
G1 X144.765 Y50.399 E6.15036
G1 X145.003 Y50.398 E6.16283
G1 X148.328 Y50.48 E6.33706
G1 X153.715 Y50.414 E6.61928
G1 X153.914 Y50.417 E6.6297
G1 X157.647 Y50.557 E6.82539
G1 X163.173 Y50.632 E7.1149
G1 X168.506 Y50.418 E7.39449
G1 X168.689 Y50.415 E7.40408
G1 X170.111 Y50.423 E7.47857
G1 X170.674 Y50.466 E7.50815
G1 X171.226 Y50.588 E7.53776
G1 X171.755 Y50.787 E7.56737
G1 X172.251 Y51.058 E7.59698
G1 X172.704 Y51.397 E7.62662
G1 X173.105 Y51.796 E7.65625
G1 X173.505 Y52.344 E7.69179
G1 X176.194 Y56.764 E7.96281
G1 X176.453 Y57.267 E7.99245
G1 X176.639 Y57.801 E8.02207
G1 X176.747 Y58.355 E8.05164
G1 X176.777 Y58.839 E8.07704
G1 X176.793 Y73.657 E8.85328
G1 X176.782 Y73.952 E8.86874
G1 X176.503 Y77.771 E9.06933
G1 X176.272 Y83.257 E9.35697
G1 X176.331 Y102.831 E10.38235
G1 X176.319 Y103.149 E10.39902
G1 X175.974 Y107.641 E10.63503
G1 X175.744 Y113.088 E10.92062
G1 X175.824 Y118.539 E11.2062
G1 X176.211 Y123.958 E11.4908
G1 X176.901 Y129.333 E11.77468
G1 X177.892 Y134.659 E12.05847
G1 X178.5 Y137.295 E12.20018
G1 X179.951 Y142.553 E12.48591
G1 X181.693 Y147.715 E12.7713
G1 X182.64 Y150.173 E12.90929
G1 X184.836 Y155.218 E13.19752
G1 X187.277 Y160.061 E13.48163
G1 X189.986 Y164.75 E13.76531
G1 X192.964 Y169.295 E14.04995
G1 X196.199 Y173.667 E14.33486
G1 X199.677 Y177.854 E14.61999
G1 X201.478 Y179.844 E14.76059
G1 X209.89 Y188.358 E15.38757
G1 X210.258 Y188.787 E15.41718
G1 X210.562 Y189.264 E15.44681
G1 X210.796 Y189.779 E15.47644
G1 X210.954 Y190.321 E15.50601
G1 X211.035 Y190.881 E15.53565
G1 X211.035 Y191.446 E15.56525
G1 X210.956 Y192.006 E15.59488
G1 X210.799 Y192.549 E15.62449
G1 X210.567 Y193.065 E15.65413
G1 X210.265 Y193.542 E15.6837
G1 X209.874 Y193.997 E15.71513
G1 X208.304 Y195.568 E15.83147
G1 X208.155 Y195.709 E15.84222
G1 X202.775 Y200.566 E16.22191
G1 X198.991 Y204.452 E16.50604
G1 X195.765 Y208.108 E16.76146
G1 X195.563 Y208.32 E16.7768
G1 X194.229 Y209.625 E16.87456
G1 X193.798 Y209.991 E16.90418
G1 X193.32 Y210.292 E16.93377
G1 X192.804 Y210.523 E16.96339
G1 X192.26 Y210.679 E16.99303
G1 X191.7 Y210.757 E17.02265
G1 X191.135 Y210.755 E17.05225
G1 X190.576 Y210.673 E17.08184
G1 X190.033 Y210.514 E17.11148
G1 X189.519 Y210.279 E17.14109
G1 X189.043 Y209.974 E17.1707
G1 X188.604 Y209.594 E17.20112
G1 X29.773 Y50.761 E28.9679
G1 X29.402 Y50.334 E28.99753
G1 X29.095 Y49.859 E29.02716
G1 X28.859 Y49.346 E29.05674
G1 X28.714 Y48.877 E29.08245
G1 X27.491 Y43.843 E29.35383
G1 X27.397 Y43.286 E29.38342
G1 X27.382 Y42.721 E29.41303
G1 X27.447 Y42.159 E29.44266
G1 X27.591 Y41.612 E29.4723
G1 X27.81 Y41.091 E29.5019
G1 X28.1 Y40.606 E29.5315
G1 X28.61 Y40.011 E29.57256
G1 X35.6 Y33.312 E30.07973
G0 F3000 X35.886 Y33.592
G1 F1200 X40.554 Y28.637 E30.43634
G1 X40.949 Y28.276 E30.46437
G1 X41.395 Y27.977 E30.4925
G1 X41.879 Y27.747 E30.52057
G1 X42.393 Y27.592 E30.5487
G1 X42.923 Y27.515 E30.57675
G1 X43.46 Y27.517 E30.60488
G1 X44.024 Y27.608 E30.63481
G1 X49.054 Y28.83 E30.90597
G1 X49.564 Y28.995 E30.93405
G1 X50.044 Y29.234 E30.96214
G1 X50.482 Y29.54 E30.99013
G1 X52.539 Y31.221 E31.12929
G1 X56.925 Y34.507 E31.41638
G1 X61.471 Y37.529 E31.70233
G1 X66.161 Y40.276 E31.98706
G1 X71.017 Y42.763 E32.27286
G1 X76.005 Y44.971 E32.55861
G1 X81.117 Y46.897 E32.84478
G1 X86.313 Y48.525 E33.13002
G1 X91.626 Y49.867 E33.41708
G1 X94.242 Y50.407 E33.55701
G1 X99.653 Y51.293 E33.84423
G1 X105.068 Y51.868 E34.12949
G1 X110.52 Y52.135 E34.41544
G1 X115.965 Y52.095 E34.70068
G1 X121.41 Y51.746 E34.9865
G1 X128.447 Y50.839 E35.35818
G1 X128.903 Y50.809 E35.38212
G1 X130.608 Y50.807 E35.47143
G1 X130.805 Y50.812 E35.48176
G1 X133.188 Y50.94 E35.60677
G1 X138.688 Y51.011 E35.89491
G1 X144.779 Y50.799 E36.21418
G1 X144.993 Y50.798 E36.22539
G1 X148.323 Y50.88 E36.39988
G1 X153.72 Y50.814 E36.68262
G1 X153.899 Y50.817 E36.692
G1 X157.627 Y50.957 E36.88743
G1 X163.183 Y51.032 E37.17851
G1 X168.522 Y50.818 E37.45841
G1 X168.686 Y50.815 E37.467
G1 X170.108 Y50.823 E37.5415
G1 X170.643 Y50.866 E37.56961
G1 X171.165 Y50.988 E37.59769
G1 X171.663 Y51.186 E37.62577
G1 X172.127 Y51.456 E37.65389
G1 X172.545 Y51.792 E37.68198
G1 X172.909 Y52.186 E37.71008
G1 X173.164 Y52.552 E37.73345
G1 X175.853 Y56.972 E38.00447
G1 X176.096 Y57.45 E38.03256
G1 X176.267 Y57.958 E38.06064
G1 X176.359 Y58.486 E38.08872
G1 X176.377 Y58.839 E38.10723
G1 X176.393 Y73.657 E38.88347
G1 X176.383 Y73.923 E38.89742
G1 X176.105 Y77.726 E39.09717
G1 X175.872 Y83.264 E39.38753
G1 X175.931 Y102.832 E40.4126
G1 X175.92 Y103.119 E40.42764
G1 X175.576 Y107.595 E40.66281
G1 X175.344 Y113.094 E40.95113
G1 X175.425 Y118.555 E41.23723
G1 X175.812 Y123.985 E41.5224
G1 X176.507 Y129.403 E41.80855
G1 X177.503 Y134.753 E42.09362
G1 X178.114 Y137.4 E42.23593
G1 X179.565 Y142.662 E42.52187
G1 X181.322 Y147.867 E42.80965
G1 X182.265 Y150.316 E42.94712
G1 X184.469 Y155.379 E43.23638
G1 X186.924 Y160.249 E43.52208
G1 X189.651 Y164.969 E43.80763
G1 X192.638 Y169.527 E44.09311
G1 X195.884 Y173.915 E44.37903
G1 X199.367 Y178.108 E44.66457
G1 X201.179 Y180.11 E44.80603
G1 X209.606 Y188.639 E45.43411
G1 X209.953 Y189.047 E45.46217
G1 X210.236 Y189.503 E45.49029
G1 X210.448 Y189.995 E45.51835
G1 X210.585 Y190.514 E45.54647
G1 X210.643 Y191.047 E45.57455
G1 X210.621 Y191.583 E45.60266
G1 X210.52 Y192.11 E45.63077
G1 X210.342 Y192.615 E45.65882
G1 X210.09 Y193.089 E45.68694
G1 X209.591 Y193.714 E45.72883
G1 X208.021 Y195.285 E45.84518
G1 X207.887 Y195.412 E45.85485
G1 X202.495 Y200.28 E46.23539
G1 X198.697 Y204.18 E46.52056
G1 X195.465 Y207.843 E46.77646
G1 X195.283 Y208.034 E46.79029
G1 X193.949 Y209.339 E46.88804
G1 X193.539 Y209.685 E46.91615
G1 X193.082 Y209.965 E46.94422
G1 X192.589 Y210.175 E46.97229
G1 X192.069 Y210.309 E47.00042
G1 X191.536 Y210.364 E47.02849
G1 X191 Y210.34 E47.0566
G1 X190.474 Y210.236 E47.08469
G1 X189.969 Y210.055 E47.11279
G1 X189.497 Y209.802 E47.14084
G1 X188.886 Y209.312 E47.18187
G1 X30.055 Y50.479 E58.94865
G1 X29.705 Y50.072 E58.97677
G1 X29.42 Y49.618 E59.00485
G1 X29.205 Y49.127 E59.03293
G1 X29.103 Y48.783 E59.05172
G1 X27.88 Y43.749 E59.3231
G1 X27.792 Y43.22 E59.35119
G1 X27.784 Y42.684 E59.37927
G1 X27.856 Y42.152 E59.4074
G1 X28.006 Y41.637 E59.4355
G1 X28.231 Y41.15 E59.4636
G1 X28.526 Y40.702 E59.4917
G1 X28.887 Y40.3 E59.52
G1 X35.886 Y33.592 E60.02784
G0 F3000 X36.171 Y33.873
G1 F1200 X40.845 Y28.912 E60.3849
G1 X41.219 Y28.572 E60.41138
G1 X41.643 Y28.296 E60.43788
G1 X42.105 Y28.09 E60.46438
G1 X42.593 Y27.959 E60.49085
G1 X43.096 Y27.907 E60.51734
G1 X43.601 Y27.935 E60.54383
G1 X43.929 Y27.996 E60.56131
G1 X48.959 Y29.218 E60.83247
G1 X49.44 Y29.376 E60.85899
G1 X49.889 Y29.608 E60.88546
G1 X50.229 Y29.85 E60.90733
G1 X52.29 Y31.534 E61.04675
G1 X56.69 Y34.83 E61.33474
G1 X61.261 Y37.869 E61.62228
G1 X65.969 Y40.627 E61.90811
G1 X70.851 Y43.127 E62.19543
G1 X75.859 Y45.344 E62.48233
G1 X80.962 Y47.267 E62.768
G1 X86.206 Y48.91 E63.05588
G1 X91.561 Y50.262 E63.3452
G1 X94.17 Y50.801 E63.48476
G1 X99.598 Y51.69 E63.77289
G1 X105.041 Y52.267 E64.05962
G1 X110.504 Y52.535 E64.34614
G1 X115.993 Y52.495 E64.63369
G1 X121.424 Y52.146 E64.91877
G1 X128.498 Y51.235 E65.2924
G1 X128.903 Y51.209 E65.31366
G1 X130.608 Y51.207 E65.40298
G1 X130.784 Y51.212 E65.4122
G1 X133.162 Y51.34 E65.53695
G1 X138.697 Y51.411 E65.82693
G1 X144.793 Y51.199 E66.14646
G1 X144.983 Y51.198 E66.15641
G1 X148.318 Y51.28 E66.33117
G1 X153.725 Y51.214 E66.61443
G1 X153.884 Y51.216 E66.62276
G1 X157.648 Y51.357 E66.82008
G1 X163.194 Y51.432 E67.11063
G1 X168.538 Y51.218 E67.3908
G1 X168.684 Y51.215 E67.39845
G1 X170.106 Y51.223 E67.47294
G1 X170.61 Y51.266 E67.49944
G1 X171.1 Y51.387 E67.52588
G1 X171.566 Y51.585 E67.5524
G1 X171.995 Y51.853 E67.5789
G1 X172.376 Y52.185 E67.60537
G1 X172.822 Y52.76 E67.64349
G1 X175.511 Y57.18 E67.91451
G1 X175.739 Y57.631 E67.94098
G1 X175.893 Y58.113 E67.96749
G1 X175.977 Y58.84 E68.00583
G1 X175.993 Y73.658 E68.78207
G1 X175.985 Y73.894 E68.79444
G1 X175.704 Y77.744 E68.99665
G1 X175.472 Y83.249 E69.28529
G1 X175.531 Y102.833 E70.31119
G1 X175.522 Y103.088 E70.32456
G1 X175.175 Y107.604 E70.56183
G1 X174.944 Y113.084 E70.84915
G1 X175.025 Y118.571 E71.13662
G1 X175.414 Y124.03 E71.42331
G1 X176.11 Y129.456 E71.70988
G1 X177.114 Y134.847 E71.99714
G1 X177.721 Y137.477 E72.13853
G1 X179.186 Y142.791 E72.42729
G1 X180.944 Y147.999 E72.71523
G1 X181.9 Y150.479 E72.85447
G1 X184.103 Y155.54 E73.14361
G1 X186.571 Y160.436 E73.43083
G1 X189.308 Y165.174 E73.71747
G1 X192.319 Y169.77 E74.00529
G1 X195.555 Y174.143 E74.29027
G1 X199.079 Y178.385 E74.57916
G1 X200.893 Y180.389 E74.72076
G1 X209.321 Y188.92 E75.34896
G1 X209.647 Y189.307 E75.37547
G1 X209.908 Y189.74 E75.40196
G1 X210.097 Y190.208 E75.4284
G1 X210.211 Y190.701 E75.4549
G1 X210.245 Y191.206 E75.48142
G1 X210.199 Y191.709 E75.50788
G1 X210.075 Y192.199 E75.53435
G1 X209.875 Y192.663 E75.56082
G1 X209.604 Y193.09 E75.58732
G1 X209.308 Y193.431 E75.61097
G1 X207.738 Y195.002 E75.72732
G1 X207.619 Y195.115 E75.73591
G1 X202.223 Y199.986 E76.11672
G1 X198.393 Y203.919 E76.4043
G1 X195.165 Y207.578 E76.6599
G1 X195.004 Y207.748 E76.67217
G1 X193.67 Y209.053 E76.76992
G1 X193.282 Y209.377 E76.7964
G1 X192.847 Y209.636 E76.82292
G1 X192.377 Y209.823 E76.84942
G1 X191.884 Y209.934 E76.87589
G1 X191.38 Y209.966 E76.90235
G1 X190.876 Y209.917 E76.92888
G1 X190.387 Y209.791 E76.95533
G1 X189.924 Y209.588 E76.98181
G1 X189.498 Y209.315 E77.00832
G1 X189.169 Y209.029 E77.03115
G1 X30.338 Y50.196 E88.79793
G1 X30.01 Y49.811 E88.82443
G1 X29.747 Y49.38 E88.85088
G1 X29.491 Y48.688 E88.88953
G1 X28.268 Y43.654 E89.1609
G1 X28.188 Y43.155 E89.18738
G1 X28.188 Y42.65 E89.21383
G1 X28.267 Y42.15 E89.24035
G1 X28.424 Y41.67 E89.2668
G1 X28.654 Y41.22 E89.29328
G1 X28.952 Y40.812 E89.31974
G1 X29.164 Y40.589 E89.33586
G1 X36.171 Y33.873 E89.8443
G1 F2700 E85.8443
G0 F3000 X43.111 Y30.224
G0 X48.209 Y31.395
G0 X125.55 Y59.447
G0 X126.829 Y59.447
G0 X126.885 Y59.503
G0 X126.815 Y59.433
;TYPE:WALL-INNER
G1 F2700 E89.8443
G1 F1200 X129.488 Y59.433 E89.98432
G1 X129.489 Y54.998 E90.21665
G1 X129.84 Y54.997 E90.23504
G1 X130.04 Y54.997 E90.24551
G1 X130.04 Y55.197 E90.2523
G1 X130.041 Y59.433 E90.4742
G1 X144.479 Y59.433 E91.23053
G1 X144.48 Y54.998 E91.46286
G1 X144.831 Y54.997 E91.48124
G1 X145.031 Y54.997 E91.49172
G1 X145.031 Y55.197 E91.4985
G1 X145.032 Y59.433 E91.7204
G1 X147.705 Y59.433 E91.86043
G1 X147.705 Y73.752 E92.61053
G1 X146.672 Y73.752 E92.66464
G1 X146.672 Y64.395 E93.1548
G1 X127.848 Y64.395 E94.14089
G1 X127.847 Y73.752 E94.63106
G1 X126.815 Y73.752 E94.68512
G1 X126.815 Y59.433 E95.43521
G0 F3000 X126.885 Y59.503
G0 X129.088 Y59.533
G0 X129.088 Y59.033
;TYPE:WALL-OUTER
G1 F1200 X129.089 Y54.832 E95.65528
G1 X129.095 Y54.598 E95.66754
G1 X130.345 Y54.597 E95.73303
G1 X130.43 Y54.597 E95.73748
G1 X130.44 Y54.827 E95.74954
G1 X130.44 Y54.912 E95.75399
G1 X130.441 Y59.033 E95.96987
G1 X144.079 Y59.033 E96.68429
G1 X144.08 Y54.835 E96.9042
G1 X144.089 Y54.598 E96.91663
G1 X145.34 Y54.597 E96.98216
G1 X145.425 Y54.597 E96.98661
G1 X145.431 Y54.827 E96.99866
G1 X145.431 Y54.912 E97.00312
G1 X145.432 Y59.033 E97.21899
G1 X148.105 Y59.033 E97.35902
G1 X148.105 Y74.152 E98.15102
G1 X146.272 Y74.152 E98.24704
G1 X146.272 Y64.795 E98.73721
G1 X128.248 Y64.795 E99.68139
G1 X128.247 Y74.152 E100.17155
G1 X126.415 Y74.152 E100.26752
G1 X126.415 Y59.033 E101.05953
G1 X129.088 Y59.033 E101.19955
G0 F3000 X129.088 Y58.833
G0 X129.667 Y58.956
;TYPE:SKIN
G1 F1200 X129.86 Y59.149 E101.21385
G0 F3000 X129.667 Y59.522
G1 F1200 X134.359 Y64.214 E101.56145
G0 X134.429 Y64.284
G0 F3000 X133.793 Y64.214
G1 F1200 X129.191 Y59.612 E101.90238
G0 X129.121 Y59.542
G0 F3000 X128.626 Y59.612
G1 F1200 X133.228 Y64.214 E102.24331
G0 X133.298 Y64.284
G0 F3000 X132.662 Y64.214
G1 F1200 X128.06 Y59.612 E102.58424
G0 X127.99 Y59.542
G0 F3000 X127.494 Y59.612
G1 F1200 X132.096 Y64.214 E102.92517
G0 X132.166 Y64.284
G0 F3000 X131.531 Y64.214
G1 F1200 X126.994 Y59.677 E103.26129
G0 X126.924 Y59.607
G0 F3000 X126.994 Y60.243
G1 F1200 X130.965 Y64.214 E103.55547
G0 X131.035 Y64.284
G0 F3000 X130.399 Y64.214
G1 F1200 X126.994 Y60.809 E103.80772
G0 X126.924 Y60.739
G0 F3000 X126.994 Y61.374
G1 F1200 X129.833 Y64.214 E104.01808
G0 X129.903 Y64.284
G0 F3000 X129.268 Y64.214
G1 F1200 X126.994 Y61.94 E104.18655
G0 X126.924 Y61.87
G0 F3000 X126.994 Y62.506
G1 F1200 X128.702 Y64.214 E104.31308
G0 X128.772 Y64.284
G0 F3000 X128.136 Y64.214
G1 F1200 X126.994 Y63.071 E104.39772
G0 X126.924 Y63.001
G0 F3000 X126.994 Y63.637
G1 F1200 X127.667 Y64.31 E104.44758
G0 X127.737 Y64.38
G0 F3000 X127.667 Y64.876
G1 F1200 X126.994 Y64.203 E104.49744
G0 X126.924 Y64.133
G0 F3000 X126.994 Y64.768
G1 F1200 X127.667 Y65.442 E104.54733
G0 X127.737 Y65.512
G0 F3000 X127.667 Y66.007
G1 F1200 X126.994 Y65.334 E104.59719
G0 X126.924 Y65.264
G0 F3000 X126.994 Y65.9
G1 F1200 X127.667 Y66.573 E104.64705
G0 X127.737 Y66.643
G0 F3000 X127.667 Y67.139
G1 F1200 X126.994 Y66.465 E104.69694
G0 X126.924 Y66.395
G0 F3000 X126.994 Y67.031
G1 F1200 X127.667 Y67.704 E104.7468
G0 X127.737 Y67.774
G0 F3000 X127.667 Y68.27
G1 F1200 X126.994 Y67.597 E104.79666
G0 X126.924 Y67.527
G0 F3000 X126.994 Y68.162
G1 F1200 X127.667 Y68.836 E104.84656
G0 X127.737 Y68.906
G0 F3000 X127.666 Y69.401
G1 F1200 X126.994 Y68.728 E104.89638
G0 X126.924 Y68.658
G0 F3000 X126.994 Y69.294
G1 F1200 X127.666 Y69.966 E104.94616
G0 X127.736 Y70.036
G0 F3000 X127.666 Y70.532
G1 F1200 X126.994 Y69.86 E104.99594
G0 X126.924 Y69.79
G0 F3000 X126.994 Y70.425
G1 F1200 X127.666 Y71.098 E105.04576
G0 X127.736 Y71.168
G0 F3000 X127.666 Y71.663
G1 F1200 X126.994 Y70.991 E105.09555
G0 X126.924 Y70.921
G0 F3000 X126.994 Y71.557
G1 F1200 X127.666 Y72.229 E105.14533
G0 X127.736 Y72.299
G0 F3000 X127.666 Y72.795
G1 F1200 X126.994 Y72.122 E105.19515
G0 X126.924 Y72.052
G0 F3000 X126.994 Y72.688
G1 F1200 X127.666 Y73.36 E105.24494
G0 X127.736 Y73.43
G0 F3000 X127.312 Y73.572
G1 F1200 X126.994 Y73.254 E105.2685
G0 F3000 X127.82 Y64.367
G0 X134.925 Y64.214
G1 F1200 X130.324 Y59.613 E105.60935
G0 X130.254 Y59.543
G0 F3000 X130.889 Y59.613
G1 F1200 X135.49 Y64.214 E105.95021
G0 X135.56 Y64.284
G0 F3000 X136.056 Y64.214
G1 F1200 X131.455 Y59.613 E106.29107
G0 X131.385 Y59.543
G0 F3000 X132.021 Y59.613
G1 F1200 X136.622 Y64.214 E106.63192
G0 X136.692 Y64.284
G0 F3000 X137.187 Y64.214
G1 F1200 X132.586 Y59.613 E106.97278
G0 X132.516 Y59.543
G0 F3000 X133.152 Y59.613
G1 F1200 X137.753 Y64.214 E107.31364
G0 X137.823 Y64.284
G0 F3000 X138.319 Y64.214
