;FLAVOR:RepRap
;TIME:4009
;Filament used: 2.63221m
;Layer height: 0.2
;Generated with Cura_SteamEngine 2.4.0
M190 S60
M104 S195
M109 S195
G21 ;metric values
G90 ;absolute positioning
M82 ;set extruder to absolute mode
M107 ;start with the fan off
G28 X0 Y0 ;move X/Y to min endstops
G28 Z0 ;move Z to min endstops
G1 Z15.0 F9000 ;move the platform down 15mm
G92 E0 ;zero the extruded length
G1 F200 E3 ;extrude 3mm of feed stock
G92 E0 ;zero the extruded length again
G1 F9000;Put printing message on LCD screen
M117 Printing...
;LAYER_COUNT:66
;LAYER:0
M107
G1 F2700 E-4
G0 F3000 X86.935 Y85.461 Z0.3
;TYPE:SKIRT
G1 F2700 E0
G1 F1200 X87.378 Y85.109 E0.02964
G1 X87.866 Y84.824 E0.05924
G1 X88.389 Y84.61 E0.08885
G1 X88.938 Y84.472 E0.1185
G1 X89.634 Y84.411 E0.1551
G1 X91.328 Y84.41 E0.24384
G1 X91.544 Y84.416 E0.25516
G1 X93.906 Y84.543 E0.37907
G1 X99.398 Y84.614 E0.66679
G1 X105.481 Y84.402 E0.98564
G1 X105.675 Y84.4 E0.9958
G1 X111.841 Y84.484 E1.31884
G1 X115.758 Y84.426 E1.52405
G1 X116.031 Y84.432 E1.53836
G1 X118.393 Y84.559 E1.66227
G1 X123.909 Y84.63 E1.95125
G1 X130.684 Y84.428 E2.30631
G1 X131.249 Y84.451 E2.33593
G1 X131.805 Y84.553 E2.36554
G1 X132.341 Y84.733 E2.39516
G1 X132.846 Y84.987 E2.42477
G1 X133.31 Y85.309 E2.45436
G1 X133.725 Y85.694 E2.48401
G1 X134.221 Y86.348 E2.52701
G1 X136.912 Y90.773 E2.79831
G1 X137.171 Y91.275 E2.8279
G1 X137.356 Y91.809 E2.85751
G1 X137.464 Y92.364 E2.88713
G1 X137.494 Y92.847 E2.91248
G1 X137.508 Y107.626 E3.68667
G1 X137.498 Y107.919 E3.70203
G1 X137.22 Y111.747 E3.90309
G1 X136.988 Y117.211 E4.18957
G1 X137.037 Y137.534 E5.25419
G1 X136.998 Y138.098 E5.28381
G1 X136.881 Y138.651 E5.31342
G1 X136.686 Y139.182 E5.34305
G1 X136.419 Y139.68 E5.37265
G1 X136.084 Y140.136 E5.40229
G1 X135.688 Y140.539 E5.43189
G1 X135.239 Y140.883 E5.46152
G1 X134.747 Y141.16 E5.4911
G1 X134.22 Y141.365 E5.52072
G1 X133.669 Y141.494 E5.55036
G1 X132.936 Y141.543 E5.58885
G1 X129.508 Y141.456 E5.76848
G1 X129.366 Y141.45 E5.77592
G1 X125.916 Y141.24 E5.95699
G1 X120.43 Y141.17 E6.24439
G1 X117.775 Y141.249 E6.38354
G1 X113.1 Y141.545 E6.62892
G1 X112.826 Y141.553 E6.64328
G1 X110.944 Y141.543 E6.74187
G1 X110.67 Y141.532 E6.75624
G1 X101.461 Y140.852 E7.23996
G1 X95.989 Y140.781 E7.52664
G1 X93.336 Y140.859 E7.66567
G1 X88.635 Y141.156 E7.91242
G1 X88.362 Y141.164 E7.92673
G1 X86.48 Y141.154 E8.02532
G1 X85.916 Y141.111 E8.05495
G1 X85.364 Y140.989 E8.08457
G1 X84.835 Y140.79 E8.11417
G1 X84.339 Y140.519 E8.14378
G1 X83.886 Y140.181 E8.17339
G1 X83.485 Y139.782 E8.20302
G1 X83.145 Y139.33 E8.23265
G1 X82.872 Y138.836 E8.26222
G1 X82.671 Y138.307 E8.29186
G1 X82.547 Y137.756 E8.32145
G1 X82.501 Y137.154 E8.35308
G1 X82.502 Y121.654 E9.16504
G1 X82.512 Y121.372 E9.17982
G1 X82.908 Y115.768 E9.47412
G1 X82.985 Y110.274 E9.76195
G1 X82.932 Y108.136 E9.87398
G1 X82.931 Y108.035 E9.87927
G1 X82.943 Y92.834 E10.67557
G1 X82.983 Y92.27 E10.70519
G1 X83.103 Y91.717 E10.73483
G1 X83.299 Y91.187 E10.76443
G1 X83.526 Y90.758 E10.78986
G1 X86.219 Y86.332 E11.06126
G1 X86.546 Y85.871 E11.09087
G1 X86.935 Y85.461 E11.12047
G0 F3000 X87.246 Y85.719
G1 F1200 X87.673 Y85.394 E11.14858
G1 X88.143 Y85.135 E11.1767
G1 X88.646 Y84.95 E11.20477
G1 X89.171 Y84.841 E11.23286
G1 X89.634 Y84.811 E11.25716
G1 X91.328 Y84.81 E11.3459
G1 X91.523 Y84.815 E11.35612
G1 X93.905 Y84.943 E11.48108
G1 X99.406 Y85.014 E11.76928
G1 X105.495 Y84.802 E12.08844
G1 X105.669 Y84.8 E12.09755
G1 X111.841 Y84.884 E12.4209
G1 X115.764 Y84.826 E12.62643
G1 X116.01 Y84.831 E12.63932
G1 X118.392 Y84.959 E12.76428
G1 X123.916 Y85.03 E13.05368
G1 X130.696 Y84.828 E13.409
G1 X131.231 Y84.852 E13.43706
G1 X131.758 Y84.955 E13.46519
G1 X132.263 Y85.135 E13.49327
G1 X132.735 Y85.389 E13.52135
G1 X133.165 Y85.709 E13.54943
G1 X133.543 Y86.09 E13.57754
G1 X133.879 Y86.555 E13.6076
G1 X136.57 Y90.98 E13.8789
G1 X136.814 Y91.458 E13.90701
G1 X136.984 Y91.967 E13.93512
G1 X137.076 Y92.495 E13.9632
G1 X137.094 Y92.848 E13.98171
G1 X137.108 Y107.627 E14.75591
G1 X137.099 Y107.891 E14.76974
G1 X136.822 Y111.703 E14.96996
G1 X136.588 Y117.217 E15.25907
G1 X136.637 Y137.535 E16.32343
G1 X136.598 Y138.07 E16.35153
G1 X136.481 Y138.593 E16.3796
G1 X136.287 Y139.093 E16.4077
G1 X136.02 Y139.559 E16.43583
G1 X135.688 Y139.98 E16.46392
G1 X135.297 Y140.347 E16.49201
G1 X134.855 Y140.651 E16.52011
G1 X134.373 Y140.887 E16.54822
G1 X133.862 Y141.048 E16.57629
G1 X133.332 Y141.132 E16.6044
G1 X132.946 Y141.143 E16.62463
G1 X129.518 Y141.056 E16.80426
G1 X129.39 Y141.05 E16.81097
G1 X125.946 Y140.84 E16.99172
G1 X120.423 Y140.77 E17.28107
G1 X117.768 Y140.849 E17.42021
G1 X113.075 Y141.146 E17.66654
G1 X112.828 Y141.153 E17.67949
G1 X110.946 Y141.143 E17.77808
G1 X110.7 Y141.133 E17.79097
G1 X101.48 Y140.452 E18.27528
G1 X95.983 Y140.381 E18.56326
G1 X93.328 Y140.459 E18.7024
G1 X88.61 Y140.757 E18.95004
G1 X88.364 Y140.764 E18.96294
G1 X86.482 Y140.754 E19.06152
G1 X85.947 Y140.711 E19.08964
G1 X85.425 Y140.589 E19.11772
G1 X84.927 Y140.391 E19.1458
G1 X84.463 Y140.122 E19.17389
G1 X84.045 Y139.786 E19.20199
G1 X83.681 Y139.392 E19.23009
G1 X83.38 Y138.948 E19.25819
G1 X83.148 Y138.465 E19.28626
G1 X82.991 Y137.952 E19.31436
G1 X82.901 Y137.154 E19.35643
G1 X82.902 Y121.654 E20.16839
G1 X82.911 Y121.4 E20.1817
G1 X83.308 Y115.783 E20.47668
G1 X83.385 Y110.274 E20.7653
G1 X83.332 Y108.127 E20.8778
G1 X83.331 Y108.035 E20.88262
G1 X83.343 Y92.834 E21.67892
G1 X83.383 Y92.299 E21.70703
G1 X83.503 Y91.777 E21.73508
G1 X83.698 Y91.277 E21.7632
G1 X83.868 Y90.966 E21.78177
G1 X86.561 Y86.54 E22.05317
G1 X86.873 Y86.104 E22.08125
G1 X87.246 Y85.719 E22.10933
G0 F3000 X87.555 Y85.98
G1 F1200 X87.964 Y85.682 E22.13584
G1 X88.415 Y85.453 E22.16234
G1 X88.896 Y85.298 E22.18881
G1 X89.634 Y85.211 E22.22774
G1 X91.328 Y85.21 E22.31648
G1 X91.502 Y85.215 E22.3256
G1 X93.879 Y85.343 E22.4503
G1 X99.415 Y85.414 E22.74032
G1 X105.509 Y85.202 E23.05975
G1 X105.664 Y85.2 E23.06787
G1 X111.841 Y85.284 E23.39148
G1 X115.769 Y85.226 E23.59727
G1 X115.989 Y85.231 E23.60879
G1 X118.366 Y85.359 E23.73349
G1 X123.899 Y85.43 E24.02336
G1 X130.708 Y85.227 E24.38021
G1 X131.213 Y85.252 E24.40669
G1 X131.707 Y85.356 E24.43314
G1 X132.179 Y85.537 E24.45962
G1 X132.617 Y85.79 E24.48612
G1 X133.01 Y86.109 E24.51263
G1 X133.347 Y86.485 E24.53908
G1 X133.537 Y86.763 E24.55672
G1 X136.228 Y91.188 E24.82802
G1 X136.456 Y91.64 E24.85454
G1 X136.61 Y92.121 E24.881
G1 X136.694 Y92.848 E24.91934
G1 X136.708 Y107.627 E25.69353
G1 X136.7 Y107.862 E25.70585
G1 X136.422 Y111.69 E25.90691
G1 X136.188 Y117.201 E26.19586
G1 X136.237 Y137.536 E27.2611
G1 X136.198 Y138.04 E27.28759
G1 X136.081 Y138.532 E27.31408
G1 X135.887 Y138.999 E27.34057
G1 X135.622 Y139.43 E27.36707
G1 X135.293 Y139.813 E27.39352
G1 X134.907 Y140.14 E27.42002
G1 X134.475 Y140.403 E27.44652
G1 X134.007 Y140.593 E27.47298
G1 X133.515 Y140.708 E27.49944
G1 X132.956 Y140.743 E27.52878
G1 X129.528 Y140.656 E27.70842
G1 X129.414 Y140.651 E27.71439
G1 X125.954 Y140.44 E27.89598
G1 X120.44 Y140.37 E28.18485
G1 X117.73 Y140.45 E28.32688
G1 X113.049 Y140.747 E28.57258
G1 X112.83 Y140.753 E28.58406
G1 X110.948 Y140.743 E28.68265
G1 X110.729 Y140.734 E28.69413
G1 X101.497 Y140.052 E29.17907
G1 X96 Y139.981 E29.46705
G1 X93.292 Y140.06 E29.60897
G1 X88.585 Y140.358 E29.85604
G1 X88.366 Y140.364 E29.86751
G1 X86.484 Y140.354 E29.9661
G1 X85.98 Y140.311 E29.9926
G1 X85.489 Y140.19 E30.01909
G1 X85.024 Y139.993 E30.04554
G1 X84.595 Y139.725 E30.07204
G1 X84.214 Y139.392 E30.09855
G1 X83.89 Y139.004 E30.12503
G1 X83.631 Y138.57 E30.15151
G1 X83.444 Y138.1 E30.178
G1 X83.333 Y137.607 E30.20448
G1 X83.301 Y137.154 E30.22827
G1 X83.302 Y121.654 E31.04023
G1 X83.31 Y121.428 E31.05207
G1 X83.708 Y115.799 E31.34768
G1 X83.785 Y110.274 E31.63714
G1 X83.732 Y108.117 E31.75017
G1 X83.731 Y108.035 E31.75446
G1 X83.743 Y92.834 E32.55076
G1 X83.783 Y92.331 E32.57719
G1 X83.903 Y91.839 E32.60372
G1 X84.209 Y91.174 E32.64207
G1 X86.902 Y86.748 E32.91347
G1 X87.198 Y86.338 E32.93996
G1 X87.555 Y85.98 E32.96645
G1 F2700 E28.96645
G0 F3000 X90.218 Y87.736
G0 X90.219 Y89.015
G0 X90.557 Y89.101
G0 X90.557 Y89
;TYPE:WALL-INNER
G1 F2700 E32.96645
G1 F1200 X90.757 Y89 E32.97692
G1 X90.757 Y89.2 E32.98371
G1 X90.757 Y93.437 E33.20566
G1 X105.195 Y93.437 E33.96199
G1 X105.196 Y89.001 E34.19437
G1 X105.547 Y89 E34.21276
G1 X105.747 Y89 E34.22323
G1 X105.747 Y89.2 E34.23002
G1 X105.748 Y93.437 E34.45197
G1 X108.421 Y93.437 E34.592
G1 X108.421 Y107.756 E35.34209
G1 X107.389 Y107.756 E35.39615
G1 X107.389 Y98.399 E35.88632
G1 X88.564 Y98.399 E36.87246
G1 X88.563 Y107.756 E37.36262
G1 X87.531 Y107.756 E37.41668
G1 X87.531 Y93.437 E38.16678
G1 X90.204 Y93.437 E38.3068
G1 X90.205 Y89.001 E38.53918
G1 X90.557 Y89 E38.55762
G0 F3000 X91.157 Y88.915
;TYPE:WALL-OUTER
G1 F1200 X91.157 Y93.037 E38.77355
G1 X104.795 Y93.037 E39.48798
G1 X104.796 Y88.838 E39.70794
G1 X104.805 Y88.601 E39.72036
G1 X106.056 Y88.6 E39.7859
G1 X106.141 Y88.6 E39.79035
G1 X106.147 Y88.83 E39.8024
G1 X106.147 Y88.915 E39.80685
G1 X106.148 Y93.037 E40.02278
G1 X108.821 Y93.037 E40.16281
G1 X108.821 Y108.156 E40.95481
G1 X106.989 Y108.156 E41.05078
G1 X106.989 Y98.799 E41.54095
G1 X88.964 Y98.799 E42.48518
G1 X88.963 Y108.156 E42.97534
G1 X87.131 Y108.156 E43.07131
G1 X87.131 Y93.037 E43.86332
G1 X89.804 Y93.037 E44.00334
G1 X89.805 Y88.836 E44.22341
G1 X89.812 Y88.601 E44.23573
G1 X91.062 Y88.6 E44.30121
G1 X91.147 Y88.6 E44.30566
G1 X91.157 Y88.83 E44.31772
G1 X91.157 Y88.915 E44.32217
G0 F3000 X91.157 Y89.115
G0 X90.479 Y89.348
G1 F1200 X90.479 Y89.914 E44.33648
G1 X90.479 Y90.479 E44.35076
G1 X90.479 Y91.045 E44.36506
G1 X90.479 Y91.611 E44.37937
G1 X90.479 Y92.176 E44.39365
G1 X90.479 Y92.742 E44.40796
G1 X90.479 Y93.308 E44.42226
G0 F3000 X90.788 Y93.616
;TYPE:SKIN
G1 F1200 X95.39 Y98.218 E44.76319
G0 X95.46 Y98.288
G0 F3000 X95.955 Y98.218
G1 F1200 X91.353 Y93.616 E45.10412
G0 X91.283 Y93.546
G0 F3000 X91.919 Y93.616
G1 F1200 X96.521 Y98.218 E45.44506
G0 X96.591 Y98.288
G0 F3000 X97.087 Y98.218
G1 F1200 X92.485 Y93.616 E45.78599
G0 X92.415 Y93.546
G0 F3000 X93.051 Y93.616
G1 F1200 X97.652 Y98.218 E46.12688
G0 X97.722 Y98.288
G0 F3000 X98.218 Y98.218
G1 F1200 X93.616 Y93.616 E46.46781
G0 X93.546 Y93.546
G0 F3000 X94.182 Y93.616
G1 F1200 X98.784 Y98.218 E46.80874
G0 X98.854 Y98.288
G0 F3000 X99.349 Y98.218
G1 F1200 X94.748 Y93.616 E47.14963
G0 X94.678 Y93.546
G0 F3000 X95.313 Y93.616
G1 F1200 X99.915 Y98.218 E47.49057
G0 X99.985 Y98.288
G0 F3000 X100.481 Y98.218
G1 F1200 X95.879 Y93.616 E47.8315
G0 X95.809 Y93.546
G0 F3000 X96.445 Y93.616
G1 F1200 X101.046 Y98.218 E48.17239
G0 X101.116 Y98.288
G0 F3000 X101.612 Y98.218
G1 F1200 X97.01 Y93.616 E48.51332
G0 X96.94 Y93.546
G0 F3000 X97.576 Y93.616
G1 F1200 X102.178 Y98.218 E48.85425
G0 X102.248 Y98.288
G0 F3000 X102.744 Y98.218
G1 F1200 X98.142 Y93.616 E49.19518
G0 X98.072 Y93.546
G0 F3000 X98.707 Y93.616
G1 F1200 X103.309 Y98.218 E49.53611
G0 X103.379 Y98.288
G0 F3000 X103.875 Y98.218
G1 F1200 X99.273 Y93.616 E49.87704
G0 X99.203 Y93.546
G0 F3000 X99.839 Y93.616
G1 F1200 X104.441 Y98.218 E50.21797
G0 X104.511 Y98.288
G0 F3000 X105.006 Y98.218
G1 F1200 X100.404 Y93.616 E50.55891
G0 X100.334 Y93.546
G0 F3000 X100.97 Y93.616
G1 F1200 X105.572 Y98.218 E50.89984
G0 X105.642 Y98.288
G0 F3000 X106.138 Y98.218
G1 F1200 X101.536 Y93.616 E51.24077
G0 X101.466 Y93.546
G0 F3000 X102.101 Y93.616
G1 F1200 X106.703 Y98.218 E51.5817
G0 X106.773 Y98.288
G0 F3000 X107.269 Y98.218
G1 F1200 X102.667 Y93.616 E51.92263
G0 X102.597 Y93.546
G0 F3000 X103.233 Y93.616
G1 F1200 X108.24 Y98.623 E52.29356
G0 X108.31 Y98.693
G0 F3000 X108.24 Y98.058
G1 F1200 X103.799 Y93.616 E52.6226
G0 X103.729 Y93.546
G0 F3000 X104.364 Y93.616
G1 F1200 X108.24 Y97.492 E52.90975
G0 X108.31 Y97.562
G0 F3000 X108.24 Y96.926
G1 F1200 X104.93 Y93.616 E53.15496
G0 X104.86 Y93.546
G0 F3000 X105.374 Y93.495
G1 F1200 X108.24 Y96.36 E53.36725
G0 X108.31 Y96.43
G0 F3000 X108.24 Y95.795
G1 F1200 X106.062 Y93.617 E53.5286
G0 X105.992 Y93.547
G0 F3000 X106.628 Y93.617
G1 F1200 X108.24 Y95.229 E53.64803
G0 X108.31 Y95.299
G0 F3000 X108.24 Y94.663
G1 F1200 X107.193 Y93.617 E53.72555
G0 X107.123 Y93.547
G0 F3000 X107.759 Y93.617
G1 F1200 X108.24 Y94.098 E53.76119
G0 F3000 X105.72 Y93.465
G0 X105.567 Y93.122
G0 X105.47 Y93.025
G1 F1200 X105.47 Y92.459 E53.77549
G1 X105.47 Y91.894 E53.78977
G1 X105.47 Y91.328 E53.80408
G1 X105.47 Y90.762 E53.81831
G1 X105.47 Y90.196 E53.83254
G1 X105.47 Y89.631 E53.84675
G0 F3000 X105.374 Y89.535
G0 X105.72 Y93.465
G0 X107.568 Y98.517
G1 F1200 X108.24 Y99.189 E53.89653
G0 X108.31 Y99.259
G0 F3000 X108.24 Y99.755
G1 F1200 X107.568 Y99.083 E53.94632
G0 X107.498 Y99.013
G0 F3000 X107.568 Y99.649
G1 F1200 X108.24 Y100.32 E53.99607
G0 X108.31 Y100.39
G0 F3000 X108.24 Y100.886
G1 F1200 X107.568 Y100.214 E54.04585
G0 X107.498 Y100.144
G0 F3000 X107.568 Y100.78
G1 F1200 X108.24 Y101.452 E54.09563
G0 X108.31 Y101.522
G0 F3000 X108.24 Y102.017
G1 F1200 X107.568 Y101.346 E54.14538
G0 X107.498 Y101.276
G0 F3000 X107.568 Y101.911
G1 F1200 X108.24 Y102.583 E54.19516
G0 X108.31 Y102.653
G0 F3000 X108.24 Y103.149
G1 F1200 X107.568 Y102.477 E54.24495
G0 X107.498 Y102.407
G0 F3000 X107.568 Y103.043
G1 F1200 X108.24 Y103.714 E54.29469
G0 X108.31 Y103.784
G0 F3000 X108.24 Y104.28
G1 F1200 X107.568 Y103.608 E54.34448
G0 X107.498 Y103.538
G0 F3000 X107.568 Y104.174
G1 F1200 X108.24 Y104.846 E54.39426
G0 X108.31 Y104.916
G0 F3000 X108.24 Y105.411
G1 F1200 X107.568 Y104.74 E54.44401
G0 X107.498 Y104.67
G0 F3000 X107.568 Y105.305
G1 F1200 X108.24 Y105.977 E54.49379
G0 X108.31 Y106.047
G0 F3000 X108.24 Y106.543
G1 F1200 X107.568 Y105.871 E54.54358
G0 X107.498 Y105.801
G0 F3000 X107.568 Y106.437
G1 F1200 X108.24 Y107.108 E54.59332
G0 X108.31 Y107.178
G0 F3000 X108.14 Y107.574
G1 F1200 X107.568 Y107.002 E54.6357
G0 X107.498 Y106.932
G0 F3000 X107.417 Y98.371
G0 X94.824 Y98.218
G1 F1200 X90.222 Y93.616 E54.97663
G0 X90.152 Y93.546
G0 F3000 X89.656 Y93.616
G1 F1200 X94.258 Y98.218 E55.31756
G0 X94.328 Y98.288
G0 F3000 X93.693 Y98.218
G1 F1200 X89.091 Y93.616 E55.65849
G0 X89.021 Y93.546
G0 F3000 X88.525 Y93.616
G1 F1200 X93.127 Y98.218 E55.99942
G0 X93.197 Y98.288
G0 F3000 X92.561 Y98.218
G1 F1200 X87.959 Y93.616 E56.34035
G0 X87.889 Y93.546
G0 F3000 X87.71 Y93.933
G1 F1200 X91.996 Y98.218 E56.65784
G0 X92.066 Y98.288
G0 F3000 X91.43 Y98.218
G1 F1200 X87.71 Y94.499 E56.93339
G0 X87.64 Y94.429
G0 F3000 X87.71 Y95.064
G1 F1200 X90.864 Y98.218 E57.16705
G0 X90.934 Y98.288
G0 F3000 X90.298 Y98.218
G1 F1200 X87.71 Y95.63 E57.35877
G0 X87.64 Y95.56
G0 F3000 X87.71 Y96.196
G1 F1200 X89.733 Y98.218 E57.50861
G0 X89.803 Y98.288
G0 F3000 X89.167 Y98.218
G1 F1200 X87.71 Y96.761 E57.61655
G0 X87.64 Y96.691
G0 F3000 X87.71 Y97.327
G1 F1200 X88.601 Y98.218 E57.68256
G0 X88.671 Y98.288
G0 F3000 X88.384 Y98.566
G1 F1200 X87.71 Y97.893 E57.73245
G0 X87.64 Y97.823
G0 F3000 X87.71 Y98.458
G1 F1200 X88.384 Y99.132 E57.78238
G0 X88.454 Y99.202
G0 F3000 X88.384 Y99.697
G1 F1200 X87.71 Y99.024 E57.83228
G0 X87.64 Y98.954
G0 F3000 X87.71 Y99.59
G1 F1200 X88.384 Y100.263 E57.88217
G0 X88.454 Y100.333
G0 F3000 X88.384 Y100.829
G1 F1200 X87.71 Y100.156 E57.93207
G0 X87.64 Y100.086
G0 F3000 X87.71 Y100.721
G1 F1200 X88.384 Y101.394 E57.98196
G0 X88.454 Y101.464
G0 F3000 X88.384 Y101.96
G1 F1200 X87.71 Y101.287 E58.03186
G0 X87.64 Y101.217
G0 F3000 X87.71 Y101.853
G1 F1200 X88.384 Y102.526 E58.08175
G0 X88.454 Y102.596
G0 F3000 X88.383 Y103.091
G1 F1200 X87.71 Y102.418 E58.13161
G0 X87.64 Y102.348
G0 F3000 X87.71 Y102.984
G1 F1200 X88.383 Y103.656 E58.18143
G0 X88.453 Y103.726
G0 F3000 X88.383 Y104.222
G1 F1200 X87.71 Y103.55 E58.23125
G0 X87.64 Y103.48
G0 F3000 X87.71 Y104.115
G1 F1200 X88.383 Y104.788 E58.28111
G0 X88.453 Y104.858
G0 F3000 X88.383 Y105.353
G1 F1200 X87.71 Y104.681 E58.33093
G0 X87.64 Y104.611
G0 F3000 X87.71 Y105.247
G1 F1200 X88.383 Y105.919 E58.38075
G0 X88.453 Y105.989
G0 F3000 X88.383 Y106.485
G1 F1200 X87.71 Y105.812 E58.43061
G0 X87.64 Y105.742
G0 F3000 X87.71 Y106.378
G1 F1200 X88.383 Y107.051 E58.48047
