;FLAVOR:RepRap
;TIME:11899
;Filament used: 9.00269m
;Layer height: 0.2
;Generated with Cura_SteamEngine 2.4.0
M190 S60
M104 S195
M109 S195
G21 ;metric values
G90 ;absolute positioning
M82 ;set extruder to absolute mode
M107 ;start with the fan off
G28 X0 Y0 ;move X/Y to min endstops
G28 Z0 ;move Z to min endstops
G1 Z15.0 F9000 ;move the platform down 15mm
G92 E0 ;zero the extruded length
G1 F200 E3 ;extrude 3mm of feed stock
G92 E0 ;zero the extruded length again
G1 F9000;Put printing message on LCD screen
M117 Printing...
;LAYER_COUNT:245
;LAYER:0
M107
G1 F2700 E-4
G0 F3000 X63.496 Y83.542 Z0.3
;TYPE:SKIRT
G1 F2700 E0
G1 F1200 X63.946 Y83.2 E0.02961
G1 X64.439 Y82.924 E0.05921
G1 X64.967 Y82.72 E0.08886
G1 X65.517 Y82.593 E0.11843
G1 X66.137 Y82.544 E0.15101
G1 X78.498 Y82.535 E0.79853
G1 X83.955 Y82.381 E1.08451
G1 X89.387 Y81.919 E1.37009
G1 X94.754 Y81.154 E1.65408
G1 X100.101 Y80.082 E1.93976
G1 X102.698 Y79.445 E2.07983
G1 X105.303 Y78.729 E2.22136
G1 X110.498 Y77.058 E2.50723
G1 X115.579 Y75.101 E2.79245
G1 X120.532 Y72.863 E3.07717
G1 X122.925 Y71.658 E3.21753
G1 X127.73 Y68.975 E3.50582
G1 X130.477 Y67.315 E3.67395
G1 X130.783 Y67.148 E3.69221
G1 X131.402 Y66.844 E3.72834
G1 X131.961 Y66.619 E3.7599
G1 X132.861 Y66.335 E3.80934
G1 X133.47 Y66.195 E3.84208
G1 X134.633 Y66.02 E3.90368
G1 X135.357 Y65.977 E3.94168
G1 X136.656 Y66.019 E4.00976
G1 X137.364 Y66.106 E4.04713
G1 X138.214 Y66.288 E4.09267
G1 X138.767 Y66.448 E4.12282
G1 X139.741 Y66.809 E4.17724
G1 X140.191 Y67.008 E4.20301
G1 X140.938 Y67.395 E4.24708
G1 X141.445 Y67.708 E4.2783
G1 X142.284 Y68.316 E4.33257
G1 X142.731 Y68.692 E4.36317
G1 X143.271 Y69.219 E4.4027
G1 X143.663 Y69.663 E4.43372
G1 X144.243 Y70.427 E4.48397
G1 X144.53 Y70.861 E4.51123
G1 X145.054 Y71.778 E4.56656
G1 X145.318 Y72.337 E4.59894
G1 X145.658 Y73.228 E4.6489
G1 X145.865 Y73.985 E4.69001
G1 X146.084 Y75.275 E4.75855
G1 X146.131 Y75.672 E4.77949
G1 X146.405 Y79.686 E4.99026
G1 X146.413 Y80.023 E5.00791
G1 X146.2 Y93.11 E5.69356
G1 X146.273 Y104.295 E6.2795
G1 X146.314 Y105.659 E6.35098
G1 X146.296 Y106.179 E6.37824
G1 X146.115 Y107.986 E6.47337
G1 X146.113 Y108.002 E6.47422
G1 X145.97 Y109.373 E6.54643
G1 X145.872 Y109.93 E6.57605
G1 X145.696 Y110.467 E6.60566
G1 X145.328 Y111.164 E6.64695
G1 X141.546 Y116.883 E7.00612
G1 X138.84 Y121.574 E7.28981
G1 X136.392 Y126.436 E7.57496
G1 X134.237 Y131.391 E7.85802
G1 X132.347 Y136.515 E8.14411
G1 X130.762 Y141.696 E8.42793
G1 X129.457 Y147.019 E8.71504
G1 X128.939 Y149.61 E8.85345
G1 X128.093 Y155.01 E9.13978
G1 X127.557 Y160.412 E9.42415
G1 X127.404 Y163.115 E9.56597
G1 X127.318 Y167.173 E9.7786
G1 X127.302 Y176.952 E10.29087
G1 X127.261 Y177.515 E10.32044
G1 X127.141 Y178.068 E10.35008
G1 X126.945 Y178.598 E10.37968
G1 X126.675 Y179.095 E10.40931
G1 X126.338 Y179.549 E10.43893
G1 X125.941 Y179.951 E10.46853
G1 X125.491 Y180.293 E10.49814
G1 X124.997 Y180.568 E10.52775
G1 X124.469 Y180.771 E10.55739
G1 X123.918 Y180.897 E10.587
G1 X123.216 Y180.944 E10.62385
G1 X119.69 Y180.868 E10.8086
G1 X119.526 Y180.861 E10.8172
G1 X116.264 Y180.657 E10.98842
G1 X110.811 Y180.572 E11.2741
G1 X103.555 Y180.933 E11.65468
G1 X103.353 Y180.938 E11.66526
G1 X100.88 Y180.936 E11.79481
G1 X100.316 Y180.896 E11.82443
G1 X99.763 Y180.776 E11.85407
G1 X99.061 Y180.497 E11.89364
G1 X75.957 Y168.676 E13.25316
G1 X75.473 Y168.384 E13.28277
G1 X75.035 Y168.026 E13.3124
G1 X74.652 Y167.61 E13.34202
G1 X74.332 Y167.144 E13.37164
G1 X74.08 Y166.638 E13.40125
G1 X73.903 Y166.101 E13.43087
G1 X73.802 Y165.545 E13.46047
G1 X73.779 Y165.127 E13.4824
G1 X73.718 Y144.643 E14.55545
G1 X73.412 Y139.21 E14.84051
G1 X72.8 Y133.809 E15.12525
G1 X71.884 Y128.451 E15.41
G1 X70.672 Y123.174 E15.69363
G1 X69.956 Y120.569 E15.83515
G1 X68.292 Y115.39 E16.12011
G1 X66.339 Y110.313 E16.40507
G1 X64.092 Y105.334 E16.69122
G1 X62.571 Y102.328 E16.8677
G1 X62.352 Y101.807 E16.89731
G1 X62.209 Y101.26 E16.92693
G1 X62.14 Y100.523 E16.9657
G1 X62.14 Y86.544 E17.69799
G1 X62.18 Y85.98 E17.72761
G1 X62.299 Y85.427 E17.75724
G1 X62.495 Y84.897 E17.78684
G1 X62.763 Y84.4 E17.81642
G1 X63.099 Y83.945 E17.84605
G1 X63.496 Y83.542 E17.87568
G0 F3000 X63.887 Y83.736
G1 F1200 X64.329 Y83.433 E17.90376
G1 X64.812 Y83.198 E17.93189
G1 X65.323 Y83.038 E17.95994
G1 X65.853 Y82.955 E17.98805
G1 X66.137 Y82.944 E18.00294
G1 X78.473 Y82.935 E18.64915
G1 X84 Y82.779 E18.9388
G1 X89.423 Y82.318 E19.22391
G1 X94.817 Y81.549 E19.50933
G1 X100.206 Y80.469 E19.79724
G1 X102.794 Y79.833 E19.93685
G1 X105.419 Y79.112 E20.07945
G1 X110.638 Y77.433 E20.36664
G1 X115.715 Y75.478 E20.65164
G1 X120.727 Y73.213 E20.93976
G1 X123.112 Y72.012 E21.07964
G1 X127.909 Y69.334 E21.36744
G1 X130.684 Y67.657 E21.53729
G1 X130.959 Y67.507 E21.5537
G1 X131.578 Y67.203 E21.58982
G1 X132.082 Y67.001 E21.61826
G1 X132.982 Y66.717 E21.6677
G1 X133.529 Y66.59 E21.69712
G1 X134.692 Y66.415 E21.75873
G1 X135.344 Y66.377 E21.79294
G1 X136.643 Y66.419 E21.86102
G1 X137.281 Y66.497 E21.89469
G1 X138.131 Y66.679 E21.94023
G1 X138.628 Y66.823 E21.96734
G1 X139.602 Y67.184 E22.02175
G1 X140.007 Y67.364 E22.04497
G1 X140.754 Y67.751 E22.08904
G1 X141.21 Y68.032 E22.1171
G1 X142.049 Y68.64 E22.17138
G1 X142.451 Y68.979 E22.19892
G1 X142.991 Y69.506 E22.23845
G1 X143.344 Y69.905 E22.26636
G1 X143.924 Y70.669 E22.3166
G1 X144.183 Y71.06 E22.34117
G1 X144.707 Y71.977 E22.3965
G1 X144.944 Y72.48 E22.42563
G1 X145.284 Y73.371 E22.47559
G1 X145.47 Y74.051 E22.51252
G1 X145.689 Y75.341 E22.58106
G1 X145.732 Y75.699 E22.59995
G1 X146.006 Y79.713 E22.81071
G1 X146.014 Y80.016 E22.82659
G1 X145.8 Y93.171 E23.5158
G1 X145.873 Y104.31 E24.09932
G1 X145.914 Y105.671 E24.17065
G1 X145.898 Y106.139 E24.19518
G1 X145.717 Y107.946 E24.29032
G1 X145.716 Y107.96 E24.29105
G1 X145.573 Y109.331 E24.36326
G1 X145.477 Y109.859 E24.39137
G1 X145.305 Y110.367 E24.41947
G1 X144.995 Y110.944 E24.45378
G1 X141.201 Y116.68 E24.81404
G1 X138.479 Y121.401 E25.09951
G1 X136.032 Y126.261 E25.38455
G1 X133.862 Y131.25 E25.66955
G1 X131.975 Y136.364 E25.9551
G1 X130.371 Y141.61 E26.24247
G1 X129.066 Y146.932 E26.52952
G1 X128.549 Y149.517 E26.66762
G1 X127.695 Y154.965 E26.95649
G1 X127.157 Y160.395 E27.24234
G1 X127.005 Y163.085 E27.38348
G1 X126.918 Y167.164 E27.5972
G1 X126.902 Y176.951 E28.10989
G1 X126.861 Y177.486 E28.138
G1 X126.741 Y178.008 E28.16606
G1 X126.545 Y178.507 E28.19414
G1 X126.277 Y178.972 E28.22226
G1 X125.943 Y179.391 E28.25033
G1 X125.55 Y179.757 E28.27846
G1 X125.108 Y180.059 E28.3065
G1 X124.625 Y180.293 E28.33462
G1 X124.113 Y180.452 E28.3627
G1 X123.583 Y180.534 E28.39079
G1 X123.224 Y180.544 E28.40961
G1 X119.698 Y180.468 E28.59436
G1 X119.551 Y180.462 E28.60207
G1 X116.274 Y180.257 E28.77407
G1 X110.813 Y180.172 E29.06017
G1 X103.535 Y180.534 E29.4419
G1 X103.353 Y180.538 E29.45144
G1 X100.88 Y180.536 E29.58098
G1 X100.345 Y180.496 E29.60909
G1 X99.822 Y180.376 E29.6372
G1 X99.243 Y180.141 E29.66993
G1 X76.139 Y168.32 E31.02944
G1 X75.681 Y168.041 E31.05754
G1 X75.27 Y167.697 E31.08561
G1 X74.914 Y167.295 E31.11374
G1 X74.622 Y166.846 E31.1418
G1 X74.4 Y166.357 E31.16993
G1 X74.253 Y165.842 E31.19799
G1 X74.179 Y165.126 E31.2357
G1 X74.118 Y144.619 E32.30995
G1 X73.812 Y139.178 E32.59543
G1 X73.199 Y133.768 E32.88064
G1 X72.278 Y128.379 E33.16704
G1 X71.054 Y123.053 E33.45331
G1 X70.347 Y120.482 E33.59299
G1 X68.665 Y115.244 E33.88118
G1 X66.706 Y110.154 E34.16689
G1 X64.456 Y105.168 E34.45344
G1 X62.928 Y102.148 E34.63074
G1 X62.722 Y101.653 E34.65883
G1 X62.592 Y101.132 E34.68696
G1 X62.54 Y100.523 E34.71897
G1 X62.54 Y86.544 E35.45126
G1 X62.58 Y86.009 E35.47936
G1 X62.699 Y85.486 E35.50746
G1 X62.894 Y84.987 E35.53553
G1 X63.162 Y84.522 E35.56364
G1 X63.495 Y84.102 E35.59172
G1 X63.887 Y83.736 E35.61981
G0 F3000 X64.276 Y83.943
G1 F1200 X64.709 Y83.682 E35.6463
G1 X65.177 Y83.492 E35.67276
G1 X65.67 Y83.379 E35.69925
G1 X66.138 Y83.344 E35.72384
G1 X78.484 Y83.335 E36.37058
G1 X84.011 Y83.179 E36.66022
G1 X89.477 Y82.714 E36.94759
G1 X94.883 Y81.943 E37.23365
G1 X100.288 Y80.86 E37.52242
G1 X102.882 Y80.224 E37.66233
G1 X105.549 Y79.49 E37.80723
G1 X110.768 Y77.812 E38.09441
G1 X115.874 Y75.845 E38.38105
G1 X120.892 Y73.578 E38.6695
G1 X123.299 Y72.366 E38.81067
G1 X128.11 Y69.68 E39.09931
G1 X130.891 Y67.999 E39.26954
G1 X131.135 Y67.866 E39.2841
G1 X131.754 Y67.562 E39.32022
G1 X132.202 Y67.382 E39.34551
G1 X133.102 Y67.098 E39.39495
G1 X133.589 Y66.986 E39.42113
G1 X134.752 Y66.811 E39.48274
G1 X135.331 Y66.777 E39.51312
G1 X136.63 Y66.819 E39.5812
G1 X137.197 Y66.888 E39.61113
G1 X138.047 Y67.07 E39.65666
G1 X138.489 Y67.198 E39.68077
G1 X139.463 Y67.559 E39.73518
G1 X139.823 Y67.719 E39.75582
G1 X140.57 Y68.106 E39.79989
G1 X140.976 Y68.356 E39.82487
G1 X141.815 Y68.964 E39.87914
G1 X142.172 Y69.265 E39.90361
G1 X142.712 Y69.792 E39.94313
G1 X143.026 Y70.147 E39.96796
G1 X143.606 Y70.911 E40.01821
G1 X143.835 Y71.258 E40.03999
G1 X144.359 Y72.175 E40.09531
G1 X144.571 Y72.622 E40.12123
G1 X144.911 Y73.513 E40.17119
G1 X145.076 Y74.118 E40.20404
G1 X145.295 Y75.408 E40.27258
G1 X145.333 Y75.726 E40.28936
G1 X145.607 Y79.74 E40.50012
G1 X145.614 Y80.01 E40.51427
G1 X145.4 Y93.188 E41.20468
G1 X145.473 Y104.282 E41.78585
G1 X145.515 Y105.683 E41.85928
G1 X145.5 Y106.099 E41.88108
G1 X145.319 Y107.906 E41.97622
G1 X145.318 Y107.919 E41.9769
G1 X145.175 Y109.29 E42.04911
G1 X145.083 Y109.787 E42.07559
G1 X144.914 Y110.264 E42.10209
G1 X144.661 Y110.723 E42.12955
G1 X140.865 Y116.463 E42.49004
G1 X138.129 Y121.208 E42.77697
G1 X135.665 Y126.1 E43.06391
G1 X133.495 Y131.088 E43.34886
G1 X131.591 Y136.251 E43.63713
G1 X129.99 Y141.486 E43.9239
G1 X128.674 Y146.85 E44.21322
G1 X128.15 Y149.474 E44.35339
G1 X127.3 Y154.899 E44.64105
G1 X126.759 Y160.358 E44.92842
G1 X126.605 Y163.082 E45.07134
G1 X126.518 Y167.137 E45.28381
G1 X126.502 Y176.95 E45.79786
G1 X126.461 Y177.454 E45.82435
G1 X126.342 Y177.945 E45.85082
G1 X126.146 Y178.412 E45.87735
G1 X125.88 Y178.841 E45.90379
G1 X125.549 Y179.224 E45.93031
G1 X125.162 Y179.549 E45.95678
G1 X124.729 Y179.809 E45.98324
G1 X124.26 Y179.998 E46.00973
G1 X123.767 Y180.111 E46.03622
G1 X123.233 Y180.144 E46.06425
G1 X119.707 Y180.068 E46.249
G1 X119.576 Y180.063 E46.25587
G1 X116.284 Y179.857 E46.42865
G1 X110.799 Y179.772 E46.71602
G1 X103.515 Y180.134 E47.09806
G1 X103.353 Y180.138 E47.10655
G1 X100.88 Y180.136 E47.2361
G1 X100.376 Y180.096 E47.26258
G1 X99.885 Y179.976 E47.28906
G1 X99.425 Y179.785 E47.31515
G1 X76.321 Y167.964 E48.67466
G1 X75.891 Y167.699 E48.70112
G1 X75.508 Y167.369 E48.72761
G1 X75.181 Y166.983 E48.75411
G1 X74.919 Y166.551 E48.78058
G1 X74.729 Y166.082 E48.80708
G1 X74.614 Y165.59 E48.83355
G1 X74.579 Y165.124 E48.85803
G1 X74.518 Y144.615 E49.93239
G1 X74.21 Y139.146 E50.21934
G1 X73.592 Y133.69 E50.50698
G1 X72.673 Y128.314 E50.79268
G1 X71.445 Y122.972 E51.07982
G1 X70.725 Y120.351 E51.22221
G1 X69.043 Y115.115 E51.5103
G1 X67.076 Y110.003 E51.79723
G1 X64.811 Y104.983 E52.08573
G1 X63.285 Y101.967 E52.26279
G1 X63.093 Y101.5 E52.28924
G1 X62.977 Y101.007 E52.31578
G1 X62.94 Y100.523 E52.3412
G1 X62.94 Y86.544 E53.07349
G1 X62.98 Y86.04 E53.09997
G1 X63.099 Y85.549 E53.12644
G1 X63.293 Y85.082 E53.15293
G1 X63.559 Y84.652 E53.17942
G1 X63.889 Y84.269 E53.2059
G1 X64.276 Y83.943 E53.23241
G0 F3000 X128.484 Y80.178
;TYPE:SUPPORT
G1 F1200 X128.756 Y79.885 E53.25335
G1 X128.756 Y76.767 E53.41669
G1 X128.781 Y76.626 E53.42419
G1 X128.951 Y76.166 E53.44988
G1 X128.981 Y75.724 E53.47309
G1 X129.229 Y75.453 E53.49233
G1 X129.798 Y73.895 E53.57922
G1 X130.237 Y73.099 E53.62684
G1 X130.771 Y72.379 E53.67379
G1 X131.46 Y71.672 E53.72551
G1 X132.058 Y71.237 E53.76425
G1 X133.037 Y70.69 E53.82299
G1 X133.81 Y70.41 E53.86606
G1 X134.735 Y70.206 E53.91568
G1 X135.613 Y70.143 E53.96179
G1 X136.522 Y70.207 E54.00953
G1 X137.392 Y70.396 E54.05617
G1 X138.326 Y70.755 E54.10858
G1 X139.046 Y71.135 E54.15123
G1 X139.852 Y71.729 E54.20368
G1 X140.404 Y72.279 E54.2445
G1 X140.962 Y73.041 E54.29398
G1 X141.416 Y73.86 E54.34303
G1 X141.74 Y74.712 E54.39078
G1 X141.91 Y75.534 E54.43475
G1 X142 Y76.771 E54.49972
G1 X142 Y79.842 E54.6606
G1 X142.236 Y80.164 E54.68151
G1 X142.236 Y80.77 E54.71325
G1 X142 Y81.092 E54.73417
G1 X142 Y85.635 E54.97215
G1 X131.029 Y85.635 E55.54686
G1 X131.029 Y80.275 E55.82765
G1 X130.488 Y79.956 E55.86055
G1 X128.484 Y81.068 E55.9806
G1 X128.484 Y80.178 E56.02723
G0 F3000 X128.867 Y80
G1 F1200 X130.076 Y80 E56.09056
G0 F3000 X130 Y80.044
G1 F1200 X130 Y73.857 E56.41466
G0 F3000 X129.929 Y74
G1 F1200 X141.298 Y74 E57.01023
G0 F3000 X141.784 Y76
G1 F1200 X129.122 Y76 E57.67352
G0 F3000 X128.916 Y78
G1 F1200 X141.84 Y78 E58.35054
G0 F3000 X141.918 Y80
G1 F1200 X130.88 Y80 E58.92876
G0 F3000 X131.189 Y82
G1 F1200 X141.84 Y82 E59.48671
G0 F3000 X142 Y80.821
G1 F1200 X142 Y80.114 E59.52375
G0 F3000 X141.84 Y84
G1 F1200 X131.189 Y84 E60.0817
G0 F3000 X132 Y85.475
G1 F1200 X132 Y71.475 E60.81508
G0 F3000 X131.363 Y72
G1 F1200 X139.9 Y72 E61.26229
G0 F3000 X140 Y72.102
G1 F1200 X140 Y85.475 E61.96283
G0 F3000 X138 Y85.475
G1 F1200 X138 Y70.801 E62.73153
G0 F3000 X136 Y70.331
G1 F1200 X136 Y85.475 E63.52484
G0 F3000 X134 Y85.475
G1 F1200 X134 Y70.531 E64.30768
G1 F2700 E60.30768
G0 F3000 X142.645 Y85.882
G0 X142.646 Y90.187
G0 X132.028 Y90.433
G1 F2700 E64.30768
G1 F1200 X142 Y90.434 E64.83006
G1 X142 Y105.586 E65.62379
G1 X132.028 Y105.586 E66.14617
G1 X132.028 Y90.433 E66.93996
G0 F3000 X132.188 Y92
G1 F1200 X141.84 Y92 E67.44558
G0 F3000 X141.84 Y94
G1 F1200 X132.188 Y94 E67.95119
G0 F3000 X132.188 Y96
G1 F1200 X141.84 Y96 E68.45681
G0 F3000 X141.84 Y98
G1 F1200 X132.188 Y98 E68.96243
G0 F3000 X132.188 Y100
G1 F1200 X141.84 Y100 E69.46804
G0 F3000 X141.84 Y102
G1 F1200 X132.188 Y102 E69.97366
G0 F3000 X132.188 Y104
G1 F1200 X141.84 Y104 E70.47928
G0 F3000 X140 Y105.426
G1 F1200 X140 Y90.594 E71.25625
G0 F3000 X138 Y90.594
G1 F1200 X138 Y105.426 E72.03322
G0 F3000 X136 Y105.426
G1 F1200 X136 Y90.594 E72.81019
G0 F3000 X134 Y90.594
G1 F1200 X134 Y105.426 E73.58716
G1 F2700 E69.58716
G0 F3000 X142.653 Y105.833
G0 X142.653 Y109.627
G0 X123.967 Y177.608
G0 X120.179 Y177.607
G0 X119.936 Y168.313
G1 F2700 E73.58716
G1 F1200 X119.933 Y174.603 E73.91666
G1 X119.474 Y174.42 E73.94254
G1 X119.337 Y174.291 E73.9524
G1 X119.337 Y170.735 E74.13868
G1 X119.081 Y170.298 E74.16521
G1 X118.311 Y169.866 E74.21146
G1 X118.312 Y168.602 E74.27768
G1 X118.312 Y168.312 E74.29287
G1 X119.936 Y168.313 E74.37794
G0 F3000 X119.774 Y170
G1 F1200 X118.875 Y170 E74.42504
G0 F3000 X119.496 Y172
G1 F1200 X119.773 Y172 E74.43955
G0 F3000 X119.772 Y174
G1 F1200 X119.496 Y174 E74.454
G0 F3000 X105.892 Y169.84
G1 F1200 X105.109 Y170.277 E74.50098
G1 X104.853 Y170.714 E74.52751
G1 X104.853 Y174.297 E74.7152
G1 X104.696 Y174.429 E74.72595
G1 X104.266 Y174.611 E74.75041
G1 X104.269 Y168.306 E75.08069
G1 X105.893 Y168.307 E75.16577
G1 X105.892 Y168.904 E75.19704
G1 X105.892 Y169.84 E75.24607
G0 F3000 X105.275 Y170
G1 F1200 X104.428 Y170 E75.29044
G0 F3000 X104.427 Y172
G1 F1200 X104.692 Y172 E75.30432
G0 F3000 X104.692 Y174
G1 F1200 X104.426 Y174 E75.31826
G1 F2700 E71.31826
G0 F3000 X120.179 Y177.607
G0 X123.967 Y177.608
G0 X123.983 Y140.025
G0 X107.748 Y130.199
G0 X107.748 Y128.92
G0 X107.804 Y128.864
G0 X107.734 Y128.934
;TYPE:WALL-INNER
G1 F2700 E75.31826
G1 F1200 X107.734 Y122.641 E75.64792
G1 X113.527 Y116.849 E76.07704
G1 X115.754 Y108.538 E76.52777
G1 X113.527 Y100.225 E76.9786
G1 X107.443 Y94.141 E77.42932
G1 X99.131 Y91.914 E77.8801
G1 X90.819 Y94.141 E78.33088
G1 X85.027 Y99.933 E78.75997
G1 X66.731 Y99.933 E79.7184
G1 X66.731 Y87.135 E80.38882
G1 X141.392 Y87.135 E84.29992
G1 X141.393 Y88.734 E84.38368
G1 X141.393 Y88.934 E84.39416
G1 X141.193 Y88.934 E84.40094
G1 X130.728 Y88.933 E84.94915
G1 X130.528 Y88.933 E84.95962
G1 X130.528 Y89.133 E84.96641
G1 X130.528 Y107.086 E85.90687
G1 X141.4 Y107.086 E86.4764
G1 X141.4 Y108.379 E86.54413
G1 X117.65 Y128.934 E88.18952
G1 X107.734 Y128.934 E88.70896
G0 F3000 X107.804 Y128.864
G0 X113.343 Y125.323
G0 X113.424 Y125.265
