;FLAVOR:RepRap
;TIME:8042
;Filament used: 5.77143m
;Layer height: 0.2
;Generated with Cura_SteamEngine 2.4.0
M190 S60
M104 S195
M109 S195
G21 ;metric values
G90 ;absolute positioning
M82 ;set extruder to absolute mode
M107 ;start with the fan off
G28 X0 Y0 ;move X/Y to min endstops
G28 Z0 ;move Z to min endstops
G1 Z15.0 F9000 ;move the platform down 15mm
G92 E0 ;zero the extruded length
G1 F200 E3 ;extrude 3mm of feed stock
G92 E0 ;zero the extruded length again
G1 F9000;Put printing message on LCD screen
M117 Printing...
;LAYER_COUNT:66
;LAYER:0
M107
G1 F2700 E-4
G0 F3000 X29.681 Y181.05 Z0.3
;TYPE:SKIRT
G1 F2700 E0
G1 F1200 X185.858 Y24.86 E11.57057
G1 X188.889 Y21.704 E11.79979
G1 X189.308 Y21.325 E11.82939
G1 X189.906 Y20.938 E11.8667
G1 X193.143 Y19.229 E12.05845
G1 X196.798 Y17.113 E12.27969
G1 X197.306 Y16.865 E12.3093
G1 X197.844 Y16.691 E12.33892
G1 X198.401 Y16.595 E12.36853
G1 X198.966 Y16.578 E12.39814
G1 X199.528 Y16.641 E12.42777
G1 X200.076 Y16.783 E12.45742
G1 X200.597 Y17.001 E12.48701
G1 X201.083 Y17.289 E12.5166
G1 X201.593 Y17.71 E12.55125
G1 X203.504 Y19.572 E12.69101
G1 X203.648 Y19.719 E12.70179
G1 X206.834 Y23.159 E12.94741
G1 X210.815 Y27.036 E13.23851
G1 X213.582 Y29.643 E13.43766
G1 X213.817 Y29.884 E13.45529
G1 X214.389 Y30.522 E13.50018
G1 X214.736 Y30.968 E13.52978
G1 X215.016 Y31.459 E13.55939
G1 X215.225 Y31.985 E13.58904
G1 X215.357 Y32.535 E13.61867
G1 X215.41 Y33.097 E13.64824
G1 X215.383 Y33.662 E13.67787
G1 X215.277 Y34.217 E13.70747
G1 X215.094 Y34.752 E13.73709
G1 X214.873 Y35.196 E13.76307
G1 X213.069 Y38.313 E13.95173
G1 X211.074 Y42.093 E14.17563
G1 X210.775 Y42.573 E14.20526
G1 X210.298 Y43.119 E14.24324
G1 X206.984 Y46.283 E14.48326
G1 X50.942 Y202.312 E26.04286
G1 X50.515 Y202.682 E26.07246
G1 X50.04 Y202.989 E26.10208
G1 X49.527 Y203.225 E26.13167
G1 X48.985 Y203.387 E26.1613
G1 X48.426 Y203.471 E26.19091
G1 X47.861 Y203.475 E26.22051
G1 X47.301 Y203.399 E26.25011
G1 X46.757 Y203.246 E26.27972
G1 X46.24 Y203.017 E26.30934
G1 X45.76 Y202.717 E26.33899
G1 X45.303 Y202.329 E26.37039
G1 X44.236 Y201.275 E26.44896
G1 X44.088 Y201.121 E26.46015
G1 X38.634 Y195.126 E26.88471
G1 X34.746 Y191.351 E27.16859
G1 X31.182 Y188.209 E27.41748
G1 X30.985 Y188.023 E27.43168
G1 X29.668 Y186.693 E27.52973
G1 X29.299 Y186.264 E27.55937
G1 X28.995 Y185.787 E27.589
G1 X28.761 Y185.273 E27.61858
G1 X28.602 Y184.73 E27.64822
G1 X28.521 Y184.171 E27.67781
G1 X28.519 Y183.605 E27.70746
G1 X28.598 Y183.045 E27.73709
G1 X28.754 Y182.502 E27.76668
G1 X28.986 Y181.986 E27.79632
G1 X29.287 Y181.508 E27.82591
G1 X29.681 Y181.05 E27.85756
G0 F3000 X29.964 Y181.333
G1 F1200 X186.147 Y25.137 E39.42857
G1 X189.178 Y21.981 E39.6578
G1 X189.577 Y21.623 E39.68588
G1 X190.093 Y21.292 E39.71799
G1 X193.332 Y19.582 E39.90986
G1 X196.999 Y17.459 E40.13183
G1 X197.481 Y17.226 E40.15987
G1 X197.994 Y17.067 E40.18801
G1 X198.524 Y16.986 E40.21609
G1 X199.06 Y16.984 E40.24417
G1 X199.591 Y17.062 E40.27229
G1 X200.104 Y17.219 E40.30039
G1 X200.588 Y17.449 E40.32846
G1 X201.032 Y17.749 E40.35653
G1 X201.314 Y17.997 E40.3762
G1 X203.225 Y19.859 E40.51597
G1 X203.354 Y19.991 E40.52564
G1 X206.543 Y23.435 E40.77152
G1 X210.521 Y27.308 E41.06236
G1 X213.308 Y29.934 E41.26295
G1 X213.519 Y30.151 E41.27881
G1 X214.091 Y30.789 E41.3237
G1 X214.419 Y31.214 E41.35182
G1 X214.679 Y31.682 E41.37986
G1 X214.867 Y32.185 E41.40799
G1 X214.978 Y32.709 E41.43605
G1 X215.011 Y33.245 E41.46418
G1 X214.963 Y33.779 E41.49227
G1 X214.836 Y34.3 E41.52036
G1 X214.527 Y34.996 E41.56025
G1 X212.71 Y38.135 E41.75025
G1 X210.72 Y41.906 E41.97361
G1 X210.435 Y42.36 E42.00169
G1 X210.022 Y42.83 E42.03447
G1 X206.686 Y46.015 E42.27608
G1 X50.659 Y202.029 E53.83457
G1 X50.253 Y202.379 E53.86265
G1 X49.799 Y202.664 E53.89073
G1 X49.308 Y202.879 E53.91881
G1 X48.79 Y203.019 E53.94692
G1 X48.257 Y203.08 E53.97503
G1 X47.721 Y203.062 E54.00312
G1 X47.194 Y202.963 E54.03121
G1 X46.687 Y202.788 E54.05931
G1 X46.212 Y202.54 E54.08738
G1 X45.584 Y202.044 E54.1293
G1 X44.517 Y200.99 E54.20786
G1 X44.384 Y200.852 E54.2179
G1 X38.926 Y194.852 E54.6428
G1 X35.017 Y191.057 E54.9282
G1 X31.446 Y187.909 E55.17758
G1 X31.269 Y187.741 E55.19036
G1 X29.952 Y186.411 E55.28841
G1 X29.604 Y186.003 E55.3165
G1 X29.321 Y185.548 E55.34457
G1 X29.108 Y185.055 E55.3727
G1 X28.971 Y184.537 E55.40077
G1 X28.912 Y184.004 E55.42886
G1 X28.933 Y183.468 E55.45696
G1 X29.034 Y182.941 E55.48507
G1 X29.212 Y182.435 E55.51317
G1 X29.463 Y181.961 E55.54127
G1 X29.781 Y181.53 E55.56933
G1 X29.964 Y181.333 E55.58341
G0 F3000 X30.247 Y181.615
G1 F1200 X186.435 Y25.414 E67.1548
G1 X189.466 Y22.258 E67.38402
G1 X189.844 Y21.923 E67.41048
G1 X190.28 Y21.645 E67.43756
G1 X193.529 Y19.929 E67.63004
G1 X197.199 Y17.805 E67.85217
G1 X197.655 Y17.588 E67.87862
G1 X198.14 Y17.444 E67.90513
G1 X198.641 Y17.379 E67.93159
G1 X199.147 Y17.394 E67.95811
G1 X199.643 Y17.488 E67.98456
G1 X200.119 Y17.659 E68.01105
G1 X200.562 Y17.903 E68.03754
G1 X201.035 Y18.283 E68.06933
G1 X202.946 Y20.145 E68.2091
G1 X203.061 Y20.263 E68.21773
G1 X206.254 Y23.711 E68.4639
G1 X210.257 Y27.609 E68.7566
G1 X213.033 Y30.225 E68.95641
G1 X213.222 Y30.418 E68.97056
G1 X213.794 Y31.056 E69.01545
G1 X214.1 Y31.458 E69.04191
G1 X214.34 Y31.903 E69.0684
G1 X214.506 Y32.38 E69.09486
G1 X214.596 Y32.878 E69.12137
G1 X214.605 Y33.383 E69.14783
G1 X214.535 Y33.884 E69.17433
G1 X214.387 Y34.368 E69.20084
G1 X214.18 Y34.795 E69.2257
G1 X212.367 Y37.926 E69.41523
G1 X210.366 Y41.719 E69.63988
G1 X210.096 Y42.147 E69.66639
G1 X209.746 Y42.541 E69.69399
G1 X206.41 Y45.726 E69.93561
G1 X50.377 Y201.746 E81.49454
G1 X49.992 Y202.074 E81.52104
G1 X49.561 Y202.337 E81.54749
G1 X49.093 Y202.53 E81.57401
G1 X48.601 Y202.646 E81.60049
G1 X48.097 Y202.683 E81.62696
G1 X47.593 Y202.64 E81.65346
G1 X47.102 Y202.519 E81.67995
G1 X46.637 Y202.322 E81.7064
G1 X46.208 Y202.053 E81.73293
G1 X45.865 Y201.76 E81.75656
G1 X44.798 Y200.706 E81.83513
G1 X44.68 Y200.582 E81.84409
G1 X39.218 Y194.578 E82.26929
G1 X35.277 Y190.752 E82.55702
G1 X31.711 Y187.608 E82.80606
G1 X31.553 Y187.46 E82.8174
G1 X30.236 Y186.13 E82.91545
G1 X29.91 Y185.743 E82.94196
G1 X29.649 Y185.311 E82.9684
G1 X29.459 Y184.842 E82.9949
G1 X29.345 Y184.349 E83.02141
G1 X29.31 Y183.845 E83.04788
G1 X29.355 Y183.342 E83.07433
G1 X29.479 Y182.851 E83.10086
G1 X29.679 Y182.387 E83.12733
G1 X29.949 Y181.96 E83.15379
G1 X30.247 Y181.615 E83.17768
G1 F2700 E79.17768
G0 F3000 X31.571 Y183.878
G0 X34.073 Y186.379
G0 X36.735 Y184.81
;TYPE:SUPPORT
G1 F2700 E83.17768
G1 F1200 X36.212 Y184.587 E83.20746
G1 X38.555 Y182.243 E83.38107
G1 X38.796 Y182.768 E83.41133
G1 X38.813 Y182.937 E83.42023
G1 X36.923 Y184.824 E83.56014
G1 X36.735 Y184.81 E83.57001
G0 F3000 X37.026 Y184
G1 F1200 X37.52 Y184 E83.59589
G0 F3000 X38 Y183.523
G1 F1200 X38 Y183.025 E83.62198
G0 F3000 X49.24 Y193.198
G1 F1200 X49.763 Y193.422 E83.65178
G1 X47.401 Y195.783 E83.82673
G1 X47.185 Y195.271 E83.85584
G1 X47.165 Y195.07 E83.86642
G1 X49.059 Y193.18 E84.00659
G1 X49.24 Y193.198 E84.01612
G0 F3000 X48.955 Y194
G1 F1200 X48.463 Y194 E84.04189
G0 F3000 X48 Y194.462
G1 F1200 X48 Y194.956 E84.06777
G1 F2700 E80.06777
G0 F3000 X45.612 Y197.92
G0 X48.114 Y200.421
G0 X207.889 Y40.646
G0 X206.345 Y38.755
G1 F2700 E84.06777
G1 F1200 X207.766 Y37.334 E84.17304
G1 X207.399 Y39.809 E84.30411
G1 X206.345 Y38.755 E84.38219
G0 F3000 X207.326 Y38
G1 F1200 X207.505 Y38 E84.39157
G0 F3000 X210.107 Y34.239
G1 F1200 X210.108 Y34.239 E84.39162
G1 X209.102 Y35.244 E84.46611
G1 X207.315 Y33.459 E84.59843
G1 X209.385 Y31.388 E84.75181
G1 X209.417 Y31.413 E84.75394
G1 X211.144 Y33.141 E84.88192
G1 X211.164 Y33.17 E84.88377
G1 X210.107 Y34.239 E84.96252
G0 F3000 X210 Y34.119
G1 F1200 X210 Y32.224 E85.06179
G0 F3000 X209.778 Y32
G1 F1200 X208.998 Y32 E85.10265
G0 F3000 X208 Y32.999
G1 F1200 X208 Y33.917 E85.15074
G0 F3000 X208.083 Y34
G1 F1200 X210.116 Y34 E85.25723
G0 F3000 X199.878 Y23.336
G1 F1200 X198.533 Y24.677 E85.35673
G1 X196.751 Y22.896 E85.48871
G1 X198.417 Y21.228 E85.6122
G1 X198.823 Y20.824 E85.64221
G1 X198.857 Y20.849 E85.64442
G1 X200.563 Y22.555 E85.7708
G1 X200.605 Y22.608 E85.77435
G1 X199.878 Y23.336 E85.82824
G0 F3000 X200 Y22.987
G1 F1200 X200 Y22.219 E85.86847
G0 F3000 X199.782 Y22
G1 F1200 X197.873 Y22 E85.96848
G0 F3000 X198 Y21.873
G1 F1200 X198 Y23.918 E86.0756
G0 F3000 X198.083 Y24
G1 F1200 X198.984 Y24 E86.1228
G1 F2700 E82.1228
G0 F3000 X196.388 Y22.883
G0 X194.642 Y24.241
G1 F2700 E86.1228
G1 F1200 X193.237 Y25.647 E86.22693
G1 X192.194 Y24.604 E86.30419
G1 X194.642 Y24.241 E86.43383
G0 F3000 X194 Y24.497
G1 F1200 X194 Y24.657 E86.44222
G1 F2700 E82.44222
G0 F3000 X194.277 Y24.939
G0 X195.186 Y25.846
G0 X193.237 Y27.867
G0 X193.237 Y27.767
;TYPE:WALL-INNER
G1 F2700 E86.44222
G1 F1200 X196.228 Y24.775 E86.66384
G1 X196.369 Y24.634 E86.67428
G1 X196.51 Y24.775 E86.68103
G1 X196.757 Y25.022 E86.69932
G1 X193.624 Y28.155 E86.93143
G1 X203.836 Y38.367 E87.68796
G1 X206.97 Y35.234 E87.9201
G1 X207.358 Y35.622 E87.94885
G1 X204.225 Y38.755 E88.18095
G1 X206.116 Y40.646 E88.32104
G1 X48.114 Y198.648 E100.02633
G1 X47.526 Y198.061 E100.06986
G1 X47.385 Y197.92 E100.0803
G1 X47.526 Y197.779 E100.08705
G1 X54.002 Y191.303 E100.56681
G1 X40.829 Y178.13 E101.54271
G1 X40.688 Y177.989 E101.55315
G1 X40.547 Y178.13 E101.5599
G1 X34.073 Y184.606 E102.03959
G1 X33.485 Y184.019 E102.08311
G1 X33.344 Y183.878 E102.09356
G1 X33.485 Y183.737 E102.1003
G1 X191.346 Y25.877 E113.79511
G1 X193.237 Y27.767 E113.93516
G0 F3000 X193.237 Y27.867
G0 X188.862 Y29.832
G0 X188.862 Y29.932
G1 F1200 X188.721 Y30.073 E113.94561
G1 X173.726 Y45.069 E115.05652
G1 X186.782 Y58.125 E116.02375
G1 X186.923 Y58.266 E116.0342
G1 X187.064 Y58.125 E116.04094
G1 X202.059 Y43.129 E117.15186
G1 X189.003 Y30.073 E118.11909
G1 X188.862 Y29.932 E118.12583
G0 F3000 X188.862 Y29.832
G0 X170.332 Y48.362
G0 X170.332 Y48.462
G1 F1200 X170.191 Y48.603 E118.13628
G1 X155.196 Y63.599 E119.24719
G1 X168.252 Y76.655 E120.21442
G1 X168.393 Y76.796 E120.22487
G1 X168.534 Y76.655 E120.23161
G1 X183.529 Y61.659 E121.34253
G1 X170.473 Y48.603 E122.30976
G1 X170.332 Y48.462 E122.3165
G0 F3000 X170.332 Y48.362
G0 X151.802 Y66.892
G0 X151.802 Y66.992
G1 F1200 X136.666 Y82.128 E123.43782
G1 X149.722 Y95.185 E124.40509
G1 X149.863 Y95.326 E124.41554
G1 X150.004 Y95.185 E124.42228
G1 X164.999 Y80.189 E125.5332
G1 X151.802 Y66.992 E126.51087
G0 F3000 X151.802 Y66.892
G0 X133.105 Y85.59
G0 X133.105 Y85.69
G1 F1200 X132.964 Y85.831 E126.52132
G1 X118.277 Y100.517 E127.60934
G1 X118.136 Y100.658 E127.61979
G1 X118.277 Y100.799 E127.62653
G1 X131.333 Y113.854 E128.59372
G1 X146.301 Y98.888 E129.70253
G1 X133.246 Y85.831 E130.66976
G1 X133.105 Y85.69 E130.6765
G0 F3000 X133.105 Y85.59
G0 X114.742 Y103.952
G0 X114.742 Y104.052
G1 F1200 X99.607 Y119.187 E131.79775
G1 X112.662 Y132.244 E132.76498
G1 X112.803 Y132.385 E132.77543
G1 X112.944 Y132.244 E132.78217
G1 X127.798 Y117.389 E133.88264
G1 X127.939 Y117.248 E133.89308
G1 X127.798 Y117.107 E133.89983
G1 X114.742 Y104.052 E134.86702
G0 F3000 X114.742 Y103.952
G0 X96.213 Y122.481
G0 X96.213 Y122.581
G1 F1200 X81.077 Y137.717 E135.98835
G1 X94.133 Y150.774 E136.95561
G1 X94.274 Y150.915 E136.96606
G1 X94.415 Y150.774 E136.9728
G1 X109.41 Y135.778 E138.08372
G1 X96.213 Y122.581 E139.06139
G0 F3000 X96.213 Y122.481
G0 X77.683 Y141.011
G0 X77.683 Y141.111
G1 F1200 X62.547 Y156.247 E140.18272
G1 X75.744 Y169.444 E141.16039
G1 X90.88 Y154.308 E142.28171
G1 X77.683 Y141.111 E143.25939
G0 F3000 X77.683 Y141.011
G0 X59.153 Y159.541
G0 X59.153 Y159.641
G1 F1200 X44.019 Y174.775 E144.38056
G1 X57.073 Y187.833 E145.34779
G1 X57.214 Y187.974 E145.35824
G1 X57.355 Y187.833 E145.36499
G1 X72.35 Y172.838 E146.47586
G1 X59.153 Y159.641 E147.45354
G0 F3000 X59.153 Y160.207
;TYPE:WALL-OUTER
G1 F1200 X44.585 Y174.775 E148.53278
G1 X57.073 Y187.267 E149.45808
G1 X57.214 Y187.408 E149.46853
G1 X57.355 Y187.267 E149.47527
G1 X71.784 Y172.838 E150.54422
G1 X59.153 Y160.207 E151.47996
G0 F3000 X59.012 Y160.348
G0 X58.66 Y159.994
G0 X62.76 Y155.894
G0 X63.113 Y156.247
G1 F1200 X75.744 Y168.878 E152.41571
G1 X90.314 Y154.308 E153.4951
G1 X77.683 Y141.677 E154.43084
G1 X63.113 Y156.247 E155.51023
G0 F3000 X63.254 Y156.388
G0 X62.9 Y156.74
G0 X62.507 Y156.247
G0 X81.29 Y137.364
G0 X81.643 Y137.717
G1 F1200 X94.133 Y150.208 E156.43557
G1 X94.274 Y150.349 E156.44602
G1 X94.415 Y150.208 E156.45276
G1 X108.844 Y135.778 E157.52174
G1 X96.213 Y123.147 E158.45749
G1 X81.643 Y137.717 E159.53688
G0 F3000 X81.784 Y137.858
G0 X81.43 Y138.21
G0 X81.037 Y137.717
G0 X99.82 Y118.834
G0 X100.173 Y119.187
G1 F1200 X112.662 Y131.678 E160.46218
G1 X112.803 Y131.819 E160.47263
G1 X112.944 Y131.678 E160.47937
G1 X127.232 Y117.389 E161.53791
G1 X127.373 Y117.248 E161.54835
G1 X127.232 Y117.107 E161.5551
G1 X114.742 Y104.618 E162.48036
G1 X100.173 Y119.187 E163.55968
G0 F3000 X100.314 Y119.328
G0 X99.96 Y119.68
G0 X99.567 Y119.187
G0 X118.349 Y100.305
G0 X118.702 Y100.658
G1 F1200 X118.843 Y100.799 E163.57012
G1 X131.333 Y113.288 E164.49539
G1 X145.735 Y98.888 E165.56226
G1 X133.246 Y86.397 E166.48756
G1 X133.105 Y86.256 E166.498
G1 X132.964 Y86.397 E166.50475
G1 X118.843 Y100.517 E167.55084
G1 X118.702 Y100.658 E167.55758
G0 F3000 X118.843 Y100.799
G0 X118.489 Y101.151
G0 X118.096 Y100.658
G0 X136.879 Y81.775
G0 X137.232 Y82.128
G1 F1200 X149.722 Y94.619 E168.48292
G1 X149.863 Y94.76 E168.49337
G1 X150.004 Y94.619 E168.50011
G1 X164.433 Y80.189 E169.56909
G1 X151.802 Y67.558 E170.50484
G1 X137.232 Y82.128 E171.58423
G0 F3000 X137.373 Y82.269
G0 X137.019 Y82.621
G0 X136.626 Y82.128
G0 X155.409 Y63.246
G0 X155.762 Y63.599
G1 F1200 X168.252 Y76.089 E172.50953
G1 X168.393 Y76.23 E172.51997
G1 X168.534 Y76.089 E172.52672
G1 X182.963 Y61.659 E173.5957
G1 X170.473 Y49.169 E174.521
G1 X170.332 Y49.028 E174.53145
G1 X170.191 Y49.169 E174.53819
G1 X155.762 Y63.599 E175.60718
G0 F3000 X155.903 Y63.74
G0 X155.549 Y64.092
G0 X155.156 Y63.599
G0 X173.939 Y44.716
G0 X174.292 Y45.069
G1 F1200 X186.782 Y57.559 E176.53247
G1 X186.923 Y57.7 E176.54292
G1 X187.064 Y57.559 E176.54967
G1 X201.493 Y43.129 E177.61865
G1 X189.003 Y30.639 E178.54395
G1 X188.862 Y30.498 E178.55439
G1 X188.721 Y30.639 E178.56114
G1 X174.292 Y45.069 E179.63012
G0 F3000 X174.433 Y45.21
G0 X174.079 Y45.562
G0 X173.686 Y45.069
G0 X188.862 Y29.892
G0 X192.884 Y27.554
G0 X193.237 Y27.201
G1 F1200 X196.207 Y24.23 E179.85019
G1 X196.373 Y24.073 E179.86215
G1 X197.257 Y24.956 E179.92761
G1 X197.316 Y25.015 E179.93198
G1 X197.159 Y25.186 E179.94414
G1 X197.1 Y25.245 E179.94851
G1 X194.19 Y28.155 E180.16409
G1 X203.836 Y37.801 E180.8787
G1 X206.805 Y34.833 E181.09861
G1 X206.976 Y34.675 E181.11081
G1 X207.859 Y35.556 E181.17615
G1 X207.92 Y35.617 E181.18067
G1 X207.765 Y35.781 E181.19249
G1 X207.704 Y35.842 E181.19701
G1 X204.791 Y38.755 E181.41281
G1 X206.682 Y40.646 E181.55291
G1 X48.114 Y199.214 E193.30013
G1 X46.96 Y198.061 E193.38558
G1 X46.819 Y197.92 E193.39603
G1 X46.96 Y197.779 E193.40277
G1 X53.436 Y191.303 E193.88253
G1 X40.829 Y178.696 E194.8165
G1 X40.688 Y178.555 E194.82695
G1 X40.547 Y178.696 E194.83369
G1 X34.073 Y185.172 E195.31338
G1 X32.919 Y184.019 E195.39884
G1 X32.778 Y183.878 E195.40928
G1 X32.919 Y183.737 E195.41603
G1 X191.346 Y25.311 E207.15276
G1 X193.237 Y27.201 E207.29282
G0 F3000 X193.378 Y27.06
G0 X193.85 Y27.539
G1 F1200 X193.567 Y27.821 E207.30265
G0 F3000 X194.133 Y27.256
G1 F1200 X194.416 Y26.973 E207.31256
G1 X194.699 Y26.69 E207.32247
G1 X194.982 Y26.407 E207.33232
G1 X195.264 Y26.124 E207.34216
G1 X195.547 Y25.842 E207.35199
G1 X195.83 Y25.559 E207.36185
G1 X196.113 Y25.276 E207.37175
G1 X196.396 Y24.993 E207.38166
G0 F3000 X196.463 Y25.06
G0 X193.237 Y27.807
G0 X191.328 Y26.148
;TYPE:SKIN
G1 F1200 X205.843 Y40.663 E208.45698
G0 X205.913 Y40.733
G0 F3000 X205.56 Y40.946
G1 F1200 X191.045 Y26.43 E209.53233
G0 X190.975 Y26.36
G0 F3000 X190.762 Y26.713
G1 F1200 X205.278 Y41.229 E210.60772
G0 X205.348 Y41.299
G0 F3000 X204.995 Y41.512
G1 F1200 X190.479 Y26.996 E211.68311
G0 X190.409 Y26.926
