;FLAVOR:RepRap
;TIME:13261
;Filament used: 13.3599m
;Layer height: 0.2
;Generated with Cura_SteamEngine 2.4.0
M190 S60
M104 S195
M109 S195
G21 ;metric values
G90 ;absolute positioning
M82 ;set extruder to absolute mode
M107 ;start with the fan off
G28 X0 Y0 ;move X/Y to min endstops
G28 Z0 ;move Z to min endstops
G1 Z15.0 F9000 ;move the platform down 15mm
G92 E0 ;zero the extruded length
G1 F200 E3 ;extrude 3mm of feed stock
G92 E0 ;zero the extruded length again
G1 F9000;Put printing message on LCD screen
M117 Printing...
;LAYER_COUNT:352
;LAYER:0
M107
G1 F2700 E-4
G0 F3000 X76.602 Y66.307 Z0.3
;TYPE:SKIRT
G1 F2700 E0
G1 F1500 X76.979 Y65.886 E0.0296
G1 X77.412 Y65.522 E0.05924
G1 X77.892 Y65.223 E0.08886
G1 X78.409 Y64.995 E0.11846
G1 X78.953 Y64.842 E0.14806
G1 X79.762 Y64.759 E0.19066
G1 X159.742 Y64.76 E4.38039
G1 X160.306 Y64.8 E4.41001
G1 X160.859 Y64.919 E4.43965
G1 X161.389 Y65.115 E4.46925
G1 X161.886 Y65.383 E4.49883
G1 X162.341 Y65.719 E4.52846
G1 X162.744 Y66.116 E4.55809
G1 X163.086 Y66.566 E4.5877
G1 X163.362 Y67.059 E4.6173
G1 X163.566 Y67.587 E4.64695
G1 X163.693 Y68.137 E4.67652
G1 X163.742 Y68.761 E4.70931
G1 X163.741 Y76.746 E5.1276
G1 X163.701 Y77.309 E5.15716
G1 X163.582 Y77.862 E5.1868
G1 X163.386 Y78.392 E5.2164
G1 X163.117 Y78.89 E5.24605
G1 X162.657 Y79.483 E5.28536
G1 X161.197 Y81.038 E5.3971
G1 X157.6 Y85.159 E5.68364
G1 X154.259 Y89.453 E5.96865
G1 X151.179 Y93.909 E6.25241
G1 X148.341 Y98.559 E6.53778
G1 X145.785 Y103.336 E6.8216
G1 X143.495 Y108.265 E7.10631
G1 X141.471 Y113.354 E7.3932
G1 X140.603 Y115.849 E7.53159
G1 X139.025 Y121.071 E7.81736
G1 X137.751 Y126.346 E8.10163
G1 X136.777 Y131.691 E8.38624
G1 X136.107 Y137.072 E8.6703
G1 X135.681 Y143.488 E9.00714
G1 X135.64 Y143.851 E9.02627
G1 X135.497 Y144.75 E9.07396
G1 X135.358 Y145.336 E9.10551
G1 X134.822 Y147.019 E9.19804
G1 X134.511 Y147.741 E9.23922
G1 X133.652 Y149.294 E9.33219
G1 X133.205 Y149.942 E9.37342
G1 X132.071 Y151.282 E9.46538
G1 X131.587 Y151.764 E9.50116
G1 X130.574 Y152.613 E9.5704
G1 X130.01 Y153.008 E9.60647
G1 X128.475 Y153.897 E9.6994
G1 X127.858 Y154.187 E9.73511
G1 X126.639 Y154.638 E9.8032
G1 X125.98 Y154.82 E9.83901
G1 X124.242 Y155.142 E9.9316
G1 X123.523 Y155.209 E9.96943
G1 X107.866 Y155.25 E10.78962
G1 X107.602 Y155.242 E10.80346
G1 X105.478 Y155.107 E10.91495
G1 X105.053 Y155.057 E10.93736
G1 X102.823 Y154.673 E11.0559
G1 X97.41 Y153.971 E11.34183
G1 X91.99 Y153.578 E11.62651
G1 X86.559 Y153.493 E11.91104
G1 X81.13 Y153.714 E12.19567
G1 X75.721 Y154.242 E12.48037
G1 X69.611 Y155.164 E12.80406
G1 X69.039 Y155.209 E12.83412
G1 X62.381 Y155.25 E13.1829
G1 X62.112 Y155.243 E13.197
G1 X60.063 Y155.118 E13.30454
G1 X59.378 Y155.016 E13.34082
G1 X58.093 Y154.709 E13.41002
G1 X57.528 Y154.528 E13.4411
G1 X56.309 Y154.037 E13.50995
G1 X55.7 Y153.73 E13.54567
G1 X54.182 Y152.792 E13.63915
G1 X53.625 Y152.376 E13.67557
G1 X52.64 Y151.499 E13.74465
G1 X52.237 Y151.084 E13.77496
G1 X51.393 Y150.079 E13.84371
G1 X50.996 Y149.514 E13.87988
G1 X50.108 Y147.983 E13.97259
G1 X49.781 Y147.264 E14.01397
G1 X49.208 Y145.579 E14.1072
G1 X49.045 Y144.919 E14.14282
G1 X48.842 Y143.643 E14.2105
G1 X48.792 Y143.032 E14.24261
G1 X48.762 Y136.108 E14.60533
G1 X48.781 Y135.706 E14.62641
G1 X48.908 Y134.394 E14.69546
G1 X48.919 Y134.395 E14.69604
G1 X48.949 Y134.044 E14.71449
G1 X49.023 Y133.648 E14.7356
G1 X49.087 Y133.365 E14.7508
G1 X49.311 Y132.514 E14.79689
G1 X49.467 Y132.041 E14.82299
G1 X49.966 Y130.799 E14.8931
G1 X50.245 Y130.237 E14.92597
G1 X50.998 Y128.978 E15.00282
G1 X51.128 Y128.775 E15.01545
G1 X54.251 Y124.202 E15.30553
G1 X57.058 Y119.543 E15.59047
G1 X59.595 Y114.739 E15.87506
G1 X61.847 Y109.818 E16.15856
G1 X63.828 Y104.755 E16.44336
G1 X65.519 Y99.587 E16.72821
G1 X66.924 Y94.299 E17.01483
G1 X67.493 Y91.714 E17.15349
G1 X68.445 Y86.323 E17.44026
G1 X68.8 Y83.711 E17.57835
G1 X68.916 Y83.158 E17.60795
G1 X69.228 Y82.38 E17.65186
G1 X71.107 Y78.827 E17.86241
G1 X73.417 Y73.919 E18.14656
G1 X76.043 Y67.286 E18.52027
G1 X76.288 Y66.777 E18.54986
G1 X76.602 Y66.307 E18.57947
G0 F3000 X76.952 Y66.509
G1 F1500 X77.317 Y66.116 E18.60757
G1 X77.737 Y65.782 E18.63568
G1 X78.202 Y65.515 E18.66377
G1 X78.701 Y65.319 E18.69185
G1 X79.224 Y65.199 E18.71996
G1 X79.762 Y65.159 E18.74822
G1 X159.742 Y65.16 E22.93795
G1 X160.277 Y65.2 E22.96606
G1 X160.8 Y65.319 E22.99415
G1 X161.299 Y65.514 E23.02222
G1 X161.764 Y65.782 E23.05033
G1 X162.184 Y66.115 E23.07841
G1 X162.55 Y66.507 E23.10651
G1 X162.853 Y66.949 E23.13458
G1 X163.088 Y67.432 E23.16272
G1 X163.248 Y67.943 E23.19077
G1 X163.331 Y68.473 E23.21887
G1 X163.342 Y68.76 E23.23391
G1 X163.341 Y76.745 E23.65221
G1 X163.301 Y77.28 E23.68031
G1 X163.182 Y77.803 E23.70841
G1 X162.987 Y78.303 E23.73652
G1 X162.719 Y78.767 E23.76459
G1 X162.365 Y79.21 E23.7943
G1 X160.901 Y80.769 E23.90633
G1 X157.283 Y84.915 E24.19458
G1 X153.935 Y89.217 E24.48015
G1 X150.84 Y93.695 E24.7653
G1 X148.001 Y98.347 E25.05079
G1 X145.427 Y103.158 E25.33662
G1 X143.128 Y108.107 E25.62248
G1 X141.093 Y113.223 E25.9109
G1 X140.223 Y115.721 E26.04947
G1 X138.638 Y120.967 E26.33655
G1 X137.362 Y126.251 E26.6213
G1 X136.38 Y131.639 E26.9082
G1 X135.708 Y137.032 E27.1929
G1 X135.282 Y143.461 E27.53042
G1 X135.245 Y143.789 E27.54771
G1 X135.102 Y144.688 E27.59539
G1 X134.977 Y145.214 E27.62372
G1 X134.441 Y146.897 E27.71624
G1 X134.161 Y147.547 E27.75332
G1 X133.302 Y149.1 E27.84629
G1 X132.9 Y149.684 E27.88343
G1 X131.766 Y151.024 E27.97539
G1 X131.33 Y151.457 E28.00757
G1 X130.317 Y152.306 E28.07681
G1 X129.809 Y152.662 E28.10931
G1 X128.274 Y153.551 E28.20223
G1 X127.719 Y153.812 E28.23436
G1 X126.5 Y154.263 E28.30245
G1 X125.907 Y154.427 E28.33468
G1 X124.169 Y154.749 E28.42727
G1 X123.522 Y154.809 E28.46131
G1 X107.865 Y154.85 E29.2815
G1 X107.628 Y154.843 E29.29392
G1 X105.504 Y154.708 E29.40541
G1 X105.121 Y154.663 E29.42561
G1 X102.872 Y154.275 E29.54516
G1 X97.454 Y153.573 E29.83136
G1 X92.007 Y153.178 E30.11745
G1 X86.548 Y153.092 E30.40345
G1 X81.11 Y153.314 E30.68855
G1 X75.679 Y153.844 E30.97441
G1 X69.551 Y154.769 E31.29906
G1 X69.036 Y154.809 E31.32612
G1 X62.378 Y154.85 E31.6749
G1 X62.137 Y154.843 E31.68753
G1 X60.088 Y154.718 E31.79507
G1 X59.47 Y154.626 E31.8278
G1 X58.185 Y154.319 E31.89701
G1 X57.677 Y154.157 E31.92494
G1 X56.458 Y153.666 E31.99378
G1 X55.911 Y153.39 E32.02588
G1 X54.393 Y152.452 E32.11935
G1 X53.891 Y152.078 E32.15215
G1 X52.906 Y151.201 E32.22123
G1 X52.543 Y150.827 E32.24854
G1 X51.699 Y149.822 E32.31728
G1 X51.342 Y149.313 E32.34985
G1 X50.454 Y147.782 E32.44257
G1 X50.16 Y147.135 E32.4798
G1 X49.587 Y145.45 E32.57303
G1 X49.44 Y144.857 E32.60503
G1 X49.237 Y143.581 E32.67272
G1 X49.192 Y143.031 E32.70162
G1 X49.162 Y136.107 E33.06434
G1 X49.179 Y135.744 E33.08338
G1 X49.29 Y134.595 E33.14385
G1 X49.29 Y134.529 E33.1473
G1 X49.342 Y134.118 E33.16901
G1 X49.416 Y133.722 E33.19011
G1 X49.474 Y133.467 E33.20381
G1 X49.698 Y132.616 E33.24991
G1 X49.839 Y132.19 E33.27341
G1 X50.338 Y130.948 E33.34353
G1 X50.588 Y130.442 E33.37309
G1 X51.341 Y129.183 E33.44994
G1 X51.458 Y129.001 E33.46128
G1 X54.594 Y124.408 E33.75261
G1 X57.404 Y119.744 E34.03785
G1 X59.945 Y114.935 E34.32278
G1 X62.225 Y109.952 E34.60984
G1 X64.2 Y104.904 E34.89379
G1 X65.907 Y99.688 E35.18129
G1 X67.313 Y94.396 E35.46813
G1 X67.885 Y91.796 E35.60759
G1 X68.843 Y86.373 E35.89607
G1 X69.197 Y83.765 E36.03394
G1 X69.308 Y83.241 E36.062
G1 X69.582 Y82.567 E36.10011
G1 X71.461 Y79.014 E36.31066
G1 X73.787 Y74.071 E36.59683
G1 X76.415 Y67.434 E36.97077
G1 X76.649 Y66.951 E36.99889
G1 X76.952 Y66.509 E37.02696
G0 F3000 X77.301 Y66.714
G1 F1500 X77.654 Y66.352 E37.05345
G1 X78.059 Y66.05 E37.07991
G1 X78.507 Y65.815 E37.10641
G1 X78.986 Y65.654 E37.13288
G1 X79.485 Y65.571 E37.15938
G1 X79.762 Y65.559 E37.17391
G1 X159.742 Y65.56 E41.36364
G1 X160.246 Y65.6 E41.39012
G1 X160.737 Y65.719 E41.41659
G1 X161.204 Y65.913 E41.44308
G1 X161.634 Y66.179 E41.46957
G1 X162.017 Y66.509 E41.49605
G1 X162.343 Y66.896 E41.52256
G1 X162.604 Y67.329 E41.54904
G1 X162.794 Y67.797 E41.5755
G1 X162.907 Y68.29 E41.602
G1 X162.942 Y68.76 E41.62668
G1 X162.941 Y76.745 E42.04498
G1 X162.901 Y77.249 E42.07146
G1 X162.782 Y77.741 E42.09798
G1 X162.587 Y78.207 E42.12444
G1 X162.322 Y78.637 E42.1509
G1 X162.074 Y78.936 E42.17125
G1 X160.59 Y80.516 E42.2848
G1 X156.974 Y84.66 E42.57291
G1 X153.614 Y88.977 E42.85948
G1 X150.513 Y93.464 E43.1452
G1 X147.645 Y98.164 E43.43363
G1 X145.069 Y102.979 E43.71969
G1 X142.76 Y107.948 E44.00672
G1 X140.72 Y113.077 E44.29587
G1 X139.844 Y115.593 E44.43543
G1 X138.256 Y120.851 E44.72316
G1 X136.966 Y126.188 E45.01079
G1 X135.985 Y131.574 E45.29757
G1 X135.311 Y136.989 E45.58342
G1 X134.883 Y143.435 E45.92184
G1 X134.85 Y143.726 E45.93718
G1 X134.707 Y144.625 E45.98487
G1 X134.596 Y145.093 E46.01006
G1 X134.06 Y146.776 E46.10259
G1 X133.811 Y147.354 E46.13556
G1 X132.952 Y148.907 E46.22853
G1 X132.595 Y149.425 E46.26148
G1 X131.461 Y150.765 E46.35344
G1 X131.073 Y151.151 E46.38211
G1 X130.06 Y152 E46.45135
G1 X129.609 Y152.316 E46.4802
G1 X128.074 Y153.205 E46.57312
G1 X127.58 Y153.437 E46.60171
G1 X126.361 Y153.888 E46.6698
G1 X125.834 Y154.033 E46.69843
G1 X124.096 Y154.355 E46.79102
G1 X123.521 Y154.409 E46.82128
G1 X107.864 Y154.45 E47.64147
G1 X107.653 Y154.444 E47.65252
G1 X105.529 Y154.309 E47.76401
G1 X105.188 Y154.269 E47.782
G1 X102.914 Y153.877 E47.90288
G1 X97.5 Y153.176 E48.18886
G1 X92.025 Y152.779 E48.47642
G1 X86.539 Y152.692 E48.76384
G1 X81.09 Y152.914 E49.04952
G1 X75.618 Y153.449 E49.33753
G1 X69.491 Y154.373 E49.66212
G1 X69.034 Y154.409 E49.68614
G1 X62.376 Y154.45 E50.03492
G1 X62.161 Y154.444 E50.04619
G1 X60.112 Y154.319 E50.15372
G1 X59.563 Y154.237 E50.1828
G1 X58.278 Y153.93 E50.25201
G1 X57.826 Y153.786 E50.27686
G1 X56.607 Y153.295 E50.3457
G1 X56.121 Y153.049 E50.37424
G1 X54.603 Y152.111 E50.46771
G1 X54.157 Y151.779 E50.49684
G1 X53.172 Y150.902 E50.56593
G1 X52.85 Y150.57 E50.59016
G1 X52.006 Y149.565 E50.65891
G1 X51.688 Y149.113 E50.68786
G1 X50.8 Y147.582 E50.78057
G1 X50.538 Y147.006 E50.81372
G1 X49.965 Y145.321 E50.90695
G1 X49.835 Y144.794 E50.93539
G1 X49.632 Y143.518 E51.00307
G1 X49.592 Y143.029 E51.02877
G1 X49.562 Y136.105 E51.39149
G1 X49.577 Y135.783 E51.40837
G1 X49.704 Y134.471 E51.47742
G1 X49.708 Y134.471 E51.47763
G1 X49.735 Y134.191 E51.49237
G1 X49.809 Y133.795 E51.51347
G1 X49.86 Y133.568 E51.52566
G1 X50.084 Y132.717 E51.57176
G1 X50.21 Y132.339 E51.59263
G1 X50.709 Y131.097 E51.66275
G1 X50.932 Y130.647 E51.68906
G1 X51.685 Y129.388 E51.7659
G1 X51.788 Y129.227 E51.77592
G1 X54.923 Y124.635 E52.06718
G1 X57.75 Y119.945 E52.35405
G1 X60.312 Y115.095 E52.64138
G1 X62.59 Y110.115 E52.92825
G1 X64.585 Y105.017 E53.21503
G1 X66.282 Y99.831 E53.50087
G1 X67.708 Y94.466 E53.79168
G1 X68.276 Y91.882 E53.93027
G1 X69.237 Y86.443 E54.2196
G1 X69.593 Y83.819 E54.35832
G1 X69.701 Y83.325 E54.38481
G1 X69.935 Y82.754 E54.41714
G1 X71.823 Y79.184 E54.62869
G1 X74.154 Y74.229 E54.91555
G1 X76.787 Y67.581 E55.29012
G1 X77.009 Y67.127 E55.31659
G1 X77.301 Y66.714 E55.34309
G1 F2700 E51.34309
G0 F3000 X79.087 Y69.364
G0 X80.366 Y69.364
G0 X80.422 Y69.42
G0 X80.352 Y69.35
;TYPE:WALL-INNER
G1 F2700 E55.34309
G1 F1500 X159.151 Y69.35 E59.47095
G1 X159.151 Y76.502 E59.84561
G1 X131.151 Y104.501 E61.9199
G1 X131.151 Y142.235 E63.89658
G1 X131.14 Y142.67 E63.91938
G1 X131.112 Y143.065 E63.94012
G1 X131.059 Y143.484 E63.96225
G1 X130.991 Y143.884 E63.9835
G1 X130.902 Y144.278 E64.00466
G1 X130.79 Y144.684 E64.02672
G1 X130.66 Y145.079 E64.04851
G1 X130.513 Y145.46 E64.0699
G1 X130.342 Y145.844 E64.09192
G1 X130.166 Y146.196 E64.11253
G1 X129.954 Y146.57 E64.13506
G1 X129.743 Y146.905 E64.15579
G1 X129.499 Y147.252 E64.17802
G1 X129.247 Y147.575 E64.19948
G1 X128.984 Y147.88 E64.22057
G1 X128.694 Y148.185 E64.24262
G1 X128.382 Y148.482 E64.26519
G1 X128.091 Y148.733 E64.28532
G1 X127.748 Y149 E64.30809
G1 X127.416 Y149.235 E64.3294
G1 X127.071 Y149.453 E64.35077
G1 X126.713 Y149.656 E64.37233
G1 X126.347 Y149.84 E64.39379
G1 X125.962 Y150.011 E64.41586
G1 X125.585 Y150.156 E64.43702
G1 X125.183 Y150.289 E64.4592
G1 X124.791 Y150.398 E64.48051
G1 X124.39 Y150.489 E64.50205
G1 X123.983 Y150.559 E64.52369
G1 X123.579 Y150.609 E64.54501
G1 X123.167 Y150.639 E64.56665
G1 X122.736 Y150.65 E64.58924
G1 X107.267 Y150.65 E65.39958
G1 X106.835 Y150.639 E65.42221
G1 X106.431 Y150.609 E65.44344
G1 X106.009 Y150.557 E65.46571
G1 X105.612 Y150.489 E65.48681
G1 X105.225 Y150.401 E65.5076
G1 X104.816 Y150.288 E65.52983
G1 X104.418 Y150.156 E65.55179
G1 X104.041 Y150.011 E65.57295
G1 X103.665 Y149.844 E65.59451
G1 X103.29 Y149.656 E65.61648
G1 X102.922 Y149.447 E65.63865
G1 X102.587 Y149.235 E65.65942
G1 X102.245 Y148.993 E65.68136
G1 X101.918 Y148.739 E65.70305
G1 X101.622 Y148.483 E65.72356
G1 X101.302 Y148.178 E65.74671
G1 X101.028 Y147.892 E65.76746
G1 X100.756 Y147.575 E65.78934
G1 X100.504 Y147.252 E65.8108
G1 X100.269 Y146.917 E65.83224
G1 X100.039 Y146.555 E65.85471
G1 X99.842 Y146.205 E65.87575
G1 X99.66 Y145.844 E65.89692
G1 X99.49 Y145.46 E65.91892
G1 X99.345 Y145.084 E65.94003
G1 X99.21 Y144.678 E65.96245
G1 X99.101 Y144.278 E65.98416
G1 X99.013 Y143.887 E66.00516
G1 X98.942 Y143.477 E66.02696
G1 X98.891 Y143.069 E66.0485
G1 X98.863 Y142.67 E66.06945
G1 X98.852 Y142.25 E66.09146
G1 X98.852 Y140.239 E66.1968
G1 X98.842 Y139.963 E66.21127
G1 X98.806 Y139.664 E66.22705
G1 X98.744 Y139.372 E66.24268
G1 X98.661 Y139.088 E66.25818
G1 X98.552 Y138.808 E66.27392
G1 X98.421 Y138.541 E66.2895
G1 X98.27 Y138.286 E66.30503
G1 X98.096 Y138.041 E66.32077
G1 X97.903 Y137.815 E66.33634
G1 X97.694 Y137.603 E66.35193
G1 X97.466 Y137.41 E66.36758
G1 X97.223 Y137.237 E66.38321
G1 X96.964 Y137.082 E66.39902
G1 X96.696 Y136.952 E66.41462
G1 X96.42 Y136.844 E66.43015
G1 X96.133 Y136.759 E66.44583
G1 X95.842 Y136.698 E66.4614
G1 X95.546 Y136.661 E66.47703
G1 X95.264 Y136.65 E66.49181
G1 X80.241 Y136.65 E67.27879
G1 X79.966 Y136.66 E67.2932
G1 X79.668 Y136.695 E67.30892
G1 X79.374 Y136.757 E67.32466
G1 X79.089 Y136.841 E67.34023
G1 X78.812 Y136.949 E67.3558
G1 X78.543 Y137.08 E67.37147
G1 X78.288 Y137.231 E67.387
G1 X78.043 Y137.405 E67.40274
G1 X77.815 Y137.599 E67.41842
G1 X77.606 Y137.808 E67.43391
G1 X77.412 Y138.036 E67.44959
G1 X77.239 Y138.279 E67.46521
G1 X77.084 Y138.538 E67.48103
G1 X76.955 Y138.805 E67.49656
G1 X76.846 Y139.081 E67.5121
G1 X76.762 Y139.369 E67.52782
G1 X76.701 Y139.659 E67.54334
G1 X76.664 Y139.955 E67.55897
G1 X76.652 Y140.237 E67.57376
G1 X76.652 Y142.235 E67.67842
G1 X76.641 Y142.67 E67.70122
G1 X76.613 Y143.065 E67.72196
G1 X76.56 Y143.484 E67.74408
G1 X76.492 Y143.884 E67.76534
G1 X76.403 Y144.278 E67.7865
G1 X76.291 Y144.684 E67.80856
G1 X76.161 Y145.079 E67.83034
G1 X76.014 Y145.46 E67.85174
G1 X75.843 Y145.844 E67.87376
G1 X75.667 Y146.196 E67.89437
G1 X75.455 Y146.57 E67.91689
G1 X75.244 Y146.905 E67.93763
G1 X75 Y147.252 E67.95985
G1 X74.748 Y147.575 E67.98132
G1 X74.485 Y147.88 E68.00241
G1 X74.195 Y148.185 E68.02446
G1 X73.883 Y148.482 E68.04702
G1 X73.592 Y148.733 E68.06716
G1 X73.249 Y149 E68.08993
G1 X72.917 Y149.235 E68.11123
G1 X72.572 Y149.453 E68.13261
G1 X72.214 Y149.656 E68.15417
G1 X71.848 Y149.84 E68.17563
G1 X71.463 Y150.011 E68.1977
G1 X71.086 Y150.156 E68.21886
G1 X70.684 Y150.289 E68.24104
G1 X70.292 Y150.398 E68.26235
G1 X69.891 Y150.489 E68.28389
G1 X69.484 Y150.559 E68.30553
G1 X69.08 Y150.609 E68.32685
G1 X68.668 Y150.639 E68.34849
G1 X68.237 Y150.65 E68.37108
G1 X61.767 Y150.65 E68.71001
G1 X61.335 Y150.639 E68.73264
G1 X60.931 Y150.609 E68.75386
G1 X60.509 Y150.557 E68.77614
G1 X60.112 Y150.489 E68.79724
G1 X59.725 Y150.401 E68.81803
G1 X59.316 Y150.288 E68.84026
G1 X58.918 Y150.156 E68.86222
G1 X58.541 Y150.011 E68.88338
G1 X58.165 Y149.844 E68.90493
G1 X57.79 Y149.656 E68.92691
G1 X57.422 Y149.447 E68.94908
G1 X57.087 Y149.235 E68.96985
G1 X56.745 Y148.993 E68.99179
G1 X56.418 Y148.739 E69.01348
G1 X56.122 Y148.483 E69.03398
G1 X55.802 Y148.178 E69.05714
G1 X55.528 Y147.892 E69.07789
