;FLAVOR:RepRap
;TIME:14583
;Filament used: 12.5987m
;Layer height: 0.2
;Generated with Cura_SteamEngine 2.4.0
M190 S60
M104 S195
M109 S195
G21 ;metric values
G90 ;absolute positioning
M82 ;set extruder to absolute mode
M107 ;start with the fan off
G28 X0 Y0 ;move X/Y to min endstops
G28 Z0 ;move Z to min endstops
G1 Z15.0 F9000 ;move the platform down 15mm
G92 E0 ;zero the extruded length
G1 F200 E3 ;extrude 3mm of feed stock
G92 E0 ;zero the extruded length again
G1 F9000;Put printing message on LCD screen
M117 Printing...
;LAYER_COUNT:352
;LAYER:0
M107
G1 F2700 E-4
G0 F3000 X51.457 Y71.485 Z0.3
G0 X51.042 Y71.869
;TYPE:SKIRT
G1 F2700 E0
G1 F1500 X51.457 Y71.485 E0.02934
G1 X52.129 Y71.049 E0.0709
G1 X53.02 Y70.591 E0.12288
G1 X53.54 Y70.369 E0.15222
G1 X54.051 Y70.229 E0.17971
G1 X54.655 Y70.106 E0.21169
G1 X55.453 Y70.026 E0.2533
G1 X129.083 Y70.028 E4.07365
G1 X129.647 Y70.068 E4.10299
G1 X130.012 Y70.137 E4.12226
G1 X130.732 Y70.309 E4.16067
G1 X131.272 Y70.479 E4.19005
G1 X131.73 Y70.695 E4.21632
G1 X132.474 Y71.104 E4.26037
G1 X132.949 Y71.41 E4.28969
G1 X133.382 Y71.788 E4.31951
G1 X133.986 Y72.395 E4.36394
G1 X134.356 Y72.823 E4.3933
G1 X134.781 Y73.536 E4.43637
G1 X135.295 Y74.647 E4.49988
G1 X135.496 Y75.176 E4.52924
G1 X135.638 Y75.866 E4.5658
G1 X136.296 Y81.54 E4.86217
G1 X137.21 Y86.934 E5.14603
G1 X137.761 Y89.528 E5.28362
G1 X139.13 Y94.831 E5.5678
G1 X140.777 Y99.986 E5.84859
G1 X142.721 Y105.064 E6.13071
G1 X144.956 Y110.039 E6.41369
G1 X147.444 Y114.832 E6.69389
G1 X150.221 Y119.513 E6.97629
G1 X153.246 Y124.011 E7.25754
G1 X156.527 Y128.34 E7.53938
G1 X160.062 Y132.493 E7.82235
G1 X162.661 Y135.27 E8.0197
G1 X163.017 Y135.709 E8.04903
G1 X163.308 Y136.194 E8.07837
G1 X163.528 Y136.715 E8.10772
G1 X163.672 Y137.262 E8.13707
G1 X163.741 Y138.003 E8.17568
G1 X163.742 Y145.991 E8.59014
G1 X163.702 Y146.555 E8.61948
G1 X163.583 Y147.108 E8.64883
G1 X163.387 Y147.638 E8.67815
G1 X163.119 Y148.136 E8.70749
G1 X162.783 Y148.591 E8.73684
G1 X162.386 Y148.993 E8.76616
G1 X161.937 Y149.336 E8.79547
G1 X161.443 Y149.612 E8.82483
G1 X160.916 Y149.816 E8.85416
G1 X160.365 Y149.943 E8.88349
G1 X159.741 Y149.992 E8.91597
G1 X79.776 Y149.964 E13.06502
G1 X79.212 Y149.924 E13.09436
G1 X78.659 Y149.805 E13.12371
G1 X78.129 Y149.609 E13.15303
G1 X77.631 Y149.34 E13.18239
G1 X77.177 Y149.004 E13.2117
G1 X76.774 Y148.607 E13.24105
G1 X76.432 Y148.157 E13.27038
G1 X76.156 Y147.664 E13.29969
G1 X76.038 Y147.384 E13.31546
G1 X75.019 Y144.701 E13.46437
G1 X72.897 Y139.639 E13.74916
G1 X70.512 Y134.747 E14.03154
G1 X69.242 Y132.395 E14.17023
G1 X69.01 Y131.88 E14.19954
G1 X68.852 Y131.337 E14.22888
G1 X68.797 Y131.021 E14.24553
G1 X68.507 Y128.837 E14.35984
G1 X67.577 Y123.442 E14.64389
G1 X66.351 Y118.142 E14.92615
G1 X65.642 Y115.574 E15.06438
G1 X63.961 Y110.366 E15.34832
G1 X62.009 Y105.314 E15.62934
G1 X59.763 Y100.358 E15.91166
G1 X57.246 Y95.545 E16.19347
G1 X54.459 Y90.881 E16.47538
G1 X51.173 Y86.041 E16.77892
G1 X51.075 Y85.889 E16.7883
G1 X50.35 Y84.71 E16.86011
G1 X50.044 Y84.103 E16.89538
G1 X49.413 Y82.528 E16.98342
G1 X49.195 Y81.779 E17.02389
G1 X48.861 Y80.002 E17.11771
G1 X48.792 Y79.277 E17.1555
G1 X48.783 Y76.662 E17.29118
G1 X48.821 Y76.098 E17.32051
G1 X48.923 Y75.598 E17.34699
G1 X49.155 Y74.745 E17.39285
G1 X49.342 Y74.212 E17.42216
G1 X49.496 Y73.893 E17.44054
G1 X49.73 Y73.46 E17.46608
G1 X50.033 Y72.983 E17.4954
G1 X50.333 Y72.624 E17.51967
G1 X51.042 Y71.869 E17.57341
G0 F3000 X51.334 Y72.143
G1 F1500 X51.729 Y71.78 E17.60125
G1 X52.312 Y71.405 E17.63721
G1 X53.203 Y70.947 E17.68919
G1 X53.697 Y70.738 E17.71702
G1 X54.131 Y70.621 E17.74035
G1 X54.735 Y70.498 E17.77233
G1 X55.453 Y70.426 E17.80977
G1 X129.083 Y70.428 E21.63012
G1 X129.618 Y70.468 E21.65796
G1 X129.919 Y70.527 E21.67387
G1 X130.639 Y70.699 E21.71228
G1 X131.15 Y70.862 E21.74011
G1 X131.537 Y71.045 E21.76232
G1 X132.281 Y71.454 E21.80638
G1 X132.731 Y71.747 E21.83424
G1 X133.099 Y72.07 E21.85964
G1 X133.703 Y72.677 E21.90407
G1 X134.052 Y73.084 E21.93189
G1 X134.418 Y73.704 E21.96925
G1 X134.932 Y74.815 E22.03276
G1 X135.121 Y75.318 E22.06064
G1 X135.241 Y75.912 E22.09209
G1 X135.902 Y81.616 E22.39002
G1 X136.816 Y87.011 E22.67394
G1 X137.366 Y89.598 E22.81116
G1 X138.748 Y94.948 E23.09787
G1 X140.401 Y100.125 E23.37984
G1 X142.349 Y105.214 E23.66257
G1 X144.594 Y110.209 E23.94671
G1 X147.095 Y115.028 E24.22842
G1 X149.876 Y119.714 E24.51115
G1 X152.927 Y124.253 E24.79492
G1 X156.225 Y128.604 E25.0782
G1 X159.758 Y132.755 E25.36102
G1 X162.369 Y135.544 E25.55925
G1 X162.706 Y135.962 E25.58711
G1 X162.976 Y136.425 E25.61492
G1 X163.175 Y136.923 E25.64275
G1 X163.297 Y137.445 E25.67056
G1 X163.341 Y138.004 E25.69965
G1 X163.342 Y145.992 E26.11412
G1 X163.302 Y146.526 E26.1419
G1 X163.183 Y147.049 E26.16973
G1 X162.988 Y147.549 E26.19758
G1 X162.721 Y148.014 E26.2254
G1 X162.387 Y148.434 E26.25324
G1 X161.995 Y148.8 E26.28107
G1 X161.553 Y149.103 E26.30887
G1 X161.071 Y149.338 E26.3367
G1 X160.559 Y149.498 E26.36453
G1 X160.029 Y149.581 E26.39236
G1 X159.741 Y149.592 E26.40732
G1 X79.776 Y149.564 E30.55637
G1 X79.241 Y149.524 E30.5842
G1 X78.718 Y149.405 E30.61203
G1 X78.219 Y149.209 E30.63985
G1 X77.754 Y148.942 E30.66767
G1 X77.334 Y148.608 E30.69551
G1 X76.968 Y148.216 E30.72334
G1 X76.665 Y147.774 E30.75115
G1 X76.412 Y147.242 E30.78171
G1 X75.393 Y144.559 E30.93062
G1 X73.265 Y139.482 E31.21625
G1 X70.86 Y134.551 E31.50091
G1 X69.594 Y132.205 E31.63923
G1 X69.375 Y131.716 E31.66703
G1 X69.193 Y130.968 E31.70697
G1 X68.902 Y128.774 E31.8218
G1 X67.967 Y123.348 E32.10748
G1 X66.744 Y118.064 E32.3889
G1 X66.021 Y115.449 E32.52967
G1 X64.339 Y110.236 E32.81388
G1 X62.373 Y105.148 E33.0969
G1 X60.122 Y100.179 E33.37994
G1 X57.599 Y95.354 E33.66245
G1 X54.799 Y90.669 E33.94564
G1 X51.504 Y85.816 E34.25
G1 X51.415 Y85.68 E34.25843
G1 X50.69 Y84.501 E34.33024
G1 X50.415 Y83.954 E34.36201
G1 X49.784 Y82.379 E34.45004
G1 X49.588 Y81.705 E34.48646
G1 X49.254 Y79.928 E34.58028
G1 X49.192 Y79.275 E34.61431
G1 X49.183 Y76.66 E34.74999
G1 X49.221 Y76.125 E34.77782
G1 X49.309 Y75.703 E34.80019
G1 X49.541 Y74.85 E34.84606
G1 X49.72 Y74.345 E34.87386
G1 X49.848 Y74.083 E34.88899
G1 X50.082 Y73.65 E34.91452
G1 X50.371 Y73.199 E34.94232
G1 X50.625 Y72.898 E34.96275
G1 X51.334 Y72.143 E35.01649
G0 F3000 X51.625 Y72.416
G1 F1500 X51.999 Y72.076 E35.04272
G1 X52.495 Y71.761 E35.0732
G1 X53.386 Y71.303 E35.12518
G1 X53.853 Y71.108 E35.15144
G1 X54.21 Y71.013 E35.17061
G1 X54.814 Y70.89 E35.20259
G1 X55.453 Y70.826 E35.23591
G1 X129.083 Y70.828 E39.05626
G1 X129.827 Y70.916 E39.09514
G1 X130.547 Y71.088 E39.13355
G1 X131.027 Y71.244 E39.15973
G1 X131.345 Y71.396 E39.17802
G1 X132.089 Y71.805 E39.22207
G1 X132.511 Y72.083 E39.24829
G1 X132.815 Y72.352 E39.26935
G1 X133.419 Y72.959 E39.31378
G1 X133.747 Y73.344 E39.34003
G1 X134.055 Y73.872 E39.37174
G1 X134.569 Y74.983 E39.43526
G1 X134.745 Y75.458 E39.46154
G1 X134.844 Y75.958 E39.48799
G1 X135.506 Y81.669 E39.78629
G1 X136.425 Y87.091 E40.07163
G1 X136.982 Y89.711 E40.21061
G1 X138.358 Y95.043 E40.49633
G1 X140.022 Y100.252 E40.78006
G1 X141.984 Y105.379 E41.06489
G1 X144.231 Y110.378 E41.34926
G1 X146.746 Y115.224 E41.63255
G1 X149.542 Y119.936 E41.91683
G1 X152.6 Y124.485 E42.20124
G1 X155.902 Y128.841 E42.48485
G1 X159.465 Y133.027 E42.77007
G1 X162.077 Y135.817 E42.96837
G1 X162.392 Y136.212 E42.99458
G1 X162.642 Y136.652 E43.02084
G1 X162.818 Y137.126 E43.04707
G1 X162.918 Y137.622 E43.07333
G1 X162.941 Y138.004 E43.09318
G1 X162.942 Y145.992 E43.50765
G1 X162.902 Y146.496 E43.53388
G1 X162.783 Y146.987 E43.56009
G1 X162.589 Y147.454 E43.58633
G1 X162.323 Y147.884 E43.61257
G1 X161.993 Y148.267 E43.6388
G1 X161.606 Y148.593 E43.66505
G1 X161.174 Y148.854 E43.69124
G1 X160.705 Y149.044 E43.71749
G1 X160.212 Y149.157 E43.74374
G1 X159.741 Y149.192 E43.76824
G1 X79.776 Y149.164 E47.91729
G1 X79.272 Y149.124 E47.94353
G1 X78.781 Y149.005 E47.96974
G1 X78.314 Y148.81 E47.996
G1 X77.884 Y148.544 E48.02223
G1 X77.501 Y148.214 E48.04846
G1 X77.175 Y147.827 E48.07472
G1 X76.914 Y147.394 E48.10095
G1 X76.786 Y147.1 E48.11759
G1 X75.763 Y144.405 E48.26716
G1 X73.626 Y139.309 E48.55387
G1 X71.225 Y134.383 E48.83821
G1 X69.946 Y132.015 E48.97785
G1 X69.742 Y131.553 E49.00405
G1 X69.59 Y130.916 E49.03803
G1 X69.296 Y128.702 E49.15392
G1 X68.364 Y123.296 E49.43855
G1 X67.124 Y117.936 E49.724
G1 X66.407 Y115.339 E49.86379
G1 X64.72 Y110.111 E50.14882
G1 X62.743 Y104.996 E50.43335
G1 X60.483 Y100.008 E50.71748
G1 X57.942 Y95.149 E51.00199
G1 X55.14 Y90.46 E51.28541
G1 X51.835 Y85.592 E51.5907
G1 X51.756 Y85.47 E51.59824
G1 X51.031 Y84.291 E51.67006
G1 X50.787 Y83.805 E51.69827
G1 X50.156 Y82.23 E51.78631
G1 X49.981 Y81.631 E51.81869
G1 X49.647 Y79.854 E51.9125
G1 X49.592 Y79.274 E51.94273
G1 X49.583 Y76.659 E52.07841
G1 X49.621 Y76.155 E52.10464
G1 X49.695 Y75.808 E52.12305
G1 X49.927 Y74.955 E52.16891
G1 X50.2 Y74.274 E52.20698
G1 X50.434 Y73.841 E52.23252
G1 X50.709 Y73.416 E52.25878
G1 X50.916 Y73.171 E52.27543
G1 X51.625 Y72.416 E52.32917
G1 F2700 E48.32917
G0 F3000 X53.307 Y74.272
G0 X54.138 Y75.25
G0 X54.342 Y75.183
G0 X54.281 Y75.105
;TYPE:WALL-INNER
G1 F2700 E52.32917
G1 F1500 X54.444 Y74.988 E52.33958
G1 X54.614 Y74.886 E52.34986
G1 X54.779 Y74.806 E52.35938
G1 X54.976 Y74.729 E52.37035
G1 X55.155 Y74.676 E52.38004
G1 X55.372 Y74.63 E52.39155
G1 X55.548 Y74.608 E52.40075
G1 X55.776 Y74.599 E52.41259
G1 X128.728 Y74.599 E56.19776
G1 X128.947 Y74.608 E56.20914
G1 X129.144 Y74.631 E56.21943
G1 X129.334 Y74.671 E56.2295
G1 X129.526 Y74.727 E56.23988
G1 X129.711 Y74.8 E56.2502
G1 X129.896 Y74.889 E56.26085
G1 X130.051 Y74.982 E56.27023
G1 X130.226 Y75.105 E56.28133
G1 X130.369 Y75.227 E56.29108
G1 X130.513 Y75.371 E56.30165
G1 X130.645 Y75.528 E56.31229
G1 X130.765 Y75.696 E56.323
G1 X130.854 Y75.843 E56.33192
G1 X130.952 Y76.044 E56.34352
G1 X131.018 Y76.213 E56.35293
G1 X131.074 Y76.403 E56.36321
G1 X131.12 Y76.62 E56.37472
G1 X131.142 Y76.793 E56.38377
G1 X131.151 Y77.016 E56.39535
G1 X131.151 Y110.248 E58.11962
G1 X159.151 Y138.246 E60.17412
G1 X159.151 Y145.401 E60.54536
G1 X80.352 Y145.401 E64.63391
G1 X80.352 Y129.898 E65.4383
G1 X73.352 Y129.898 E65.8015
G1 X73.352 Y96.492 E67.53479
G1 X73.341 Y96.027 E67.55893
G1 X73.306 Y95.557 E67.58338
G1 X73.248 Y95.091 E67.60775
G1 X73.167 Y94.626 E67.63224
G1 X73.064 Y94.165 E67.65675
G1 X72.938 Y93.713 E67.68109
G1 X72.791 Y93.266 E67.70551
G1 X72.622 Y92.825 E67.73001
G1 X72.43 Y92.393 E67.75454
G1 X72.218 Y91.974 E67.77891
G1 X71.986 Y91.563 E67.80339
G1 X71.734 Y91.166 E67.82779
G1 X71.464 Y90.781 E67.85219
G1 X71.173 Y90.409 E67.8767
G1 X70.864 Y90.052 E67.90119
G1 X70.54 Y89.711 E67.9256
G1 X70.199 Y89.387 E67.95001
G1 X69.842 Y89.078 E67.9745
G1 X69.47 Y88.787 E67.99901
G1 X69.085 Y88.517 E68.02341
G1 X68.688 Y88.265 E68.04781
G1 X68.277 Y88.033 E68.07229
G1 X67.858 Y87.821 E68.09666
G1 X67.426 Y87.629 E68.12119
G1 X66.985 Y87.46 E68.14569
G1 X66.538 Y87.313 E68.17011
G1 X66.086 Y87.187 E68.19445
G1 X65.625 Y87.084 E68.21896
G1 X65.16 Y87.002 E68.24346
G1 X64.692 Y86.945 E68.26792
G1 X64.223 Y86.91 E68.29233
G1 X63.759 Y86.899 E68.31641
G1 X61.767 Y86.899 E68.41976
G1 X61.333 Y86.888 E68.44229
G1 X60.932 Y86.859 E68.46315
G1 X60.51 Y86.807 E68.48521
G1 X60.113 Y86.738 E68.50612
G1 X59.721 Y86.649 E68.52698
G1 X59.32 Y86.54 E68.54854
G1 X58.918 Y86.406 E68.57052
G1 X58.541 Y86.261 E68.59148
G1 X58.156 Y86.09 E68.61334
G1 X57.789 Y85.905 E68.63466
G1 X57.447 Y85.712 E68.65504
G1 X57.082 Y85.48 E68.67748
G1 X56.742 Y85.241 E68.69904
G1 X56.422 Y84.992 E68.72008
G1 X56.121 Y84.732 E68.74072
G1 X55.809 Y84.435 E68.76307
G1 X55.518 Y84.129 E68.78498
G1 X55.256 Y83.825 E68.8058
G1 X55.004 Y83.501 E68.8271
G1 X54.771 Y83.169 E68.84814
G1 X54.539 Y82.804 E68.87058
G1 X54.342 Y82.455 E68.89138
G1 X54.161 Y82.094 E68.91233
G1 X53.99 Y81.709 E68.93419
G1 X53.845 Y81.333 E68.9551
G1 X53.712 Y80.932 E68.97702
G1 X53.601 Y80.527 E68.99881
G1 X53.512 Y80.133 E69.01977
G1 X53.443 Y79.731 E69.04093
G1 X53.39 Y79.307 E69.0631
G1 X53.363 Y78.92 E69.08323
G1 X53.352 Y78.499 E69.10508
G1 X53.352 Y77.022 E69.18172
G1 X53.361 Y76.803 E69.19309
G1 X53.385 Y76.599 E69.20375
G1 X53.425 Y76.411 E69.21372
G1 X53.481 Y76.219 E69.2241
G1 X53.553 Y76.037 E69.23425
G1 X53.633 Y75.87 E69.24386
G1 X53.742 Y75.687 E69.25491
G1 X53.855 Y75.528 E69.26503
G1 X53.981 Y75.381 E69.27508
G1 X54.125 Y75.236 E69.28568
G1 X54.281 Y75.105 E69.29625
G0 F3000 X54.342 Y75.183
G0 X59.784 Y77.183
G0 X59.878 Y77.214
G1 F1500 X59.806 Y77.478 E69.31045
G1 X59.764 Y77.746 E69.32452
G1 X59.752 Y78.015 E69.33849
G1 X59.768 Y78.284 E69.35248
G1 X59.813 Y78.551 E69.36652
G1 X59.887 Y78.812 E69.3806
G1 X59.99 Y79.064 E69.39473
G1 X60.118 Y79.302 E69.40875
G1 X60.27 Y79.524 E69.42271
G1 X60.447 Y79.731 E69.43684
G1 X60.645 Y79.915 E69.45086
G1 X60.862 Y80.076 E69.46488
G1 X61.094 Y80.216 E69.47894
G1 X61.341 Y80.327 E69.49299
G1 X61.598 Y80.413 E69.50705
G1 X61.864 Y80.469 E69.52116
G1 X62.131 Y80.496 E69.53508
G1 X62.404 Y80.495 E69.54925
G1 X62.671 Y80.463 E69.5632
G1 X62.935 Y80.405 E69.57722
G1 X63.192 Y80.316 E69.59134
G1 X63.437 Y80.201 E69.60538
G1 X63.666 Y80.06 E69.61933
G1 X63.883 Y79.895 E69.63348
G1 X64.078 Y79.707 E69.64753
G1 X64.252 Y79.499 E69.6616
G1 X64.402 Y79.275 E69.67559
G1 X64.527 Y79.035 E69.68963
G1 X64.625 Y78.784 E69.70361
G1 X64.697 Y78.522 E69.71771
G1 X64.74 Y78.254 E69.73179
G1 X64.752 Y77.983 E69.74587
G1 X64.736 Y77.713 E69.7599
G1 X64.69 Y77.448 E69.77386
G1 X64.617 Y77.186 E69.78797
G1 X64.514 Y76.935 E69.80205
G1 X64.386 Y76.696 E69.81611
G1 X64.232 Y76.473 E69.83017
G1 X64.056 Y76.269 E69.84415
G1 X63.86 Y76.084 E69.85814
G1 X63.642 Y75.922 E69.87223
G1 X63.41 Y75.782 E69.88629
G1 X63.163 Y75.671 E69.90034
G1 X62.906 Y75.585 E69.9144
G1 X62.64 Y75.529 E69.92851
G1 X62.373 Y75.502 E69.94243
G1 X62.1 Y75.503 E69.95659
G1 X61.833 Y75.535 E69.97055
G1 X61.569 Y75.593 E69.98457
G1 X61.312 Y75.682 E69.99868
G1 X61.067 Y75.797 E70.01273
G1 X60.837 Y75.938 E70.02672
G1 X60.623 Y76.103 E70.04074
G1 X60.426 Y76.29 E70.05484
G1 X60.251 Y76.499 E70.06898
G1 X60.101 Y76.724 E70.08301
G1 X59.977 Y76.963 E70.09698
G1 X59.878 Y77.214 E70.11098
G0 F3000 X59.784 Y77.183
G0 X60.397 Y76.263
G0 X61.049 Y75.762
G0 X61.827 Y75.496
G0 X62.646 Y75.49
G0 X110.651 Y78.015
G0 X110.751 Y78.015
G1 F1500 X110.767 Y78.284 E70.12496
G1 X110.812 Y78.551 E70.13901
G1 X110.886 Y78.812 E70.15309
G1 X110.989 Y79.064 E70.16721
G1 X111.117 Y79.302 E70.18124
G1 X111.269 Y79.524 E70.1952
G1 X111.446 Y79.731 E70.20933
G1 X111.644 Y79.915 E70.22335
G1 X111.861 Y80.076 E70.23737
G1 X112.093 Y80.216 E70.25143
G1 X112.34 Y80.327 E70.26548
G1 X112.597 Y80.413 E70.27954
G1 X112.863 Y80.469 E70.29365
G1 X113.13 Y80.496 E70.30757
G1 X113.403 Y80.495 E70.32174
G1 X113.67 Y80.463 E70.33569
G1 X113.934 Y80.405 E70.34971
G1 X114.191 Y80.316 E70.36382
G1 X114.436 Y80.201 E70.37787
G1 X114.665 Y80.06 E70.39182
G1 X114.882 Y79.895 E70.40597
G1 X115.077 Y79.707 E70.42002
G1 X115.251 Y79.499 E70.43409
G1 X115.401 Y79.275 E70.44808
G1 X115.526 Y79.035 E70.46212
G1 X115.624 Y78.784 E70.4761
G1 X115.696 Y78.522 E70.4902
G1 X115.739 Y78.254 E70.50428
G1 X115.751 Y77.983 E70.51835
G1 X115.735 Y77.713 E70.53239
G1 X115.689 Y77.448 E70.54634
G1 X115.616 Y77.186 E70.56046
G1 X115.513 Y76.935 E70.57453
G1 X115.385 Y76.696 E70.5886
G1 X115.231 Y76.473 E70.60266
G1 X115.055 Y76.269 E70.61664
G1 X114.859 Y76.084 E70.63063
G1 X114.641 Y75.922 E70.64472
G1 X114.409 Y75.782 E70.65878
G1 X114.162 Y75.671 E70.67283
G1 X113.905 Y75.585 E70.68689
G1 X113.639 Y75.529 E70.70099
G1 X113.372 Y75.502 E70.71492
G1 X113.099 Y75.503 E70.72908
G1 X112.832 Y75.535 E70.74304
G1 X112.568 Y75.593 E70.75706
G1 X112.311 Y75.682 E70.77117
G1 X112.066 Y75.797 E70.78521
G1 X111.836 Y75.938 E70.79921
G1 X111.622 Y76.103 E70.81323
G1 X111.425 Y76.29 E70.82733
G1 X111.25 Y76.499 E70.84147
G1 X111.1 Y76.724 E70.8555
G1 X110.976 Y76.963 E70.86947
G1 X110.877 Y77.214 E70.88347
G1 X110.805 Y77.478 E70.89767
G1 X110.763 Y77.746 E70.91174
