;FLAVOR:RepRap
;TIME:8159
;Filament used: 6.9729m
;Layer height: 0.2
;Generated with Cura_SteamEngine 2.4.0
M190 S60
M104 S192
M109 S192
G21 ;metric values
G90 ;absolute positioning
M82 ;set extruder to absolute mode
M107 ;start with the fan off
G28 X0 Y0 ;move X/Y to min endstops
G28 Z0 ;move Z to min endstops
G1 Z15.0 F9000 ;move the platform down 15mm
G92 E0 ;zero the extruded length
G1 F200 E3 ;extrude 3mm of feed stock
G92 E0 ;zero the extruded length again
G1 F9000;Put printing message on LCD screen
M117 Printing...
;LAYER_COUNT:48
;LAYER:0
M107
G1 F2100 E-3
G0 F3600 X33.839 Y33.586 Z0.3
;TYPE:SKIRT
G1 F2100 E0
G1 F1800 X34.235 Y33.183 E0.02819
G1 X34.684 Y32.84 E0.05638
G1 X35.177 Y32.563 E0.08459
G1 X35.704 Y32.359 E0.11278
G1 X36.255 Y32.231 E0.141
G1 X36.883 Y32.181 E0.17243
G1 X183.119 Y32.182 E7.46818
G1 X183.683 Y32.222 E7.49639
G1 X184.236 Y32.341 E7.52461
G1 X184.766 Y32.537 E7.5528
G1 X185.263 Y32.805 E7.58097
G1 X185.718 Y33.141 E7.60919
G1 X186.121 Y33.538 E7.63741
G1 X186.463 Y33.988 E7.66561
G1 X186.739 Y34.481 E7.6938
G1 X186.943 Y35.009 E7.72204
G1 X187.07 Y35.559 E7.7502
G1 X187.119 Y36.205 E7.78252
G1 X187.034 Y51.274 E8.53433
G1 X187.091 Y52.903 E8.61565
G1 X187.093 Y53.035 E8.62224
G1 X187.118 Y63.811 E9.15985
G1 X187.079 Y64.375 E9.18806
G1 X186.962 Y64.928 E9.21626
G1 X186.87 Y65.206 E9.23087
G1 X184.869 Y70.623 E9.51897
G1 X183.28 Y75.82 E9.7901
G1 X181.983 Y81.12 E10.06232
G1 X181.46 Y83.733 E10.19527
G1 X180.618 Y89.112 E10.4669
G1 X180.082 Y94.537 E10.73887
G1 X179.854 Y99.93 E11.00817
G1 X179.932 Y105.381 E11.28015
G1 X180.318 Y110.785 E11.55044
G1 X181.01 Y116.191 E11.82235
G1 X182 Y121.507 E12.09212
G1 X182.605 Y124.133 E12.22657
G1 X184.057 Y129.397 E12.499
G1 X185.803 Y134.57 E12.77138
G1 X186.76 Y137.054 E12.90419
G1 X187.804 Y139.549 E13.03912
G1 X190.391 Y145.04 E13.34195
G1 X190.596 Y145.567 E13.37016
G1 X190.724 Y146.118 E13.39839
G1 X190.772 Y146.681 E13.42658
G1 X190.742 Y147.246 E13.4548
G1 X190.595 Y147.926 E13.48951
G1 X184.601 Y167.321 E14.50229
G1 X184.396 Y167.848 E14.5305
G1 X184.119 Y168.341 E14.55871
G1 X183.775 Y168.79 E14.58693
G1 X183.372 Y169.186 E14.61512
G1 X182.707 Y169.644 E14.6554
G1 X179.306 Y171.515 E14.84906
G1 X174.65 Y174.367 E15.12146
G1 X170.187 Y177.461 E15.3924
G1 X165.883 Y180.82 E15.66478
G1 X163.876 Y182.527 E15.79623
G1 X159.857 Y186.254 E16.06968
G1 X156.092 Y190.162 E16.34041
G1 X152.557 Y194.275 E16.61099
G1 X147.995 Y200.334 E16.98938
G1 X147.624 Y200.761 E17.0176
G1 X147.197 Y201.13 E17.04575
G1 X146.88 Y201.345 E17.06486
G1 X146.236 Y201.737 E17.10247
G1 X145.733 Y201.996 E17.1307
G1 X145.199 Y202.182 E17.15891
G1 X144.777 Y202.271 E17.18043
G1 X144.37 Y202.335 E17.20098
G1 X143.807 Y202.384 E17.22918
G1 X143.282 Y202.357 E17.2554
G1 X142.908 Y202.313 E17.27419
G1 X142.352 Y202.207 E17.30243
G1 X141.817 Y202.024 E17.33064
G1 X141.458 Y201.851 E17.35052
G1 X140.795 Y201.489 E17.38821
G1 X140.319 Y201.183 E17.41644
G1 X139.891 Y200.814 E17.44463
G1 X139.441 Y200.281 E17.47944
G1 X135.595 Y194.819 E17.81271
G1 X132.24 Y190.57 E18.08281
G1 X128.632 Y186.498 E18.35424
G1 X124.773 Y182.61 E18.62754
G1 X122.854 Y180.837 E18.75788
G1 X118.667 Y177.28 E19.03198
G1 X114.346 Y174.011 E19.30229
G1 X109.845 Y170.99 E19.57274
G1 X105.169 Y168.221 E19.84386
G1 X100.339 Y165.72 E20.11522
G1 X95.372 Y163.493 E20.38679
G1 X92.847 Y162.487 E20.5224
G1 X88.181 Y160.834 E20.76936
G1 X87.663 Y160.608 E20.79755
G1 X87.182 Y160.312 E20.82573
G1 X86.747 Y159.95 E20.85397
G1 X86.368 Y159.531 E20.88215
G1 X86.052 Y159.062 E20.91037
G1 X85.805 Y158.554 E20.93855
G1 X85.616 Y157.95 E20.97012
G1 X84.212 Y151.767 E21.28645
G1 X82.683 Y146.529 E21.55868
G1 X80.876 Y141.429 E21.82862
G1 X78.774 Y136.418 E22.09972
G1 X76.391 Y131.529 E22.37107
G1 X73.74 Y126.793 E22.64184
G1 X70.829 Y122.216 E22.91246
G1 X67.652 Y117.797 E23.18399
G1 X64.246 Y113.586 E23.4542
G1 X60.591 Y109.553 E23.72574
G1 X56.741 Y105.762 E23.9953
G1 X52.604 Y102.124 E24.27015
G1 X50.565 Y100.481 E24.40079
G1 X46.177 Y97.238 E24.67301
G1 X41.626 Y94.259 E24.94438
G1 X36.928 Y91.548 E25.21499
G1 X31.432 Y88.797 E25.52162
G1 X30.946 Y88.509 E25.5498
G1 X30.505 Y88.155 E25.57801
G1 X30.118 Y87.742 E25.60625
G1 X29.794 Y87.279 E25.63444
G1 X29.538 Y86.775 E25.66265
G1 X29.355 Y86.24 E25.69086
G1 X29.25 Y85.685 E25.71904
G1 X29.223 Y85.219 E25.74232
G1 X29.225 Y74.902 E26.25704
G1 X29.265 Y74.338 E26.28525
G1 X29.342 Y73.945 E26.30523
G1 X30.777 Y68.129 E26.60409
G1 X31.296 Y65.527 E26.73646
G1 X32.136 Y60.15 E27.00798
G1 X32.673 Y54.72 E27.2802
G1 X32.901 Y49.296 E27.55105
G1 X32.883 Y36.186 E28.20511
G1 X32.922 Y35.622 E28.23331
G1 X33.04 Y35.07 E28.26147
G1 X33.236 Y34.539 E28.28971
G1 X33.503 Y34.041 E28.3179
G1 X33.839 Y33.586 E28.34612
G0 F3600 X34.235 Y33.743
G1 F1800 X34.626 Y33.376 E28.37288
G1 X35.068 Y33.072 E28.39964
G1 X35.55 Y32.837 E28.42639
G1 X36.062 Y32.676 E28.45317
G1 X36.591 Y32.593 E28.47989
G1 X36.883 Y32.581 E28.49447
G1 X183.119 Y32.582 E35.79021
G1 X183.654 Y32.622 E35.81698
G1 X184.177 Y32.741 E35.84373
G1 X184.676 Y32.936 E35.87046
G1 X185.141 Y33.204 E35.89724
G1 X185.561 Y33.537 E35.92398
G1 X185.927 Y33.929 E35.95074
G1 X186.23 Y34.371 E35.97747
G1 X186.465 Y34.854 E36.00427
G1 X186.625 Y35.365 E36.03098
G1 X186.708 Y35.895 E36.05775
G1 X186.719 Y36.202 E36.07307
G1 X186.633 Y51.285 E36.82558
G1 X186.691 Y52.917 E36.90705
G1 X186.693 Y53.036 E36.91299
G1 X186.718 Y63.812 E37.45061
G1 X186.679 Y64.347 E37.47737
G1 X186.495 Y65.067 E37.51445
G1 X184.493 Y70.488 E37.80275
G1 X182.895 Y75.713 E38.07535
G1 X181.591 Y81.038 E38.34886
G1 X181.066 Y83.666 E38.48257
G1 X180.221 Y89.064 E38.75515
G1 X179.683 Y94.497 E39.02753
G1 X179.454 Y99.936 E39.29913
G1 X179.532 Y105.386 E39.57106
G1 X179.92 Y110.828 E39.84325
G1 X180.614 Y116.246 E40.11576
G1 X181.611 Y121.601 E40.38751
G1 X182.218 Y124.238 E40.52251
G1 X183.671 Y129.505 E40.7951
G1 X185.425 Y134.702 E41.06875
G1 X186.39 Y137.203 E41.20249
G1 X187.435 Y139.704 E41.33772
G1 X190.03 Y145.211 E41.64144
G1 X190.221 Y145.711 E41.66814
G1 X190.337 Y146.235 E41.69492
G1 X190.373 Y146.77 E41.72167
G1 X190.329 Y147.305 E41.74845
G1 X190.212 Y147.808 E41.77422
G1 X184.218 Y167.203 E42.78699
G1 X184.022 Y167.702 E42.81374
G1 X183.754 Y168.167 E42.84052
G1 X183.42 Y168.586 E42.86725
G1 X183.028 Y168.951 E42.89397
G1 X182.515 Y169.294 E42.92476
G1 X179.091 Y171.178 E43.11974
G1 X174.438 Y174.028 E43.39196
G1 X169.947 Y177.141 E43.66458
G1 X165.636 Y180.506 E43.93742
G1 X163.603 Y182.235 E44.07057
G1 X159.58 Y185.966 E44.3443
G1 X155.783 Y189.907 E44.61733
G1 X152.253 Y194.014 E44.88751
G1 X147.676 Y200.093 E45.26715
G1 X147.322 Y200.497 E45.29395
G1 X146.913 Y200.843 E45.32068
G1 X146.672 Y201.003 E45.33511
G1 X146.028 Y201.395 E45.37272
G1 X145.55 Y201.639 E45.3995
G1 X145.042 Y201.809 E45.42622
G1 X144.715 Y201.876 E45.44287
G1 X144.308 Y201.94 E45.46343
G1 X143.774 Y201.984 E45.49016
G1 X143.328 Y201.959 E45.51245
G1 X142.954 Y201.915 E45.53123
G1 X142.428 Y201.813 E45.55797
G1 X141.922 Y201.634 E45.58474
G1 X141.65 Y201.5 E45.59987
G1 X140.987 Y201.138 E45.63756
G1 X140.537 Y200.846 E45.66432
G1 X140.135 Y200.491 E45.69108
G1 X139.768 Y200.05 E45.7197
G1 X135.919 Y194.583 E46.05327
G1 X132.546 Y190.311 E46.32482
G1 X128.925 Y186.225 E46.5972
G1 X125.057 Y182.328 E46.87114
G1 X123.115 Y180.533 E47.00307
G1 X118.922 Y176.971 E47.27755
G1 X114.576 Y173.683 E47.54944
G1 X110.059 Y170.652 E47.82083
G1 X105.365 Y167.872 E48.093
G1 X100.515 Y165.36 E48.3655
G1 X95.514 Y163.119 E48.6389
G1 X92.994 Y162.114 E48.77425
G1 X88.315 Y160.457 E49.0219
G1 X87.824 Y160.241 E49.04866
G1 X87.371 Y159.954 E49.07541
G1 X86.965 Y159.604 E49.10216
G1 X86.616 Y159.196 E49.12894
G1 X86.332 Y158.742 E49.15566
G1 X86.118 Y158.25 E49.18243
G1 X86.006 Y157.861 E49.20262
G1 X84.599 Y151.667 E49.51951
G1 X83.063 Y146.404 E49.79304
G1 X81.251 Y141.289 E50.06377
G1 X79.132 Y136.239 E50.33699
G1 X76.746 Y131.344 E50.60867
G1 X74.092 Y126.601 E50.87983
G1 X71.159 Y121.989 E51.15251
G1 X67.972 Y117.558 E51.42482
G1 X64.546 Y113.321 E51.69666
G1 X60.886 Y109.283 E51.96855
G1 X56.994 Y105.451 E52.24105
G1 X52.886 Y101.838 E52.51398
G1 X50.796 Y100.153 E52.64792
G1 X46.408 Y96.911 E52.92011
G1 X41.832 Y93.915 E53.19299
G1 X37.122 Y91.198 E53.46426
G1 X31.611 Y88.439 E53.77174
G1 X31.151 Y88.164 E53.79848
G1 X30.737 Y87.824 E53.8252
G1 X30.378 Y87.425 E53.85198
G1 X30.082 Y86.978 E53.87873
G1 X29.855 Y86.492 E53.90549
G1 X29.704 Y85.978 E53.93222
G1 X29.623 Y85.219 E53.9703
G1 X29.625 Y74.902 E54.48502
G1 X29.665 Y74.368 E54.51173
G1 X29.73 Y74.04 E54.52841
G1 X31.169 Y68.211 E54.82795
G1 X31.69 Y65.597 E54.96093
G1 X32.534 Y60.195 E55.23371
G1 X33.071 Y54.759 E55.50623
G1 X33.301 Y49.289 E55.77937
G1 X33.283 Y36.186 E56.43309
G1 X33.322 Y35.651 E56.45985
G1 X33.44 Y35.128 E56.4866
G1 X33.635 Y34.628 E56.51337
G1 X33.902 Y34.163 E56.54012
G1 X34.235 Y33.743 E56.56686
G0 F3600 X34.629 Y33.909
G1 F1800 X35.015 Y33.583 E56.59207
G1 X35.448 Y33.321 E56.61732
G1 X35.916 Y33.131 E56.64252
G1 X36.409 Y33.016 E56.66777
G1 X36.883 Y32.981 E56.69149
G1 X183.119 Y32.982 E63.98723
G1 X183.623 Y33.022 E64.01245
G1 X184.114 Y33.141 E64.03766
G1 X184.581 Y33.335 E64.06289
G1 X185.011 Y33.601 E64.08811
G1 X185.394 Y33.931 E64.11334
G1 X185.72 Y34.318 E64.13858
G1 X185.981 Y34.751 E64.1638
G1 X186.171 Y35.219 E64.189
G1 X186.284 Y35.712 E64.21424
G1 X186.319 Y36.2 E64.23865
G1 X186.233 Y51.297 E64.99185
G1 X186.291 Y52.931 E65.07342
G1 X186.293 Y53.037 E65.07871
G1 X186.318 Y63.813 E65.61633
G1 X186.279 Y64.317 E65.64155
G1 X186.12 Y64.929 E65.6731
G1 X184.109 Y70.375 E65.96273
G1 X182.509 Y75.606 E66.23564
G1 X181.204 Y80.938 E66.50951
G1 X180.672 Y83.595 E66.6447
G1 X179.821 Y89.032 E66.91925
G1 X179.284 Y94.459 E67.19133
G1 X179.054 Y99.926 E67.46432
G1 X179.133 Y105.414 E67.73815
G1 X179.522 Y110.871 E68.01109
G1 X180.217 Y116.298 E68.28405
G1 X181.22 Y121.687 E68.55753
G1 X181.825 Y124.315 E68.69207
G1 X183.292 Y129.634 E68.96734
G1 X185.047 Y134.833 E69.2411
G1 X186.024 Y137.366 E69.37655
G1 X187.067 Y139.86 E69.51142
G1 X189.668 Y145.381 E69.8159
G1 X189.846 Y145.854 E69.84111
G1 X189.948 Y146.349 E69.86633
G1 X189.971 Y146.854 E69.89155
G1 X189.914 Y147.357 E69.9168
G1 X189.83 Y147.69 E69.93394
G1 X183.836 Y167.085 E70.94671
G1 X183.649 Y167.555 E70.97195
G1 X183.391 Y167.989 E70.99714
G1 X183.067 Y168.377 E71.02236
G1 X182.686 Y168.71 E71.0476
G1 X182.322 Y168.944 E71.06919
G1 X178.886 Y170.835 E71.26486
G1 X174.215 Y173.696 E71.53813
G1 X169.719 Y176.813 E71.81107
G1 X165.375 Y180.203 E72.08598
G1 X163.331 Y181.941 E72.21984
G1 X159.302 Y185.677 E72.49396
G1 X155.499 Y189.624 E72.76741
G1 X151.935 Y193.772 E73.04025
G1 X147.356 Y199.853 E73.42003
G1 X147.021 Y200.231 E73.44523
G1 X146.464 Y200.661 E73.48033
G1 X145.82 Y201.053 E73.51795
G1 X145.369 Y201.281 E73.54316
G1 X144.653 Y201.481 E73.58025
G1 X144.246 Y201.545 E73.6008
G1 X143.742 Y201.584 E73.62602
G1 X143.375 Y201.562 E73.64436
G1 X143.001 Y201.518 E73.66315
G1 X142.505 Y201.42 E73.68838
G1 X141.841 Y201.149 E73.72416
G1 X141.178 Y200.787 E73.76184
G1 X140.755 Y200.51 E73.78707
G1 X140.381 Y200.17 E73.81228
G1 X140.095 Y199.82 E73.83483
G1 X136.236 Y194.338 E74.1693
G1 X132.852 Y190.053 E74.44171
G1 X129.216 Y185.951 E74.71518
G1 X125.342 Y182.047 E74.98957
G1 X123.374 Y180.228 E75.12327
G1 X119.177 Y176.663 E75.398
G1 X114.806 Y173.356 E75.67145
G1 X110.259 Y170.305 E75.94464
G1 X105.574 Y167.53 E76.2163
G1 X100.684 Y164.998 E76.49103
G1 X95.686 Y162.757 E76.7643
G1 X93.126 Y161.737 E76.90178
G1 X88.448 Y160.08 E77.14938
G1 X87.987 Y159.874 E77.17457
G1 X87.563 Y159.598 E77.19981
G1 X87.188 Y159.259 E77.22503
G1 X86.872 Y158.865 E77.25023
G1 X86.621 Y158.426 E77.27545
G1 X86.396 Y157.773 E77.30991
G1 X84.985 Y151.559 E77.62782
G1 X83.447 Y146.29 E77.90166
G1 X81.621 Y141.137 E78.17441
G1 X79.503 Y136.087 E78.44762
G1 X77.097 Y131.153 E78.72148
G1 X74.429 Y126.384 E78.99411
G1 X71.491 Y121.766 E79.26718
G1 X68.293 Y117.318 E79.54049
G1 X64.853 Y113.064 E79.81344
G1 X61.172 Y109.003 E80.08688
G1 X57.275 Y105.166 E80.35973
G1 X53.13 Y101.52 E80.63514
G1 X51.067 Y99.857 E80.76734
G1 X46.619 Y96.571 E81.04324
G1 X42.05 Y93.58 E81.31569
G1 X37.302 Y90.841 E81.58916
G1 X31.79 Y88.081 E81.8967
G1 X31.358 Y87.82 E81.92188
G1 X30.971 Y87.494 E81.94713
G1 X30.641 Y87.111 E81.97235
G1 X30.376 Y86.681 E81.99755
G1 X30.181 Y86.214 E82.0228
G1 X30.063 Y85.723 E82.04799
G1 X30.023 Y85.219 E82.07321
G1 X30.025 Y74.902 E82.58793
G1 X30.065 Y74.398 E82.61315
G1 X30.118 Y74.136 E82.62649
G1 X31.564 Y68.277 E82.92757
G1 X32.08 Y65.686 E83.05937
G1 X32.933 Y60.227 E83.33503
G1 X33.471 Y54.797 E83.60726
G1 X33.701 Y49.306 E83.88144
G1 X33.683 Y36.185 E84.53605
G1 X33.722 Y35.681 E84.56127
G1 X33.84 Y35.19 E84.58647
G1 X34.034 Y34.723 E84.6117
G1 X34.3 Y34.292 E84.63696
G1 X34.629 Y33.909 E84.66215
G1 F2100 E81.66215
G0 F3600 X37.486 Y35.507
G0 X37.486 Y36.786
G0 X37.542 Y36.842
G0 X37.472 Y36.772
;TYPE:WALL-INNER
G1 F2100 E84.66215
G1 F1800 X182.528 Y36.772 E91.89903
G1 X182.528 Y44.95 E92.30703
G1 X173.977 Y44.95 E92.73364
G1 X173.977 Y41.073 E92.92707
G1 X163.027 Y41.073 E93.47336
G1 X163.027 Y44.95 E93.66679
G1 X154.476 Y44.95 E94.0934
G1 X154.476 Y41.073 E94.28682
G1 X143.526 Y41.073 E94.83312
G1 X143.526 Y44.95 E95.02655
G1 X134.976 Y44.95 E95.45311
G1 X134.976 Y41.073 E95.64653
G1 X124.025 Y41.073 E96.19288
G1 X124.025 Y44.95 E96.3863
G1 X115.475 Y44.95 E96.81286
G1 X115.475 Y41.073 E97.00629
G1 X104.525 Y41.073 E97.55259
G1 X104.525 Y44.95 E97.74601
G1 X95.975 Y44.95 E98.17257
G1 X95.975 Y41.073 E98.366
G1 X85.024 Y41.073 E98.91234
G1 X85.024 Y44.95 E99.10577
G1 X76.474 Y44.95 E99.53233
G1 X76.474 Y41.073 E99.72575
G1 X65.524 Y41.073 E100.27205
G1 X65.524 Y44.95 E100.46548
G1 X56.973 Y44.95 E100.89209
G1 X56.973 Y41.073 E101.08551
G1 X46.023 Y41.073 E101.63181
G1 X46.023 Y44.95 E101.82523
G1 X37.472 Y44.95 E102.25184
G1 X37.472 Y36.772 E102.65985
G0 F3600 X37.072 Y36.372
;TYPE:WALL-OUTER
G1 F1800 X182.928 Y36.372 E109.93663
G1 X182.928 Y45.35 E110.38455
G1 X173.577 Y45.35 E110.85107
G1 X173.577 Y41.473 E111.04449
G1 X163.427 Y41.473 E111.55088
G1 X163.427 Y45.35 E111.7443
G1 X154.076 Y45.35 E112.21083
G1 X154.076 Y41.473 E112.40425
G1 X143.926 Y41.473 E112.91064
G1 X143.926 Y45.35 E113.10406
G1 X134.576 Y45.35 E113.57053
G1 X134.576 Y41.473 E113.76396
G1 X124.425 Y41.473 E114.27039
G1 X124.425 Y45.35 E114.46382
G1 X115.075 Y45.35 E114.93029
G1 X115.075 Y41.473 E115.12372
G1 X104.925 Y41.473 E115.6301
G1 X104.925 Y45.35 E115.82353
G1 X95.575 Y45.35 E116.29
G1 X95.575 Y41.473 E116.48342
G1 X85.424 Y41.473 E116.98986
G1 X85.424 Y45.35 E117.18328
G1 X76.074 Y45.35 E117.64976
G1 X76.074 Y41.473 E117.84318
G1 X65.924 Y41.473 E118.34957
G1 X65.924 Y45.35 E118.54299
G1 X56.573 Y45.35 E119.00951
G1 X56.573 Y41.473 E119.20294
G1 X46.423 Y41.473 E119.70932
G1 X46.423 Y45.35 E119.90275
G1 X37.072 Y45.35 E120.36927
G1 X37.072 Y36.372 E120.81719
G0 F3600 X37.272 Y36.372
G0 X37.65 Y37.084
;TYPE:SKIN
G1 F1800 X45.335 Y44.769 E121.3594
G0 X45.405 Y44.839
G0 F3600 X45.842 Y44.711
G1 F1800 X38.083 Y36.951 E121.90688
G0 X38.013 Y36.881
G0 F3600 X38.649 Y36.951
G1 F1800 X45.842 Y44.145 E122.41442
G0 X45.912 Y44.215
G0 F3600 X45.842 Y43.579
G1 F1800 X39.214 Y36.951 E122.88206
G0 X39.144 Y36.881
G0 F3600 X39.78 Y36.951
G1 F1800 X45.842 Y43.014 E123.3098
G0 X45.912 Y43.084
G0 F3600 X45.842 Y42.448
G1 F1800 X40.346 Y36.951 E123.69761
G0 X40.276 Y36.881
G0 F3600 X40.911 Y36.951
G1 F1800 X45.842 Y41.882 E124.04552
G0 X45.912 Y41.952
G0 F3600 X45.842 Y41.316
G1 F1800 X41.477 Y36.951 E124.35349
G0 X41.407 Y36.881
G0 F3600 X42.043 Y36.951
G1 F1800 X45.983 Y40.892 E124.63152
G0 X46.053 Y40.962
G0 F3600 X46.549 Y40.892
G1 F1800 X42.608 Y36.951 E124.90958
G0 X42.538 Y36.881
G0 F3600 X43.174 Y36.951
G1 F1800 X47.115 Y40.892 E125.18763
G0 X47.185 Y40.962
G0 F3600 X47.68 Y40.892
G1 F1800 X43.74 Y36.951 E125.46566
G0 X43.67 Y36.881
G0 F3600 X44.305 Y36.951
G1 F1800 X48.246 Y40.892 E125.74372
G0 X48.316 Y40.962
G0 F3600 X48.812 Y40.892
