;FLAVOR:RepRap
;TIME:4361
;Filament used: 3.05514m
;Layer height: 0.2
;Generated with Cura_SteamEngine 2.4.0
M190 S60
M104 S195
M109 S195
G21 ;metric values
G90 ;absolute positioning
M82 ;set extruder to absolute mode
M107 ;start with the fan off
G28 X0 Y0 ;move X/Y to min endstops
G28 Z0 ;move Z to min endstops
G1 Z15.0 F9000 ;move the platform down 15mm
G92 E0 ;zero the extruded length
G1 F200 E3 ;extrude 3mm of feed stock
G92 E0 ;zero the extruded length again
G1 F9000;Put printing message on LCD screen
M117 Printing...
;LAYER_COUNT:305
;LAYER:0
M107
G1 F2700 E-4
G0 F3000 X77.365 Y99.34 Z0.3
;TYPE:SKIRT
G1 F2700 E0
G1 F1500 X77.815 Y98.998 E0.02933
G1 X78.308 Y98.722 E0.05864
G1 X78.836 Y98.518 E0.08801
G1 X79.386 Y98.391 E0.1173
G1 X80.007 Y98.342 E0.14962
G1 X96.336 Y98.333 E0.99686
G1 X101.796 Y98.179 E1.28027
G1 X108.691 Y97.579 E1.63938
G1 X109.111 Y97.565 E1.66118
G1 X111.76 Y97.614 E1.79865
G1 X112.071 Y97.632 E1.81481
G1 X116.837 Y98.093 E2.06326
G1 X119.542 Y98.246 E2.20383
G1 X123.63 Y98.332 E2.41599
G1 X139.995 Y98.342 E3.2651
G1 X140.559 Y98.382 E3.29444
G1 X141.112 Y98.502 E3.3238
G1 X141.642 Y98.698 E3.35312
G1 X142.139 Y98.967 E3.38244
G1 X142.594 Y99.303 E3.41179
G1 X142.996 Y99.7 E3.4411
G1 X143.339 Y100.15 E3.47046
G1 X143.614 Y100.643 E3.49975
G1 X143.818 Y101.171 E3.52912
G1 X143.945 Y101.722 E3.55846
G1 X143.993 Y102.343 E3.59077
G1 X143.991 Y117.658 E4.38541
G1 X143.951 Y118.221 E4.41469
G1 X143.832 Y118.774 E4.44404
G1 X143.636 Y119.304 E4.47336
G1 X143.367 Y119.802 E4.50273
G1 X143.031 Y120.256 E4.53203
G1 X142.634 Y120.659 E4.56139
G1 X142.185 Y121.002 E4.5907
G1 X141.691 Y121.278 E4.62006
G1 X141.164 Y121.481 E4.64937
G1 X140.613 Y121.608 E4.6787
G1 X139.993 Y121.657 E4.71097
G1 X123.675 Y121.666 E5.55765
G1 X118.221 Y121.82 E5.84074
G1 X111.641 Y122.411 E6.18353
G1 X111.277 Y122.427 E6.20243
G1 X108.667 Y122.423 E6.33785
G1 X108.229 Y122.398 E6.36062
G1 X105.915 Y122.14 E6.48143
G1 X100.445 Y121.753 E6.76595
G1 X96.354 Y121.666 E6.97826
G1 X80.007 Y121.656 E7.82644
G1 X79.443 Y121.616 E7.85578
G1 X78.89 Y121.496 E7.88514
G1 X78.36 Y121.3 E7.91446
G1 X77.863 Y121.031 E7.94378
G1 X77.408 Y120.695 E7.97313
G1 X77.006 Y120.298 E8.00244
G1 X76.663 Y119.848 E8.0318
G1 X76.388 Y119.355 E8.06109
G1 X76.184 Y118.827 E8.09046
G1 X76.057 Y118.276 E8.1198
G1 X76.009 Y117.656 E8.15206
G1 X76.009 Y102.342 E8.94664
G1 X76.049 Y101.778 E8.97598
G1 X76.168 Y101.225 E9.00533
G1 X76.364 Y100.695 E9.03465
G1 X76.632 Y100.198 E9.06395
G1 X76.968 Y99.743 E9.09329
G1 X77.365 Y99.34 E9.12265
G0 F3000 X77.756 Y99.534
G1 F1500 X78.198 Y99.231 E9.15045
G1 X78.681 Y98.996 E9.17832
G1 X79.192 Y98.836 E9.2061
G1 X79.722 Y98.753 E9.23394
G1 X80.007 Y98.742 E9.24874
G1 X96.311 Y98.733 E10.09468
G1 X101.841 Y98.577 E10.38173
G1 X108.725 Y97.978 E10.74026
G1 X109.104 Y97.965 E10.75993
G1 X111.753 Y98.014 E10.8974
G1 X112.033 Y98.03 E10.91195
G1 X116.828 Y98.494 E11.16191
G1 X119.51 Y98.645 E11.30129
G1 X123.621 Y98.732 E11.51464
G1 X139.995 Y98.742 E12.36422
G1 X140.53 Y98.782 E12.39205
G1 X141.053 Y98.902 E12.41989
G1 X141.552 Y99.097 E12.44769
G1 X142.017 Y99.365 E12.47554
G1 X142.437 Y99.698 E12.50335
G1 X142.802 Y100.091 E12.53118
G1 X143.106 Y100.533 E12.55901
G1 X143.34 Y101.016 E12.58686
G1 X143.5 Y101.527 E12.61464
G1 X143.582 Y102.057 E12.64247
G1 X143.593 Y102.342 E12.65727
G1 X143.591 Y117.657 E13.4519
G1 X143.551 Y118.192 E13.47974
G1 X143.432 Y118.715 E13.50757
G1 X143.237 Y119.215 E13.53541
G1 X142.969 Y119.679 E13.56321
G1 X142.636 Y120.099 E13.59102
G1 X142.244 Y120.465 E13.61885
G1 X141.801 Y120.769 E13.64673
G1 X141.319 Y121.003 E13.67453
G1 X140.807 Y121.163 E13.70236
G1 X140.277 Y121.246 E13.73019
G1 X139.993 Y121.257 E13.74494
G1 X123.7 Y121.266 E14.59032
G1 X118.19 Y121.422 E14.87632
G1 X111.605 Y122.013 E15.21936
G1 X111.277 Y122.027 E15.2364
G1 X108.667 Y122.023 E15.37182
G1 X108.274 Y122.001 E15.39224
G1 X105.94 Y121.74 E15.5141
G1 X100.461 Y121.353 E15.79909
G1 X96.363 Y121.266 E16.01177
G1 X80.007 Y121.256 E16.86041
G1 X79.472 Y121.216 E16.88825
G1 X78.949 Y121.096 E16.91609
G1 X78.45 Y120.901 E16.94389
G1 X77.985 Y120.633 E16.97173
G1 X77.565 Y120.3 E16.99954
G1 X77.2 Y119.907 E17.02737
G1 X76.896 Y119.465 E17.05521
G1 X76.662 Y118.982 E17.08305
G1 X76.502 Y118.471 E17.11084
G1 X76.42 Y117.941 E17.13866
G1 X76.409 Y117.656 E17.15346
G1 X76.409 Y102.342 E17.94804
G1 X76.449 Y101.807 E17.97588
G1 X76.568 Y101.284 E18.00371
G1 X76.763 Y100.785 E18.03151
G1 X77.031 Y100.32 E18.05935
G1 X77.364 Y99.9 E18.08716
G1 X77.756 Y99.534 E18.11499
G0 F3000 X78.145 Y99.741
G1 F1500 X78.578 Y99.48 E18.14122
G1 X79.046 Y99.29 E18.16743
G1 X79.539 Y99.177 E18.19367
G1 X80.007 Y99.142 E18.21802
G1 X96.322 Y99.133 E19.06454
G1 X101.854 Y98.976 E19.35169
G1 X108.76 Y98.376 E19.71136
G1 X109.096 Y98.365 E19.7288
G1 X111.745 Y98.414 E19.86627
G1 X111.994 Y98.428 E19.87921
G1 X116.79 Y98.892 E20.12922
G1 X119.509 Y99.045 E20.27052
G1 X123.613 Y99.132 E20.48351
G1 X139.995 Y99.142 E21.3335
G1 X140.499 Y99.182 E21.35973
G1 X140.99 Y99.301 E21.38595
G1 X141.457 Y99.496 E21.4122
G1 X141.887 Y99.762 E21.43844
G1 X142.269 Y100.093 E21.46467
G1 X142.595 Y100.479 E21.49088
G1 X142.856 Y100.912 E21.51711
G1 X143.045 Y101.381 E21.54335
G1 X143.159 Y101.874 E21.5696
G1 X143.193 Y102.342 E21.59395
G1 X143.191 Y117.657 E22.38858
G1 X143.151 Y118.161 E22.41481
G1 X143.032 Y118.653 E22.44108
G1 X142.837 Y119.119 E22.46729
G1 X142.571 Y119.549 E22.49352
G1 X142.241 Y119.932 E22.51975
G1 X141.855 Y120.258 E22.54597
G1 X141.422 Y120.519 E22.5722
G1 X140.953 Y120.709 E22.59846
G1 X140.461 Y120.822 E22.62465
G1 X139.993 Y120.857 E22.649
G1 X123.689 Y120.866 E23.49495
G1 X118.159 Y121.022 E23.78199
G1 X111.569 Y121.614 E24.12529
G1 X111.278 Y121.627 E24.14041
G1 X108.668 Y121.623 E24.27583
G1 X108.318 Y121.603 E24.29402
G1 X105.987 Y121.343 E24.41571
G1 X100.478 Y120.953 E24.70227
G1 X96.372 Y120.866 E24.91536
G1 X80.007 Y120.856 E25.76447
G1 X79.503 Y120.816 E25.7907
G1 X79.012 Y120.697 E25.81692
G1 X78.545 Y120.502 E25.84318
G1 X78.115 Y120.236 E25.86941
G1 X77.733 Y119.905 E25.89564
G1 X77.407 Y119.519 E25.92185
G1 X77.146 Y119.086 E25.94808
G1 X76.957 Y118.617 E25.97432
G1 X76.843 Y118.124 E26.00057
G1 X76.809 Y117.656 E26.02492
G1 X76.809 Y102.342 E26.8195
G1 X76.849 Y101.838 E26.84573
G1 X76.968 Y101.347 E26.87195
G1 X77.162 Y100.88 E26.89819
G1 X77.428 Y100.45 E26.92442
G1 X77.758 Y100.067 E26.95065
G1 X78.145 Y99.741 E26.97691
G1 F2700 E22.97691
G0 F3000 X108.906 Y101.668
G0 X108.907 Y101.764
;TYPE:SUPPORT
G1 F2700 E26.97691
G1 F1500 X111.092 Y101.764 E27.09028
G1 X111.092 Y101.932 E27.09899
G1 X108.907 Y101.933 E27.21236
G1 X108.907 Y101.764 E27.22113
G1 F2700 E23.22113
G0 F3000 X108.906 Y101.668
G0 X79.347 Y101.68
G0 X79.347 Y118.319
G0 X108.907 Y118.331
G0 X108.907 Y118.066
G1 F2700 E27.22113
G1 F1500 X111.093 Y118.066 E27.33455
G1 X111.093 Y118.236 E27.34338
G1 X108.907 Y118.236 E27.4568
G1 X108.907 Y118.066 E27.46562
G1 F2700 E23.46562
G0 F3000 X108.907 Y117.046
G0 X100.327 Y114.922
G0 X100.397 Y114.852
;TYPE:WALL-INNER
G1 F2700 E27.46562
G1 F1500 X100.597 Y114.852 E27.476
G1 X119.603 Y114.849 E28.46214
G1 X119.603 Y105.151 E28.96533
G1 X100.597 Y105.147 E29.95147
G1 X100.397 Y105.147 E29.96184
G1 X100.397 Y105.347 E29.96856
G1 X100.397 Y114.652 E30.45136
G1 X100.397 Y114.852 E30.45808
G0 F3000 X100.327 Y114.922
G0 X89.506 Y111.037
G0 X89.414 Y110.999
G1 F1500 X89.614 Y110 E30.51094
G1 X89.414 Y109 E30.56386
G1 X88.848 Y108.153 E30.61671
G1 X87.999 Y107.585 E30.66971
G1 X87 Y107.386 E30.72257
G1 X86 Y107.585 E30.77547
G1 X85.152 Y108.153 E30.82843
G1 X84.585 Y109 E30.88131
G1 X84.385 Y110 E30.93422
G1 X84.585 Y110.999 E30.98709
G1 X85.152 Y111.846 E31.03997
G1 X86 Y112.414 E31.09293
G1 X87 Y112.613 E31.14583
G1 X87.999 Y112.414 E31.19869
G1 X88.848 Y111.846 E31.25169
G1 X89.414 Y110.999 E31.30454
G0 F3000 X89.506 Y111.037
G0 X88.876 Y111.874
G0 X80.67 Y116.996
G0 X80.6 Y117.066
G1 F1500 X80.6 Y102.933 E32.03784
G1 X139.2 Y102.932 E35.07835
G1 X139.4 Y102.932 E35.08873
G1 X139.4 Y103.132 E35.09545
G1 X139.4 Y117.066 E35.81843
G1 X80.6 Y117.066 E38.86931
G0 F3000 X80.67 Y116.996
G0 X100.369 Y105.119
G0 X119.631 Y105.123
G0 X130.285 Y110
G0 X130.385 Y110
G1 F1500 X130.584 Y110.999 E38.92216
G1 X131.152 Y111.846 E38.97508
G1 X131.999 Y112.414 E39.02799
G1 X133 Y112.613 E39.08095
G1 X134 Y112.414 E39.13385
G1 X134.847 Y111.846 E39.18676
G1 X135.415 Y110.999 E39.23968
G1 X135.614 Y110 E39.29253
G1 X135.415 Y109 E39.34543
G1 X134.847 Y108.153 E39.39835
G1 X134 Y107.585 E39.45126
G1 X133 Y107.386 E39.50417
G1 X131.999 Y107.585 E39.55712
G1 X131.152 Y108.153 E39.61003
G1 X130.584 Y109 E39.66295
G1 X130.385 Y110 E39.71585
G0 F3000 X130.793 Y110
;TYPE:WALL-OUTER
G1 F1500 X130.961 Y110.843 E39.76045
G1 X131.44 Y111.558 E39.8051
G1 X132.155 Y112.037 E39.84976
G1 X133 Y112.205 E39.89446
G1 X133.844 Y112.037 E39.93911
G1 X134.559 Y111.558 E39.98377
G1 X135.038 Y110.843 E40.02842
G1 X135.206 Y110 E40.07302
G1 X135.038 Y109.156 E40.11767
G1 X134.559 Y108.441 E40.16232
G1 X133.844 Y107.962 E40.20698
G1 X133 Y107.794 E40.25163
G1 X132.155 Y107.962 E40.29633
G1 X131.44 Y108.441 E40.34098
G1 X130.961 Y109.156 E40.38564
G1 X130.793 Y110 E40.43029
G0 F3000 X130.832 Y110.196
G0 X130.341 Y110.292
G0 X130.345 Y110
G0 X130.548 Y108.985
G0 X131.124 Y108.125
G0 X139.33 Y103.002
G0 X139.6 Y102.532
G1 F1500 X139.8 Y102.532 E40.44067
G1 X139.8 Y102.732 E40.44738
G1 X139.8 Y117.466 E41.21187
G1 X80.2 Y117.466 E44.30426
G1 X80.2 Y102.533 E45.07908
G1 X139.6 Y102.532 E48.16109
G0 F3000 X139.8 Y102.532
G0 X139.33 Y103.002
G0 X119.703 Y105.551
G0 X119.203 Y105.551
G1 F1500 X100.997 Y105.547 E49.10573
G1 X100.797 Y105.547 E49.1161
G1 X100.797 Y105.747 E49.12282
G1 X100.797 Y114.252 E49.56411
G1 X100.797 Y114.452 E49.57449
G1 X100.997 Y114.452 E49.58121
G1 X119.203 Y114.449 E50.52584
G1 X119.203 Y105.551 E50.98752
G0 F3000 X119.003 Y105.551
G0 X119.004 Y105.051
G0 X100.369 Y105.119
G0 X89.696 Y110.097
G0 X89.206 Y110
G1 F1500 X89.037 Y109.156 E51.03218
G1 X88.56 Y108.441 E51.07678
G1 X87.843 Y107.962 E51.12152
G1 X87 Y107.794 E51.16612
G1 X86.156 Y107.962 E51.21077
G1 X85.44 Y108.441 E51.25547
G1 X84.962 Y109.156 E51.30009
G1 X84.793 Y110 E51.34475
G1 X84.962 Y110.843 E51.38936
G1 X85.44 Y111.558 E51.43399
G1 X86.156 Y112.037 E51.47868
G1 X87 Y112.205 E51.52333
G1 X87.843 Y112.037 E51.56793
G1 X88.56 Y111.558 E51.61267
G1 X89.037 Y110.843 E51.65727
G1 X89.206 Y110 E51.70188
G0 F3000 X89.167 Y109.804
G0 X89.695 Y109.494
;TYPE:SKIN
G1 F1500 X97.085 Y116.884 E52.24414
G0 X97.155 Y116.954
G0 F3000 X96.52 Y116.884
G1 F1500 X89.769 Y110.134 E52.73948
G0 X89.699 Y110.064
G0 F3000 X89.675 Y110.605
G1 F1500 X95.954 Y116.884 E53.20021
G0 X96.024 Y116.954
G0 F3000 X95.388 Y116.884
G1 F1500 X89.578 Y111.074 E53.62654
G0 X89.508 Y111.004
G0 F3000 X89.351 Y111.413
G1 F1500 X94.823 Y116.884 E54.02802
G0 X94.893 Y116.954
G0 F3000 X94.257 Y116.884
G1 F1500 X89.125 Y111.752 E54.4046
G0 X89.055 Y111.682
G0 F3000 X88.859 Y112.053
G1 F1500 X93.691 Y116.884 E54.75912
G0 X93.761 Y116.954
G0 F3000 X93.125 Y116.884
G1 F1500 X88.521 Y112.28 E55.09695
G0 X88.451 Y112.21
G0 F3000 X88.182 Y112.507
G1 F1500 X92.56 Y116.884 E55.41816
G0 X92.63 Y116.954
G0 F3000 X91.994 Y116.884
G1 F1500 X87.755 Y112.645 E55.72921
G0 X87.685 Y112.575
G0 F3000 X87.283 Y112.739
G1 F1500 X91.428 Y116.884 E56.03336
G0 X91.498 Y116.954
G0 F3000 X90.863 Y116.884
G1 F1500 X86.718 Y112.739 E56.33751
G0 X86.648 Y112.669
G0 F3000 X86.011 Y112.598
G1 F1500 X90.297 Y116.884 E56.65201
G0 X90.367 Y116.954
G0 F3000 X89.731 Y116.884
G1 F1500 X80.779 Y107.932 E57.30888
G0 X80.709 Y107.862
G0 F3000 X80.779 Y107.367
G1 F1500 X84.4 Y110.987 E57.57455
G0 X84.47 Y111.057
G0 F3000 X84.258 Y110.28
G1 F1500 X80.779 Y106.801 E57.82983
G0 X80.709 Y106.731
G0 F3000 X80.779 Y106.235
G1 F1500 X84.259 Y109.715 E58.08518
G0 X84.329 Y109.785
G0 F3000 X84.353 Y109.243
G1 F1500 X80.779 Y105.67 E58.3474
G0 X80.709 Y105.6
G0 F3000 X80.779 Y105.104
G1 F1500 X84.492 Y108.816 E58.61981
G0 X84.562 Y108.886
G0 F3000 X84.719 Y108.477
G1 F1500 X80.779 Y104.538 E58.90888
G0 X80.709 Y104.468
G0 F3000 X80.779 Y103.972
G1 F1500 X84.945 Y108.138 E59.21457
G0 X85.015 Y108.208
G0 F3000 X85.245 Y107.873
G1 F1500 X80.779 Y103.407 E59.54228
G0 X80.709 Y103.337
G0 F3000 X81.049 Y103.111
G1 F1500 X85.584 Y107.646 E59.87505
G0 X85.654 Y107.716
G0 F3000 X85.923 Y107.419
G1 F1500 X81.615 Y103.111 E60.19116
G0 X81.545 Y103.041
G0 F3000 X82.181 Y103.111
G1 F1500 X86.392 Y107.322 E60.50015
G0 X86.462 Y107.392
G0 F3000 X86.864 Y107.229
G1 F1500 X82.747 Y103.111 E60.80228
G0 X82.677 Y103.041
G0 F3000 X83.312 Y103.111
G1 F1500 X87.503 Y107.302 E61.10981
G0 X87.573 Y107.372
G0 F3000 X88.41 Y107.644
G1 F1500 X83.878 Y103.111 E61.44239
G0 X83.808 Y103.041
G0 F3000 X84.444 Y103.111
G1 F1500 X98.217 Y116.884 E62.45302
G0 X98.287 Y116.954
G0 F3000 X98.782 Y116.884
G1 F1500 X85.009 Y103.111 E63.46365
G0 X84.939 Y103.041
G0 F3000 X85.575 Y103.111
G1 F1500 X99.348 Y116.884 E64.47428
G0 X99.418 Y116.954
G0 F3000 X99.914 Y116.884
G1 F1500 X86.141 Y103.111 E65.48491
G0 X86.071 Y103.041
G0 F3000 X86.706 Y103.111
G1 F1500 X100.479 Y116.884 E66.49554
G0 X100.549 Y116.954
G0 F3000 X101.045 Y116.884
G1 F1500 X87.272 Y103.111 E67.50617
G0 X87.202 Y103.041
G0 F3000 X87.838 Y103.111
G1 F1500 X101.611 Y116.884 E68.5168
G0 X101.681 Y116.954
G0 F3000 X102.176 Y116.884
G1 F1500 X100.323 Y115.031 E68.65277
G0 X100.253 Y114.961
G0 F3000 X100.217 Y114.925
G1 F1500 X88.403 Y103.111 E69.51965
G0 X88.333 Y103.041
G0 F3000 X88.969 Y103.111
G1 F1500 X100.217 Y114.359 E70.34501
G0 X100.287 Y114.429
G0 F3000 X100.217 Y113.793
G1 F1500 X89.535 Y103.111 E71.12882
G0 X89.465 Y103.041
G0 F3000 X90.1 Y103.111
G1 F1500 X100.217 Y113.228 E71.87119
G0 X100.287 Y113.298
G0 F3000 X100.217 Y112.662
G1 F1500 X90.666 Y103.111 E72.57202
G0 X90.596 Y103.041
G0 F3000 X91.232 Y103.111
G1 F1500 X100.217 Y112.096 E73.23131
G0 X100.287 Y112.166
G0 F3000 X100.217 Y111.531
G1 F1500 X91.798 Y103.111 E73.84912
G0 X91.728 Y103.041
G0 F3000 X92.363 Y103.111
G1 F1500 X100.217 Y110.965 E74.42542
G0 X100.287 Y111.035
G0 F3000 X100.217 Y110.399
G1 F1500 X92.929 Y103.111 E74.9602
G0 X92.859 Y103.041
G0 F3000 X93.495 Y103.111
G1 F1500 X100.217 Y109.834 E75.45348
G0 X100.287 Y109.904
G0 F3000 X100.217 Y109.268
G1 F1500 X94.06 Y103.111 E75.90527
G0 X93.99 Y103.041
G0 F3000 X94.626 Y103.111
G1 F1500 X100.217 Y108.702 E76.31552
G0 X100.287 Y108.772
G0 F3000 X100.217 Y108.137
G1 F1500 X95.192 Y103.111 E76.68428
G0 X95.122 Y103.041
G0 F3000 X95.757 Y103.111
G1 F1500 X100.217 Y107.571 E77.01155
G0 X100.287 Y107.641
G0 F3000 X100.217 Y107.005
G1 F1500 X96.323 Y103.111 E77.29728
G0 X96.253 Y103.041
G0 F3000 X96.889 Y103.111
G1 F1500 X100.217 Y106.44 E77.54152
G0 X100.287 Y106.51
G0 F3000 X100.217 Y105.874
G1 F1500 X97.454 Y103.111 E77.74426
G0 X97.384 Y103.041
G0 F3000 X98.02 Y103.111
G1 F1500 X100.217 Y105.308 E77.90547
G0 X100.287 Y105.378
G0 F3000 X100.44 Y104.965
G1 F1500 X98.586 Y103.111 E78.04151
G0 X98.516 Y103.041
G0 F3000 X99.151 Y103.111
G1 F1500 X101.005 Y104.965 E78.17755
G0 X101.075 Y105.035
G0 F3000 X101.571 Y104.965
G1 F1500 X99.717 Y103.111 E78.31359
G0 X99.647 Y103.041
G0 F3000 X100.283 Y103.111
G1 F1500 X102.137 Y104.965 E78.44964
G0 X102.207 Y105.035
G0 F3000 X102.703 Y104.966
G1 F1500 X100.848 Y103.111 E78.58575
G0 X100.778 Y103.041
G0 F3000 X101.414 Y103.111
G1 F1500 X103.269 Y104.966 E78.72187
G0 X103.339 Y105.036
G0 F3000 X103.835 Y104.966
G1 F1500 X101.98 Y103.111 E78.85798
G0 X101.91 Y103.041
G0 F3000 X102.546 Y103.111
G1 F1500 X104.4 Y104.966 E78.99406
G0 X104.47 Y105.036
G0 F3000 X104.966 Y104.966
G1 F1500 X103.111 Y103.111 E79.13018
G0 X103.041 Y103.041
G0 F3000 X103.677 Y103.111
G1 F1500 X105.532 Y104.967 E79.26633
G0 X105.602 Y105.037
G0 F3000 X106.098 Y104.967
G1 F1500 X104.243 Y103.111 E79.40248
G0 X104.173 Y103.041
G0 F3000 X104.808 Y103.111
G1 F1500 X106.664 Y104.967 E79.53867
G0 X106.734 Y105.037
G0 F3000 X107.229 Y104.967
G1 F1500 X105.374 Y103.111 E79.67482
G0 X105.304 Y103.041
