;FLAVOR:RepRap
;TIME:2395
;Filament used: 1.40749m
;Layer height: 0.2
;Generated with Cura_SteamEngine 2.4.0
M190 S60
M104 S195
M109 S195
G21 ;metric values
G90 ;absolute positioning
M82 ;set extruder to absolute mode
M107 ;start with the fan off
G28 X0 Y0 ;move X/Y to min endstops
G28 Z0 ;move Z to min endstops
G1 Z15.0 F9000 ;move the platform down 15mm
G92 E0 ;zero the extruded length
G1 F200 E3 ;extrude 3mm of feed stock
G92 E0 ;zero the extruded length again
G1 F9000;Put printing message on LCD screen
M117 Printing...
;LAYER_COUNT:21
;LAYER:0
M107
G1 F2700 E-4
G0 F3000 X92.177 Y91.786 Z0.3
;TYPE:SKIRT
G1 F2700 E0
G1 F1200 X93.5 Y90.581 E0.08928
G1 X93.815 Y90.322 E0.10962
G1 X95.957 Y88.738 E0.24254
G1 X96.384 Y88.462 E0.2679
G1 X98.775 Y87.126 E0.40455
G1 X99.192 Y86.924 E0.42766
G1 X101.302 Y86.048 E0.54164
G1 X101.738 Y85.896 E0.56468
G1 X104.291 Y85.167 E0.69714
G1 X104.697 Y85.073 E0.71793
G1 X106.479 Y84.76 E0.8082
G1 X106.895 Y84.71 E0.8291
G1 X109.602 Y84.523 E0.96448
G1 X110.103 Y84.519 E0.98947
G1 X112.768 Y84.669 E1.12264
G1 X113.271 Y84.73 E1.14792
G1 X115.963 Y85.228 E1.2845
G1 X116.405 Y85.336 E1.3072
G1 X118.501 Y85.977 E1.41655
G1 X118.935 Y86.138 E1.43965
G1 X121.464 Y87.245 E1.57738
G1 X121.912 Y87.476 E1.60252
G1 X124.202 Y88.845 E1.73563
G1 X124.615 Y89.128 E1.76061
G1 X126.747 Y90.796 E1.89566
G1 X127.064 Y91.072 E1.91663
G1 X128.343 Y92.31 E2.00543
G1 X128.601 Y92.584 E2.02421
G1 X130.096 Y94.332 E2.13896
G1 X130.376 Y94.701 E2.16207
G1 X131.865 Y96.917 E2.29527
G1 X132.133 Y97.379 E2.32192
G1 X133.493 Y100.138 E2.47538
G1 X133.685 Y100.599 E2.50029
G1 X134.433 Y102.761 E2.61443
G1 X134.541 Y103.128 E2.63351
G1 X134.965 Y104.88 E2.72345
G1 X135.042 Y105.29 E2.74426
G1 X135.4 Y107.965 E2.8789
G1 X135.435 Y108.468 E2.90406
G1 X135.454 Y111.178 E3.03927
G1 X135.426 Y111.678 E3.06425
G1 X135.112 Y114.322 E3.19709
G1 X135.032 Y114.773 E3.21994
G1 X134.509 Y116.978 E3.333
G1 X134.375 Y117.424 E3.35623
G1 X133.439 Y119.994 E3.49269
G1 X133.236 Y120.459 E3.518
G1 X132.002 Y122.851 E3.65228
G1 X131.816 Y123.173 E3.67084
G1 X131.091 Y124.306 E3.73794
G1 X130.923 Y124.549 E3.75268
G1 X129.85 Y125.981 E3.84196
G1 X129.583 Y126.301 E3.86275
G1 X127.743 Y128.287 E3.99782
G1 X127.406 Y128.611 E4.02114
G1 X125.646 Y130.113 E4.13658
G1 X125.279 Y130.391 E4.15955
G1 X123.082 Y131.866 E4.29157
G1 X122.621 Y132.133 E4.31814
G1 X119.862 Y133.493 E4.47161
G1 X119.401 Y133.685 E4.49652
G1 X117.239 Y134.433 E4.61066
G1 X116.872 Y134.541 E4.62974
G1 X115.12 Y134.965 E4.71967
G1 X114.709 Y135.042 E4.74053
G1 X112.033 Y135.4 E4.87523
G1 X111.526 Y135.435 E4.90058
G1 X108.797 Y135.451 E5.03674
G1 X108.335 Y135.427 E5.05982
G1 X106.051 Y135.175 E5.17446
G1 X105.675 Y135.115 E5.19345
G1 X103.95 Y134.756 E5.28136
G1 X103.553 Y134.652 E5.30183
G1 X101.024 Y133.848 E5.43423
G1 X100.56 Y133.668 E5.45906
G1 X98.122 Y132.543 E5.59302
G1 X97.68 Y132.304 E5.61809
G1 X95.395 Y130.878 E5.75246
G1 X94.987 Y130.587 E5.77746
G1 X92.87 Y128.863 E5.91367
G1 X92.498 Y128.518 E5.93899
G1 X90.639 Y126.564 E6.07354
G1 X90.341 Y126.213 E6.09651
G1 X88.976 Y124.4 E6.20973
G1 X88.72 Y124.015 E6.2328
G1 X87.367 Y121.704 E6.3664
G1 X87.179 Y121.341 E6.3868
G1 X86.455 Y119.751 E6.47396
G1 X86.315 Y119.401 E6.49277
G1 X85.567 Y117.239 E6.6069
G1 X85.459 Y116.872 E6.62599
G1 X85.035 Y115.12 E6.71592
G1 X84.958 Y114.709 E6.73678
G1 X84.6 Y112.033 E6.87148
G1 X84.565 Y111.531 E6.89658
G1 X84.546 Y108.822 E7.03174
G1 X84.574 Y108.322 E7.05672
G1 X84.888 Y105.678 E7.18956
G1 X84.968 Y105.227 E7.21241
G1 X85.491 Y103.022 E7.32547
G1 X85.625 Y102.576 E7.3487
G1 X86.561 Y100.006 E7.48516
G1 X86.764 Y99.541 E7.51047
G1 X87.998 Y97.149 E7.64476
G1 X88.254 Y96.721 E7.66964
G1 X89.78 Y94.496 E7.80424
G1 X90.089 Y94.101 E7.82926
G1 X91.88 Y92.086 E7.96376
G1 X92.177 Y91.786 E7.98482
G0 F3000 X92.446 Y92.081
G1 F1200 X93.769 Y90.876 E8.0741
G1 X94.053 Y90.643 E8.09243
G1 X96.195 Y89.059 E8.22534
G1 X96.579 Y88.811 E8.24814
G1 X98.97 Y87.475 E8.38479
G1 X99.346 Y87.293 E8.40563
G1 X101.456 Y86.417 E8.51961
G1 X101.848 Y86.28 E8.54033
G1 X104.401 Y85.551 E8.67279
G1 X104.766 Y85.467 E8.69147
G1 X106.548 Y85.154 E8.78174
G1 X106.923 Y85.109 E8.80058
G1 X109.63 Y84.922 E8.93596
G1 X110.08 Y84.919 E8.95841
G1 X112.745 Y85.069 E9.09158
G1 X113.198 Y85.123 E9.11434
G1 X115.89 Y85.621 E9.25092
G1 X116.288 Y85.718 E9.27136
G1 X118.384 Y86.359 E9.38071
G1 X118.775 Y86.504 E9.40151
G1 X121.304 Y87.611 E9.53924
G1 X121.707 Y87.819 E9.56187
G1 X123.997 Y89.188 E9.69498
G1 X124.368 Y89.443 E9.71744
G1 X126.5 Y91.111 E9.85249
G1 X126.786 Y91.359 E9.87137
G1 X128.065 Y92.597 E9.96018
G1 X128.297 Y92.844 E9.97709
G1 X129.792 Y94.592 E10.09184
G1 X130.044 Y94.924 E10.11263
G1 X131.533 Y97.14 E10.24583
G1 X131.774 Y97.556 E10.26982
G1 X133.134 Y100.315 E10.42328
G1 X133.307 Y100.73 E10.44571
G1 X134.055 Y102.892 E10.55984
G1 X134.152 Y103.222 E10.577
G1 X134.576 Y104.974 E10.66694
G1 X134.645 Y105.343 E10.68566
G1 X135.003 Y108.018 E10.82031
G1 X135.035 Y108.471 E10.84297
G1 X135.054 Y111.181 E10.97817
G1 X135.029 Y111.631 E11.00066
G1 X134.715 Y114.275 E11.13349
G1 X134.643 Y114.681 E11.15407
G1 X134.12 Y116.886 E11.26713
G1 X134 Y117.287 E11.28801
G1 X133.064 Y119.857 E11.42446
G1 X132.88 Y120.276 E11.4473
G1 X131.646 Y122.668 E11.58158
G1 X131.479 Y122.957 E11.59823
G1 X130.754 Y124.09 E11.66534
G1 X130.603 Y124.309 E11.67861
G1 X129.53 Y125.741 E11.76788
G1 X129.29 Y126.029 E11.78659
G1 X127.45 Y128.015 E11.92166
G1 X127.146 Y128.306 E11.94265
G1 X125.386 Y129.808 E12.05809
G1 X125.056 Y130.059 E12.07877
G1 X122.859 Y131.534 E12.21079
G1 X122.444 Y131.774 E12.23471
G1 X119.685 Y133.134 E12.38817
G1 X119.27 Y133.307 E12.4106
G1 X117.108 Y134.055 E12.52474
G1 X116.778 Y134.152 E12.5419
G1 X115.026 Y134.576 E12.63183
G1 X114.656 Y134.645 E12.65061
G1 X111.98 Y135.003 E12.7853
G1 X111.524 Y135.035 E12.80811
G1 X108.795 Y135.051 E12.94426
G1 X108.379 Y135.029 E12.96504
G1 X106.095 Y134.777 E13.07968
G1 X105.756 Y134.723 E13.09681
G1 X104.031 Y134.364 E13.18472
G1 X103.674 Y134.271 E13.20312
G1 X101.145 Y133.467 E13.33552
G1 X100.728 Y133.305 E13.35783
G1 X98.29 Y132.18 E13.49179
G1 X97.892 Y131.965 E13.51436
G1 X95.607 Y130.539 E13.64874
G1 X95.24 Y130.276 E13.67126
G1 X93.123 Y128.552 E13.80747
G1 X92.788 Y128.242 E13.83024
G1 X90.929 Y126.288 E13.9648
G1 X90.661 Y125.972 E13.98547
G1 X89.296 Y124.159 E14.09869
G1 X89.065 Y123.813 E14.11945
G1 X87.712 Y121.502 E14.25305
G1 X87.543 Y121.175 E14.27141
G1 X86.819 Y119.585 E14.35858
G1 X86.693 Y119.27 E14.3755
G1 X85.945 Y117.108 E14.48964
G1 X85.848 Y116.778 E14.5068
G1 X85.424 Y115.026 E14.59673
G1 X85.355 Y114.656 E14.61551
G1 X84.997 Y111.98 E14.7502
G1 X84.965 Y111.528 E14.77281
G1 X84.946 Y108.819 E14.90796
G1 X84.971 Y108.369 E14.93045
G1 X85.285 Y105.725 E15.06329
G1 X85.357 Y105.319 E15.08386
G1 X85.88 Y103.114 E15.19692
G1 X86 Y102.713 E15.2178
G1 X86.936 Y100.143 E15.35426
G1 X87.12 Y99.724 E15.37709
G1 X88.354 Y97.332 E15.51137
G1 X88.584 Y96.947 E15.53374
G1 X90.11 Y94.722 E15.66835
G1 X90.388 Y94.366 E15.69088
G1 X92.179 Y92.351 E15.82538
G1 X92.446 Y92.081 E15.84433
G0 F3000 X92.715 Y92.377
G1 F1200 X94.038 Y91.172 E15.93361
G1 X94.29 Y90.965 E15.94988
G1 X96.432 Y89.381 E16.08279
G1 X96.774 Y89.161 E16.10307
G1 X99.165 Y87.825 E16.23972
G1 X99.499 Y87.663 E16.25824
G1 X101.609 Y86.787 E16.37222
G1 X101.957 Y86.665 E16.39062
G1 X104.51 Y85.936 E16.52308
G1 X104.835 Y85.861 E16.53972
G1 X106.617 Y85.548 E16.62999
G1 X106.95 Y85.508 E16.64672
G1 X109.657 Y85.321 E16.78209
G1 X110.058 Y85.318 E16.8021
G1 X112.723 Y85.468 E16.93527
G1 X113.125 Y85.516 E16.95547
G1 X115.817 Y86.014 E17.09205
G1 X116.171 Y86.101 E17.11024
G1 X118.267 Y86.742 E17.21959
G1 X118.614 Y86.871 E17.23806
G1 X121.143 Y87.978 E17.37579
G1 X121.502 Y88.162 E17.39591
G1 X123.792 Y89.531 E17.52902
G1 X124.122 Y89.758 E17.549
G1 X126.254 Y91.426 E17.68405
G1 X126.508 Y91.647 E17.70085
G1 X127.787 Y92.885 E17.78966
G1 X127.993 Y93.104 E17.80466
G1 X129.488 Y94.852 E17.91941
G1 X129.712 Y95.147 E17.93789
G1 X131.201 Y97.363 E18.07109
G1 X131.415 Y97.733 E18.09241
G1 X132.775 Y100.492 E18.24587
G1 X132.929 Y100.861 E18.26582
G1 X133.677 Y103.023 E18.37996
G1 X133.763 Y103.316 E18.39519
G1 X134.187 Y105.068 E18.48512
G1 X134.249 Y105.397 E18.50182
G1 X134.607 Y108.072 E18.63647
G1 X134.635 Y108.474 E18.65657
G1 X134.654 Y111.184 E18.79178
G1 X134.632 Y111.583 E18.81172
G1 X134.318 Y114.227 E18.94455
G1 X134.254 Y114.589 E18.96289
G1 X133.731 Y116.794 E19.07595
G1 X133.624 Y117.15 E19.0945
G1 X132.688 Y119.72 E19.23096
G1 X132.525 Y120.092 E19.25122
G1 X131.291 Y122.484 E19.3855
G1 X131.142 Y122.742 E19.40036
G1 X130.417 Y123.875 E19.46747
G1 X130.283 Y124.069 E19.47924
G1 X129.21 Y125.501 E19.56851
G1 X128.996 Y125.757 E19.58516
G1 X127.156 Y127.743 E19.72023
G1 X126.886 Y128.002 E19.73889
G1 X125.126 Y129.504 E19.85433
G1 X124.833 Y129.727 E19.8727
G1 X122.636 Y131.202 E20.00472
G1 X122.267 Y131.415 E20.02597
G1 X119.508 Y132.775 E20.17943
G1 X119.139 Y132.929 E20.19938
G1 X116.977 Y133.677 E20.31352
G1 X116.684 Y133.763 E20.32875
G1 X114.932 Y134.187 E20.41868
G1 X114.603 Y134.249 E20.43539
G1 X111.927 Y134.607 E20.57008
G1 X111.522 Y134.635 E20.59034
G1 X108.793 Y134.651 E20.72649
G1 X108.423 Y134.632 E20.74497
G1 X106.139 Y134.38 E20.85961
G1 X105.838 Y134.332 E20.87482
G1 X104.113 Y133.973 E20.96273
G1 X103.795 Y133.89 E20.97912
G1 X101.266 Y133.086 E21.11152
G1 X100.895 Y132.942 E21.13137
G1 X98.457 Y131.817 E21.26533
G1 X98.104 Y131.626 E21.28535
G1 X95.819 Y130.2 E21.41973
G1 X95.492 Y129.966 E21.43979
G1 X93.375 Y128.242 E21.576
G1 X93.078 Y127.967 E21.59619
G1 X91.219 Y126.013 E21.73075
G1 X90.981 Y125.732 E21.74912
G1 X89.616 Y123.919 E21.86234
G1 X89.41 Y123.611 E21.88083
G1 X88.057 Y121.3 E22.01443
G1 X87.907 Y121.009 E22.03076
G1 X87.183 Y119.419 E22.11793
G1 X87.071 Y119.139 E22.13297
G1 X86.323 Y116.977 E22.24711
G1 X86.237 Y116.684 E22.26234
G1 X85.813 Y114.932 E22.35227
G1 X85.751 Y114.603 E22.36898
G1 X85.393 Y111.927 E22.50367
G1 X85.365 Y111.525 E22.52378
G1 X85.346 Y108.816 E22.65893
G1 X85.368 Y108.417 E22.67887
G1 X85.682 Y105.773 E22.8117
G1 X85.746 Y105.411 E22.83004
G1 X86.269 Y103.206 E22.9431
G1 X86.376 Y102.85 E22.96165
G1 X87.312 Y100.28 E23.09811
G1 X87.475 Y99.908 E23.11837
G1 X88.709 Y97.516 E23.25265
G1 X88.914 Y97.173 E23.27259
G1 X90.44 Y94.948 E23.40719
G1 X90.687 Y94.632 E23.4272
G1 X92.478 Y92.617 E23.5617
G1 X92.715 Y92.377 E23.57853
G1 F2700 E19.57853
G0 F3000 X94.503 Y94.168
G0 X95.412 Y95.075
G0 X95.756 Y94.843
G0 X95.688 Y94.771
;TYPE:WALL-INNER
G1 F2700 E23.57853
G1 F1200 X96.679 Y93.897 E23.64445
G1 X97.718 Y93.091 E23.71006
G1 X98.619 Y92.479 E23.7644
G1 X98.679 Y92.438 E23.76802
G1 X98.8 Y92.355 E23.77534
G1 X98.821 Y92.343 E23.77655
G1 X98.893 Y92.301 E23.78071
G0 X98.87 Y92.377
G0 X98.86 Y92.408
G0 X98.849 Y92.687
G1 X98.864 Y92.758 E23.78395
G1 X98.907 Y92.957 E23.79411
G1 X99.03 Y93.205 E23.80792
G1 X99.212 Y93.415 E23.82179
G1 X99.336 Y93.501 E23.82931
G1 X99.423 Y93.561 E23.83459
G1 X99.581 Y93.632 E23.84323
G1 X99.724 Y93.666 E23.85056
G0 X99.642 Y93.721
G0 X99.566 Y93.772
G1 X99.479 Y93.831 E23.85501
G1 X98.661 Y94.382 E23.90422
G1 X97.703 Y95.126 E23.96473
G1 X96.793 Y95.927 E24.02522
G1 X95.935 Y96.784 E24.08572
G1 X95.134 Y97.693 E24.14616
G1 X94.39 Y98.651 E24.20668
G1 X93.821 Y99.487 E24.25713
G1 X93.782 Y99.545 E24.26062
G1 X93.708 Y99.654 E24.26719
G1 X93.667 Y99.724 E24.27124
G0 X93.657 Y99.663
G0 X93.651 Y99.632
G1 X93.538 Y99.378 E24.27308
G1 X93.495 Y99.323 E24.27619
G1 X93.366 Y99.159 E24.2866
G1 X93.145 Y98.994 E24.30036
G1 X92.909 Y98.894 E24.31315
G1 X92.774 Y98.865 E24.32004
G1 X92.736 Y98.857 E24.32198
G1 X92.478 Y98.851 E24.33485
G1 X92.373 Y98.875 E24.34023
G1 X92.3 Y98.893 E24.34398
G0 X92.355 Y98.8
G0 X92.369 Y98.779
G0 X92.448 Y98.662
G1 X92.469 Y98.63 E24.34578
G1 X93.092 Y97.716 E24.40097
G1 X93.893 Y96.684 E24.46614
G1 X94.771 Y95.688 E24.53238
G1 X95.688 Y94.771 E24.59708
G1 F2700 E20.59708
G0 F3000 X95.756 Y94.843
G0 X96.704 Y93.927
G0 X95.842 Y92.949
G0 X96.972 Y92.069
G0 X98.124 Y91.287
G0 X99.662 Y90.405
G0 X100.276 Y91.529
G0 X101.139 Y92.795
G0 X101.041 Y92.779
G1 F2700 E24.59708
G1 F1200 X101.052 Y92.5 E24.61101
G1 X101.048 Y92.478 E24.61213
G1 X100.994 Y92.23 E24.62479
G1 X100.871 Y91.982 E24.6386
G1 X100.69 Y91.772 E24.65243
G1 X100.615 Y91.72 E24.65699
G1 X100.461 Y91.613 E24.66634
G1 X100.237 Y91.531 E24.67824
G0 X100.381 Y91.458
G1 X100.548 Y91.373 E24.68532
G1 X101.093 Y91.094 E24.71587
G1 X102.319 Y90.563 E24.78253
G1 X103.534 Y90.127 E24.84693
G1 X104.811 Y89.755 E24.91329
G1 X106.074 Y89.473 E24.97785
G1 X107.387 Y89.265 E25.04417
G1 X108.603 Y89.15 E25.10511
G1 X108.679 Y89.143 E25.10892
G1 X108.938 Y89.135 E25.12184
G1 X108.938 Y89.212 E25.12519
G1 X108.938 Y91.197 E25.22422
G1 X109.023 Y91.197 E25.22846
G1 X108.897 Y95.1 E25.42328
G0 X111.138 Y95.1
G1 X111.012 Y91.197 E25.61811
G1 X111.118 Y91.197 E25.6234
G1 X111.118 Y89.245 E25.72078
G1 X111.118 Y89.137 E25.72617
G1 X111.321 Y89.143 E25.7363
G1 X111.428 Y89.153 E25.74068
G1 X112.613 Y89.265 E25.80007
G1 X113.926 Y89.473 E25.86639
G1 X115.189 Y89.755 E25.93095
G1 X116.466 Y90.127 E25.99731
G1 X117.681 Y90.563 E26.06171
G1 X118.907 Y91.094 E26.12837
G1 X119.487 Y91.39 E26.16085
G1 X119.554 Y91.424 E26.1646
G1 X119.695 Y91.496 E26.1725
G1 X119.769 Y91.534 E26.17665
G0 X119.662 Y91.559
G1 X119.419 Y91.687 E26.18494
G1 X119.363 Y91.737 E26.18828
G1 X119.213 Y91.872 E26.19834
G1 X119.061 Y92.102 E26.2121
G1 X118.968 Y92.363 E26.22592
G1 X118.955 Y92.52 E26.23378
G1 X118.946 Y92.64 E26.23979
G1 X118.992 Y92.913 E26.2536
G1 X119.003 Y92.938 E26.25496
G0 X118.985 Y92.929
G0 X118.838 Y92.854
G1 X118.732 Y92.8 E26.25989
G1 X118.223 Y92.54 E26.2884
G1 X117.111 Y92.058 E26.34887
G1 X115.967 Y91.646 E26.40953
G1 X115.605 Y91.545 E26.42828
G1 X115.315 Y91.568 E26.44279
G1 X115.041 Y91.696 E26.45788
G1 X114.852 Y91.902 E26.47183
G1 X114.778 Y92.054 E26.48026
G1 X113.824 Y95.1 E26.63951
G1 X111.138 Y95.1 E26.77351
G1 X108.897 Y95.1 E26.88532
G1 X106.176 Y95.1 E27.02107
G1 X105.196 Y91.976 E27.18442
G1 X105.015 Y91.744 E27.1991
G1 X104.777 Y91.601 E27.21295
G1 X104.575 Y91.549 E27.22335
G1 X104.34 Y91.557 E27.23509
G1 X104.042 Y91.643 E27.25056
G1 X102.901 Y92.054 E27.31106
G1 X101.789 Y92.535 E27.37151
G1 X101.238 Y92.815 E27.40235
G1 X101.218 Y92.825 E27.40342
G1 X101.097 Y92.887 E27.40659
G1 X100.991 Y92.941 E27.40985
G0 X101.041 Y92.779
G1 F2700 E23.40985
G0 F3000 X101.139 Y92.795
G0 X100.276 Y91.529
G0 X99.662 Y90.405
G0 X98.124 Y91.287
G0 X96.972 Y92.069
G0 X95.872 Y92.923
G0 X94.828 Y93.843
G0 X93.843 Y94.828
G0 X92.923 Y95.872
G0 X92.069 Y96.972
G0 X91.287 Y98.124
G0 X90.404 Y99.662
G0 X91.524 Y100.275
G0 X92.718 Y101.149
G0 X92.708 Y101.05
G1 F2700 E27.40985
G1 F1200 X92.939 Y100.995 E27.4217
G0 X92.869 Y101.132
G1 X92.79 Y101.287 E27.43038
G1 X92.54 Y101.777 E27.45782
G1 X92.058 Y102.89 E27.51833
G1 X91.647 Y104.03 E27.57879
G1 X91.308 Y105.194 E27.63928
G1 X91.043 Y106.377 E27.69976
G1 X90.853 Y107.576 E27.76032
G1 X90.74 Y108.765 E27.81991
G1 X90.739 Y108.782 E27.82076
G1 X90.729 Y109.112 E27.83723
G1 X90.724 Y109.27 E27.84512
G0 X90.548 Y109.107
G1 X90.533 Y109.099 E27.84597
G1 X90.31 Y108.975 E27.8587
G1 X90.041 Y108.904 E27.87258
G1 X89.76 Y108.904 E27.88659
G1 X89.518 Y108.968 E27.89908
G1 X89.491 Y108.975 E27.90047
G1 X89.253 Y109.107 E27.91405
G1 X89.125 Y109.225 E27.92274
G0 X89.128 Y109.104
G0 X89.133 Y108.964
G1 X89.133 Y108.936 E27.92413
G1 X89.143 Y108.669 E27.93746
G1 X89.265 Y107.388 E28.00166
G1 X89.473 Y106.074 E28.06804
G1 X89.752 Y104.822 E28.13203
G1 X90.129 Y103.525 E28.19942
G1 X90.561 Y102.324 E28.26309
G1 X91.094 Y101.093 E28.33002
G1 X91.381 Y100.53 E28.36154
G1 X91.438 Y100.417 E28.36786
G1 X91.518 Y100.26 E28.37665
G1 X91.53 Y100.236 E28.37799
G0 X91.536 Y100.269
G0 X91.649 Y100.524
G1 X91.728 Y100.623 E28.38321
G1 X91.82 Y100.739 E28.3906
G1 X92.04 Y100.908 E28.40444
G1 X92.281 Y101.008 E28.41746
G1 X92.451 Y101.043 E28.42612
G1 X92.534 Y101.046 E28.43026
