;FLAVOR:RepRap
;TIME:4814
;Filament used: 2.73036m
;Layer height: 0.2
;Generated with Cura_SteamEngine 2.4.0
M190 S60
M104 S195
M109 S195
G21 ;metric values
G90 ;absolute positioning
M82 ;set extruder to absolute mode
M107 ;start with the fan off
G28 X0 Y0 ;move X/Y to min endstops
G28 Z0 ;move Z to min endstops
G1 Z15.0 F9000 ;move the platform down 15mm
G92 E0 ;zero the extruded length
G1 F200 E3 ;extrude 3mm of feed stock
G92 E0 ;zero the extruded length again
G1 F9000;Put printing message on LCD screen
M117 Printing...
;LAYER_COUNT:21
;LAYER:0
M107
G1 F2700 E-4
G0 F3000 X92.241 Y91.728 Z0.3
;TYPE:SKIRT
G1 F2700 E0
G1 F1200 X92.575 Y91.407 E0.02311
G1 X94.31 Y89.921 E0.13708
G1 X94.68 Y89.64 E0.16026
G1 X96.916 Y88.136 E0.2947
G1 X97.379 Y87.867 E0.32142
G1 X100.138 Y86.507 E0.47488
G1 X100.599 Y86.315 E0.49979
G1 X102.761 Y85.567 E0.61393
G1 X103.128 Y85.459 E0.63301
G1 X104.88 Y85.035 E0.72294
G1 X105.288 Y84.959 E0.74365
G1 X107.938 Y84.603 E0.87705
G1 X108.438 Y84.567 E0.90206
G1 X111.136 Y84.545 E1.03666
G1 X111.636 Y84.572 E1.06165
G1 X114.317 Y84.887 E1.19632
G1 X114.773 Y84.968 E1.21943
G1 X116.978 Y85.491 E1.33249
G1 X117.424 Y85.625 E1.35572
G1 X119.99 Y86.56 E1.49197
G1 X120.454 Y86.763 E1.51724
G1 X122.85 Y87.998 E1.65172
G1 X123.279 Y88.254 E1.67665
G1 X125.504 Y89.78 E1.81125
G1 X125.93 Y90.117 E1.83835
G1 X128.249 Y92.222 E1.9946
G1 X128.601 Y92.584 E2.01979
G1 X130.096 Y94.332 E2.13455
G1 X130.376 Y94.701 E2.15766
G1 X131.865 Y96.917 E2.29085
G1 X132.133 Y97.379 E2.3175
G1 X133.493 Y100.138 E2.47096
G1 X133.685 Y100.599 E2.49587
G1 X134.433 Y102.761 E2.61001
G1 X134.541 Y103.128 E2.6291
G1 X134.965 Y104.88 E2.71903
G1 X135.042 Y105.29 E2.73984
G1 X135.4 Y107.965 E2.87449
G1 X135.435 Y108.468 E2.89964
G1 X135.454 Y111.178 E3.03485
G1 X135.426 Y111.678 E3.05983
G1 X135.112 Y114.318 E3.19247
G1 X135.068 Y114.601 E3.20676
G1 X134.518 Y117.463 E3.35216
G1 X133.722 Y122.855 E3.62408
G1 X133.234 Y128.266 E3.89513
G1 X133.053 Y133.697 E4.16624
G1 X133.179 Y139.129 E4.43731
G1 X133.611 Y144.531 E4.70768
G1 X134.353 Y149.945 E4.98031
G1 X135.17 Y154.402 E5.20638
G1 X135.22 Y154.764 E5.22461
G1 X135.464 Y157.462 E5.35976
G1 X135.477 Y157.965 E5.38486
G1 X135.381 Y160.655 E5.51915
G1 X135.332 Y161.155 E5.54422
G1 X134.9 Y163.809 E5.67837
G1 X134.812 Y164.217 E5.69919
G1 X134.335 Y165.969 E5.78978
G1 X134.204 Y166.364 E5.81054
G1 X133.248 Y168.829 E5.94245
G1 X133.039 Y169.283 E5.96738
G1 X131.74 Y171.69 E6.10384
G1 X131.471 Y172.12 E6.12915
G1 X129.899 Y174.313 E6.26376
G1 X129.582 Y174.702 E6.2888
G1 X127.737 Y176.693 E6.42422
G1 X127.373 Y177.039 E6.44927
G1 X125.312 Y178.767 E6.58346
G1 X124.906 Y179.066 E6.60861
G1 X122.635 Y180.527 E6.74333
G1 X122.308 Y180.716 E6.76218
G1 X121.111 Y181.335 E6.82941
G1 X120.808 Y181.476 E6.84608
G1 X118.699 Y182.352 E6.96002
G1 X118.263 Y182.504 E6.98305
G1 X115.71 Y183.233 E7.11551
G1 X115.304 Y183.327 E7.1363
G1 X113.521 Y183.64 E7.22662
G1 X113.108 Y183.69 E7.24737
G1 X110.438 Y183.877 E7.38091
G1 X109.985 Y183.883 E7.40351
G1 X107.826 Y183.789 E7.51132
G1 X107.37 Y183.743 E7.53419
G1 X104.604 Y183.302 E7.67393
G1 X104.183 Y183.212 E7.69541
G1 X102.431 Y182.735 E7.786
G1 X102.036 Y182.604 E7.80676
G1 X99.571 Y181.648 E7.93866
G1 X99.118 Y181.44 E7.96353
G1 X96.722 Y180.148 E8.09934
G1 X96.296 Y179.882 E8.1244
G1 X94.118 Y178.326 E8.25794
G1 X93.727 Y178.007 E8.28311
G1 X91.722 Y176.152 E8.41939
G1 X91.375 Y175.788 E8.44448
G1 X89.653 Y173.737 E8.57809
G1 X89.356 Y173.335 E8.60302
G1 X87.894 Y171.071 E8.73748
G1 X87.649 Y170.635 E8.76243
G1 X86.49 Y168.226 E8.8958
G1 X86.301 Y167.759 E8.92093
G1 X85.432 Y165.157 E9.0578
G1 X85.31 Y164.706 E9.08111
G1 X84.848 Y162.49 E9.19404
G1 X84.78 Y162.036 E9.21694
G1 X84.537 Y159.359 E9.35105
G1 X84.523 Y158.857 E9.3761
G1 X84.617 Y156.169 E9.51029
G1 X84.671 Y155.644 E9.53662
G1 X85.917 Y148.252 E9.91061
G1 X86.561 Y142.832 E10.18292
G1 X86.895 Y137.428 E10.45304
G1 X86.922 Y131.994 E10.72414
G1 X86.643 Y126.566 E10.99531
G1 X86.053 Y121.132 E11.268
G1 X85.652 Y118.479 E11.40187
G1 X84.83 Y113.997 E11.6292
G1 X84.78 Y113.636 E11.64738
G1 X84.537 Y110.957 E11.78159
G1 X84.523 Y110.456 E11.80659
G1 X84.618 Y107.748 E11.94178
G1 X84.668 Y107.245 E11.967
G1 X85.1 Y104.592 E12.1011
G1 X85.188 Y104.185 E12.12187
G1 X85.665 Y102.432 E12.21251
G1 X85.796 Y102.035 E12.23337
G1 X86.752 Y99.571 E12.36523
G1 X86.961 Y99.118 E12.39012
G1 X88.26 Y96.711 E12.52657
G1 X88.528 Y96.282 E12.55181
G1 X90.099 Y94.089 E12.6864
G1 X90.415 Y93.701 E12.71136
G1 X92.241 Y91.728 E12.84548
G0 F3000 X92.535 Y92
G1 F1200 X92.835 Y91.711 E12.86626
G1 X94.57 Y90.225 E12.98023
G1 X94.903 Y89.972 E13.0011
G1 X97.139 Y88.468 E13.13554
G1 X97.556 Y88.226 E13.15959
G1 X100.315 Y86.866 E13.31305
G1 X100.73 Y86.693 E13.33548
G1 X102.892 Y85.945 E13.44962
G1 X103.222 Y85.848 E13.46678
G1 X104.974 Y85.424 E13.55671
G1 X105.342 Y85.355 E13.57539
G1 X107.992 Y84.999 E13.70879
G1 X108.442 Y84.967 E13.7313
G1 X111.14 Y84.945 E13.8659
G1 X111.589 Y84.97 E13.88834
G1 X114.27 Y85.285 E14.02301
G1 X114.681 Y85.357 E14.04383
G1 X116.886 Y85.88 E14.15689
G1 X117.287 Y86.001 E14.17779
G1 X119.853 Y86.936 E14.31404
G1 X120.27 Y87.118 E14.33674
G1 X122.666 Y88.353 E14.47122
G1 X123.053 Y88.584 E14.49371
G1 X125.278 Y90.11 E14.62831
G1 X125.662 Y90.413 E14.65272
G1 X127.981 Y92.518 E14.80897
G1 X128.297 Y92.844 E14.83162
G1 X129.792 Y94.592 E14.94637
G1 X130.044 Y94.924 E14.96717
G1 X131.533 Y97.14 E15.10036
G1 X131.774 Y97.556 E15.12435
G1 X133.134 Y100.315 E15.27781
G1 X133.307 Y100.73 E15.30024
G1 X134.055 Y102.892 E15.41438
G1 X134.152 Y103.222 E15.43154
G1 X134.576 Y104.974 E15.52147
G1 X134.645 Y105.343 E15.5402
G1 X135.003 Y108.018 E15.67484
G1 X135.035 Y108.471 E15.6975
G1 X135.054 Y111.181 E15.8327
G1 X135.029 Y111.631 E15.85519
G1 X134.715 Y114.271 E15.98783
G1 X134.675 Y114.525 E16.00066
G1 X134.124 Y117.394 E16.14641
G1 X133.324 Y122.815 E16.41979
G1 X132.835 Y128.235 E16.69129
G1 X132.652 Y133.693 E16.96375
G1 X132.778 Y139.135 E17.23532
G1 X133.214 Y144.58 E17.50785
G1 X133.958 Y150.01 E17.78128
G1 X134.777 Y154.475 E18.00776
G1 X134.821 Y154.8 E18.02412
G1 X135.065 Y157.498 E18.15927
G1 X135.078 Y157.95 E18.18183
G1 X134.982 Y160.64 E18.31612
G1 X134.937 Y161.09 E18.33868
G1 X134.505 Y163.744 E18.47284
G1 X134.426 Y164.112 E18.49161
G1 X133.949 Y165.864 E18.5822
G1 X133.831 Y166.22 E18.60091
G1 X132.875 Y168.685 E18.73282
G1 X132.687 Y169.093 E18.75523
G1 X131.388 Y171.5 E18.89169
G1 X131.146 Y171.887 E18.91446
G1 X129.574 Y174.08 E19.04907
G1 X129.289 Y174.43 E19.07159
G1 X127.444 Y176.421 E19.20702
G1 X127.116 Y176.733 E19.2296
G1 X125.055 Y178.461 E19.36378
G1 X124.69 Y178.73 E19.3864
G1 X122.419 Y180.191 E19.52113
G1 X122.125 Y180.361 E19.53807
G1 X120.928 Y180.98 E19.6053
G1 X120.655 Y181.107 E19.62032
G1 X118.546 Y181.983 E19.73426
G1 X118.153 Y182.12 E19.75502
G1 X115.6 Y182.849 E19.88748
G1 X115.234 Y182.933 E19.90621
G1 X113.451 Y183.246 E19.99653
G1 X113.081 Y183.291 E20.01512
G1 X110.411 Y183.478 E20.14866
G1 X110.002 Y183.484 E20.16906
G1 X107.843 Y183.39 E20.27688
G1 X107.433 Y183.348 E20.29744
G1 X104.667 Y182.907 E20.43718
G1 X104.288 Y182.826 E20.45652
G1 X102.536 Y182.349 E20.54711
G1 X102.18 Y182.231 E20.56582
G1 X99.715 Y181.275 E20.69772
G1 X99.308 Y181.088 E20.72007
G1 X96.912 Y179.796 E20.85588
G1 X96.528 Y179.556 E20.87847
G1 X94.35 Y178 E21.01201
G1 X93.998 Y177.714 E21.03464
G1 X91.993 Y175.859 E21.17091
G1 X91.681 Y175.531 E21.1935
G1 X89.959 Y173.48 E21.3271
G1 X89.692 Y173.118 E21.34955
G1 X88.23 Y170.854 E21.484
G1 X88.01 Y170.462 E21.50643
G1 X86.851 Y168.053 E21.6398
G1 X86.68 Y167.632 E21.66247
G1 X85.811 Y165.03 E21.79933
G1 X85.702 Y164.625 E21.82026
G1 X85.24 Y162.409 E21.93319
G1 X85.179 Y161.999 E21.95387
G1 X84.936 Y159.322 E22.08798
G1 X84.923 Y158.871 E22.11049
G1 X85.017 Y156.183 E22.24467
G1 X85.065 Y155.711 E22.26834
G1 X86.313 Y148.306 E22.64299
G1 X86.96 Y142.869 E22.91616
G1 X87.295 Y137.436 E23.18772
G1 X87.323 Y131.975 E23.46018
G1 X87.042 Y126.539 E23.73174
G1 X86.452 Y121.099 E24.00474
G1 X86.046 Y118.413 E24.14026
G1 X85.223 Y113.925 E24.36791
G1 X85.179 Y113.6 E24.38427
G1 X84.936 Y110.921 E24.51847
G1 X84.923 Y110.47 E24.54098
G1 X85.018 Y107.762 E24.67617
G1 X85.063 Y107.309 E24.69888
G1 X85.495 Y104.656 E24.83298
G1 X85.574 Y104.29 E24.85166
G1 X86.051 Y102.537 E24.9423
G1 X86.169 Y102.18 E24.96106
G1 X87.125 Y99.716 E25.09292
G1 X87.313 Y99.308 E25.11533
G1 X88.612 Y96.901 E25.25178
G1 X88.853 Y96.515 E25.27449
G1 X90.424 Y94.322 E25.40907
G1 X90.709 Y93.973 E25.43155
G1 X92.535 Y92 E25.56567
G0 F3000 X92.828 Y92.271
G1 F1200 X93.095 Y92.015 E25.58413
G1 X94.83 Y90.529 E25.6981
G1 X95.126 Y90.304 E25.71665
G1 X97.362 Y88.8 E25.85109
G1 X97.733 Y88.585 E25.87248
G1 X100.492 Y87.225 E26.02594
G1 X100.861 Y87.071 E26.04589
G1 X103.023 Y86.323 E26.16003
G1 X103.316 Y86.237 E26.17526
G1 X105.068 Y85.813 E26.26519
G1 X105.395 Y85.751 E26.2818
G1 X108.045 Y85.395 E26.41519
G1 X108.445 Y85.367 E26.4352
G1 X111.143 Y85.345 E26.56981
G1 X111.542 Y85.367 E26.58974
G1 X114.223 Y85.682 E26.72442
G1 X114.589 Y85.746 E26.74296
G1 X116.794 Y86.269 E26.85602
G1 X117.151 Y86.376 E26.87461
G1 X119.717 Y87.311 E27.01086
G1 X120.087 Y87.474 E27.03103
G1 X122.483 Y88.709 E27.16551
G1 X122.827 Y88.914 E27.18549
G1 X125.052 Y90.44 E27.3201
G1 X125.393 Y90.71 E27.3418
G1 X127.712 Y92.815 E27.49805
G1 X127.993 Y93.104 E27.51816
G1 X129.488 Y94.852 E27.63291
G1 X129.712 Y95.147 E27.65139
G1 X131.201 Y97.363 E27.78459
G1 X131.415 Y97.733 E27.80591
G1 X132.775 Y100.492 E27.95937
G1 X132.929 Y100.861 E27.97932
G1 X133.677 Y103.023 E28.09346
G1 X133.763 Y103.316 E28.10869
G1 X134.187 Y105.068 E28.19862
G1 X134.249 Y105.397 E28.21533
G1 X134.607 Y108.072 E28.34997
G1 X134.635 Y108.474 E28.37008
G1 X134.654 Y111.184 E28.50528
G1 X134.632 Y111.584 E28.52527
G1 X134.318 Y114.224 E28.65791
G1 X134.283 Y114.45 E28.66932
G1 X133.729 Y117.334 E28.81583
G1 X132.926 Y122.772 E29.09008
G1 X132.435 Y128.22 E29.36298
G1 X132.252 Y133.689 E29.63598
G1 X132.379 Y139.159 E29.90895
G1 X132.817 Y144.633 E30.18293
G1 X133.559 Y150.046 E30.45551
G1 X134.384 Y154.547 E30.6838
G1 X134.423 Y154.836 E30.69835
G1 X134.667 Y157.534 E30.83351
G1 X134.678 Y157.936 E30.85357
G1 X134.582 Y160.626 E30.98786
G1 X134.542 Y161.026 E31.00791
G1 X134.11 Y163.68 E31.14207
G1 X134.04 Y164.007 E31.15875
G1 X133.563 Y165.759 E31.24934
G1 X133.458 Y166.075 E31.26595
G1 X132.502 Y168.54 E31.39786
G1 X132.335 Y168.903 E31.41779
G1 X131.036 Y171.31 E31.55425
G1 X130.821 Y171.654 E31.57449
G1 X129.249 Y173.847 E31.7091
G1 X128.995 Y174.158 E31.72913
G1 X127.15 Y176.149 E31.86456
G1 X126.859 Y176.426 E31.8846
G1 X124.798 Y178.154 E32.01878
G1 X124.473 Y178.393 E32.03891
G1 X122.202 Y179.854 E32.17363
G1 X121.941 Y180.005 E32.18868
G1 X120.744 Y180.624 E32.25591
G1 X120.501 Y180.737 E32.26928
G1 X118.392 Y181.613 E32.38321
G1 X118.044 Y181.735 E32.40161
G1 X115.491 Y182.464 E32.53407
G1 X115.165 Y182.539 E32.55076
G1 X113.382 Y182.852 E32.64107
G1 X113.053 Y182.892 E32.65761
G1 X110.383 Y183.079 E32.79114
G1 X110.02 Y183.084 E32.80925
G1 X107.861 Y182.99 E32.91707
G1 X107.496 Y182.953 E32.93537
G1 X104.73 Y182.512 E33.07511
G1 X104.393 Y182.44 E33.0923
G1 X102.641 Y181.963 E33.18289
G1 X102.325 Y181.858 E33.1995
G1 X99.86 Y180.902 E33.33141
G1 X99.498 Y180.736 E33.35128
G1 X97.102 Y179.444 E33.48709
G1 X96.761 Y179.231 E33.50714
G1 X94.583 Y177.675 E33.64069
G1 X94.27 Y177.42 E33.66083
G1 X92.265 Y175.565 E33.7971
G1 X91.987 Y175.274 E33.81718
G1 X90.265 Y173.223 E33.95079
G1 X90.028 Y172.901 E33.97074
G1 X88.566 Y170.637 E34.10519
G1 X88.37 Y170.288 E34.12516
G1 X87.211 Y167.879 E34.25853
G1 X87.06 Y167.506 E34.27861
G1 X86.191 Y164.904 E34.41547
G1 X86.093 Y164.543 E34.43413
G1 X85.631 Y162.327 E34.54707
G1 X85.577 Y161.963 E34.56543
G1 X85.334 Y159.286 E34.69953
G1 X85.323 Y158.885 E34.71955
G1 X85.417 Y156.197 E34.85373
G1 X85.46 Y155.777 E34.8748
G1 X86.707 Y148.377 E35.24919
G1 X87.358 Y142.905 E35.52411
G1 X87.694 Y137.446 E35.79698
G1 X87.723 Y131.975 E36.06993
G1 X87.44 Y126.492 E36.34384
G1 X86.849 Y121.043 E36.61729
G1 X86.44 Y118.341 E36.75363
G1 X85.617 Y113.852 E36.98132
G1 X85.577 Y113.564 E36.99582
G1 X85.334 Y110.885 E37.13003
G1 X85.323 Y110.484 E37.15004
G1 X85.418 Y107.776 E37.28523
G1 X85.458 Y107.374 E37.30538
G1 X85.89 Y104.721 E37.43949
G1 X85.96 Y104.395 E37.45612
G1 X86.437 Y102.642 E37.54676
G1 X86.542 Y102.325 E37.56342
G1 X87.498 Y99.861 E37.69528
G1 X87.665 Y99.498 E37.71521
G1 X88.964 Y97.091 E37.85167
G1 X89.179 Y96.747 E37.87191
G1 X90.75 Y94.554 E38.00649
G1 X91.002 Y94.244 E38.02642
G1 X92.828 Y92.271 E38.16054
G1 F2700 E34.16054
G0 F3000 X94.614 Y94.057
G0 X95.522 Y94.965
G0 X95.756 Y94.843
G0 X95.688 Y94.771
;TYPE:WALL-INNER
G1 F2700 E38.16054
G1 F1200 X96.679 Y93.897 E38.22647
G1 X97.718 Y93.091 E38.29207
G1 X98.619 Y92.479 E38.34641
G1 X98.679 Y92.438 E38.35004
G1 X98.8 Y92.355 E38.35736
G1 X98.821 Y92.343 E38.35856
G1 X98.893 Y92.301 E38.36272
G0 X98.87 Y92.377
G0 X98.86 Y92.408
G0 X98.849 Y92.687
G1 X98.864 Y92.758 E38.36597
G1 X98.907 Y92.957 E38.37613
G1 X99.03 Y93.205 E38.38994
G1 X99.212 Y93.415 E38.4038
G1 X99.336 Y93.501 E38.41133
G1 X99.423 Y93.561 E38.4166
G1 X99.581 Y93.632 E38.42524
G1 X99.724 Y93.666 E38.43258
G0 X99.642 Y93.721
G0 X99.566 Y93.772
G1 X99.479 Y93.831 E38.43703
G1 X98.661 Y94.382 E38.48623
G1 X97.703 Y95.126 E38.54675
G1 X96.793 Y95.927 E38.60723
G1 X95.935 Y96.784 E38.66773
G1 X95.134 Y97.693 E38.72818
G1 X94.39 Y98.651 E38.78869
G1 X93.821 Y99.487 E38.83915
G1 X93.782 Y99.545 E38.84263
G1 X93.708 Y99.654 E38.84921
G1 X93.667 Y99.724 E38.85325
G0 X93.657 Y99.663
G0 X93.651 Y99.632
G1 X93.538 Y99.378 E38.8551
G1 X93.495 Y99.323 E38.85821
G1 X93.366 Y99.159 E38.86862
G1 X93.145 Y98.994 E38.88238
G1 X92.909 Y98.894 E38.89517
G1 X92.774 Y98.865 E38.90205
G1 X92.736 Y98.857 E38.90399
G1 X92.478 Y98.851 E38.91687
G1 X92.373 Y98.875 E38.92224
G1 X92.3 Y98.893 E38.92599
G0 X92.355 Y98.8
G0 X92.369 Y98.779
G0 X92.448 Y98.662
G1 X92.469 Y98.63 E38.9278
G1 X93.092 Y97.716 E38.98298
G1 X93.893 Y96.684 E39.04816
G1 X94.771 Y95.688 E39.1144
G1 X95.688 Y94.771 E39.1791
G1 F2700 E35.1791
G0 F3000 X95.756 Y94.843
G0 X99.705 Y93.669
G0 X101.003 Y92.926
G0 X101.139 Y92.795
G0 X101.041 Y92.779
G1 F2700 E39.1791
G1 F1200 X101.052 Y92.5 E39.19303
G1 X101.048 Y92.478 E39.19414
G1 X100.994 Y92.23 E39.20681
G1 X100.871 Y91.982 E39.22062
G1 X100.69 Y91.772 E39.23445
G1 X100.615 Y91.72 E39.239
G1 X100.461 Y91.613 E39.24836
G1 X100.237 Y91.531 E39.26026
G0 X100.381 Y91.458
G1 X100.548 Y91.373 E39.26734
G1 X101.093 Y91.094 E39.29789
G1 X102.319 Y90.563 E39.36454
G1 X103.534 Y90.127 E39.42894
G1 X104.811 Y89.755 E39.4953
G1 X106.074 Y89.473 E39.55986
G1 X107.387 Y89.265 E39.62619
G1 X108.561 Y89.154 E39.68502
G1 X108.679 Y89.143 E39.69093
G1 X108.912 Y89.136 E39.70256
G0 X108.901 Y89.19
G1 X108.876 Y89.306 E39.70744
G1 X108.639 Y90.384 E39.76251
G1 X107.683 Y90.384 E39.8102
G1 X107.683 Y92.053 E39.89347
G1 X107.504 Y92.053 E39.9024
G1 X107.504 Y93.757 E39.98741
G1 X107.666 Y93.757 E39.99549
G1 X107.668 Y93.757 E39.99559
G1 X107.916 Y93.757 E40.00797
G1 X107.862 Y94 E40.01554
G1 X107.683 Y94.793 E40.0561
G1 X107.628 Y95.036 E40.06853
G1 X107.877 Y95.036 E40.0761
G1 X107.878 Y95.036 E40.07615
G1 X110.975 Y95.036 E40.23066
G1 X111.021 Y94.832 E40.24109
G1 X111.263 Y93.757 E40.29607
G1 X112.194 Y93.757 E40.34251
G1 X112.194 Y92.093 E40.42553
G1 X112.374 Y92.093 E40.43451
G1 X112.374 Y90.384 E40.51977
G1 X111.982 Y90.384 E40.53933
G0 X111.998 Y90.306
G1 X112.226 Y89.228 E40.5943
G1 X112.613 Y89.265 E40.6137
G1 X113.926 Y89.473 E40.68002
G1 X115.189 Y89.755 E40.74458
G1 X116.466 Y90.127 E40.81094
G1 X117.681 Y90.563 E40.87534
G1 X118.907 Y91.094 E40.942
G1 X119.487 Y91.39 E40.97448
G1 X119.554 Y91.424 E40.97823
G1 X119.695 Y91.496 E40.98613
G1 X119.769 Y91.534 E40.99028
G0 X119.662 Y91.559
G1 X119.419 Y91.687 E40.99857
G1 X119.363 Y91.737 E41.00191
G1 X119.213 Y91.872 E41.01198
G1 X119.061 Y92.102 E41.02573
