;FLAVOR:RepRap
;TIME:7264
;Filament used: 3.98676m
;Layer height: 0.2
;Generated with Cura_SteamEngine 2.4.0
M190 S60
M104 S195
M109 S195
G21 ;metric values
G90 ;absolute positioning
M82 ;set extruder to absolute mode
M107 ;start with the fan off
G28 X0 Y0 ;move X/Y to min endstops
G28 Z0 ;move Z to min endstops
G1 Z15.0 F9000 ;move the platform down 15mm
G92 E0 ;zero the extruded length
G1 F200 E3 ;extrude 3mm of feed stock
G92 E0 ;zero the extruded length again
G1 F9000;Put printing message on LCD screen
M117 Printing...
;LAYER_COUNT:21
;LAYER:0
M107
G1 F2700 E-4
G0 F3000 X76.236 Y95.928 Z0.3
;TYPE:SKIRT
G1 F2700 E0
G1 F1200 X78.037 Y94.574 E0.11241
G1 X78.417 Y94.321 E0.13519
G1 X80.707 Y92.978 E0.26763
G1 X81.076 Y92.787 E0.28836
G1 X82.704 Y92.047 E0.37758
G1 X82.941 Y91.948 E0.3904
G1 X87.981 Y90.037 E0.65931
G1 X92.986 Y87.843 E0.93195
G1 X97.818 Y85.391 E1.20228
G1 X102.516 Y82.663 E1.47332
G1 X107.046 Y79.678 E1.74397
G1 X111.411 Y76.432 E2.01536
G1 X115.589 Y72.944 E2.28689
G1 X119.15 Y69.71 E2.52688
G1 X119.429 Y69.478 E2.54498
G1 X121.247 Y68.106 E2.65861
G1 X121.634 Y67.849 E2.68179
G1 X123.943 Y66.495 E2.81533
G1 X124.307 Y66.305 E2.83582
G1 X125.917 Y65.571 E2.92409
G1 X126.268 Y65.431 E2.94295
G1 X128.43 Y64.683 E3.05708
G1 X128.797 Y64.575 E3.07617
G1 X130.549 Y64.151 E3.1661
G1 X130.957 Y64.075 E3.1868
G1 X133.598 Y63.72 E3.31975
G1 X134.097 Y63.684 E3.34471
G1 X136.805 Y63.661 E3.47982
G1 X137.306 Y63.688 E3.50485
G1 X139.994 Y64.004 E3.63988
G1 X140.453 Y64.086 E3.66314
G1 X142.663 Y64.612 E3.77648
G1 X143.106 Y64.745 E3.79955
G1 X145.659 Y65.675 E3.93511
G1 X146.119 Y65.876 E3.96015
G1 X148.49 Y67.095 E4.09316
G1 X148.919 Y67.35 E4.11806
G1 X151.156 Y68.88 E4.25327
G1 X151.586 Y69.22 E4.28062
G1 X153.911 Y71.33 E4.43726
G1 X154.263 Y71.692 E4.46245
G1 X155.786 Y73.473 E4.57936
G1 X156.068 Y73.845 E4.60265
G1 X157.538 Y76.037 E4.73433
G1 X157.804 Y76.497 E4.76084
G1 X159.163 Y79.255 E4.91423
G1 X159.355 Y79.715 E4.9391
G1 X160.103 Y81.877 E5.05324
G1 X160.211 Y82.244 E5.07232
G1 X160.635 Y83.996 E5.16225
G1 X160.712 Y84.406 E5.18306
G1 X161.07 Y87.081 E5.31771
G1 X161.105 Y87.584 E5.34287
G1 X161.124 Y90.287 E5.47772
G1 X161.095 Y90.793 E5.50301
G1 X160.763 Y93.55 E5.64155
G1 X160.732 Y93.764 E5.65234
G1 X159.812 Y99.002 E5.91766
G1 X159.174 Y104.39 E6.18835
G1 X158.842 Y109.797 E6.45861
G1 X158.816 Y115.23 E6.72967
G1 X159.096 Y120.654 E7.00063
G1 X159.687 Y126.084 E7.27314
G1 X160.092 Y128.751 E7.40772
G1 X161.082 Y134.176 E7.68285
G1 X161.137 Y134.611 E7.70472
G1 X161.324 Y137.251 E7.83676
G1 X161.328 Y137.756 E7.86196
G1 X161.175 Y140.507 E7.99942
G1 X161.122 Y140.968 E8.02257
G1 X160.74 Y143.173 E8.13421
G1 X160.659 Y143.541 E8.15301
G1 X160.182 Y145.293 E8.2436
G1 X160.052 Y145.688 E8.26435
G1 X159.096 Y148.154 E8.3963
G1 X158.886 Y148.607 E8.42121
G1 X157.595 Y151 E8.55686
G1 X157.328 Y151.429 E8.58207
G1 X155.749 Y153.635 E8.71742
G1 X155.432 Y154.024 E8.74245
G1 X153.61 Y155.993 E8.87629
G1 X153.247 Y156.339 E8.90131
G1 X151.185 Y158.071 E9.03566
G1 X150.782 Y158.368 E9.06064
G1 X148.518 Y159.83 E9.19509
G1 X148.189 Y160.021 E9.21407
G1 X146.962 Y160.657 E9.28302
G1 X146.657 Y160.799 E9.2998
G1 X144.577 Y161.664 E9.41219
G1 X144.144 Y161.816 E9.43509
G1 X141.583 Y162.551 E9.56801
G1 X141.174 Y162.645 E9.58895
G1 X139.37 Y162.963 E9.68034
G1 X138.949 Y163.015 E9.7015
G1 X136.219 Y163.202 E9.83802
G1 X135.725 Y163.205 E9.86267
G1 X133.182 Y163.064 E9.98973
G1 X132.734 Y163.014 E10.01222
G1 X130.411 Y162.62 E10.12977
G1 X130.029 Y162.536 E10.14929
G1 X128.277 Y162.059 E10.23988
G1 X127.877 Y161.927 E10.26089
G1 X125.357 Y160.946 E10.39581
G1 X124.901 Y160.734 E10.42089
G1 X122.537 Y159.452 E10.55506
G1 X122.067 Y159.153 E10.58285
G1 X115.645 Y154.407 E10.98124
G1 X113.423 Y152.877 E11.11584
G1 X108.804 Y149.978 E11.38791
G1 X104.054 Y147.358 E11.65855
G1 X99.139 Y145.001 E11.93049
G1 X94.14 Y142.941 E12.20024
G1 X88.969 Y141.146 E12.47333
G1 X84.825 Y139.923 E12.68889
G1 X84.511 Y139.816 E12.70544
G1 X81.953 Y138.824 E12.84232
G1 X81.493 Y138.612 E12.86759
G1 X79.141 Y137.337 E13.00106
G1 X78.717 Y137.071 E13.02603
G1 X76.505 Y135.486 E13.16179
G1 X76.117 Y135.169 E13.18679
G1 X74.16 Y133.356 E13.31988
G1 X73.84 Y133.024 E13.34289
G1 X72.355 Y131.29 E13.45679
G1 X72.073 Y130.92 E13.48
G1 X70.569 Y128.683 E13.61448
G1 X70.3 Y128.217 E13.64132
G1 X68.928 Y125.429 E13.79635
G1 X68.733 Y124.96 E13.82169
G1 X67.978 Y122.757 E13.93787
G1 X67.873 Y122.397 E13.95658
G1 X67.468 Y120.716 E14.04285
G1 X67.398 Y120.347 E14.06158
G1 X67.076 Y118.104 E14.17464
G1 X67.036 Y117.643 E14.19772
G1 X66.963 Y114.92 E14.33362
G1 X66.981 Y114.42 E14.35858
G1 X67.243 Y111.768 E14.49154
G1 X67.307 Y111.351 E14.51258
G1 X67.676 Y109.566 E14.60352
G1 X67.769 Y109.204 E14.62217
G1 X68.426 Y107.06 E14.73404
G1 X68.587 Y106.624 E14.75723
G1 X69.68 Y104.134 E14.8929
G1 X69.91 Y103.689 E14.91789
G1 X71.29 Y101.381 E15.05205
G1 X71.573 Y100.968 E15.07703
G1 X73.221 Y98.863 E15.2104
G1 X73.584 Y98.46 E15.23746
G1 X75.853 Y96.256 E15.39527
G1 X76.236 Y95.928 E15.42043
G0 F3000 X76.477 Y96.247
G1 F1200 X78.278 Y94.893 E15.53284
G1 X78.62 Y94.666 E15.55332
G1 X80.91 Y93.323 E15.68577
G1 X81.241 Y93.151 E15.70438
G1 X82.869 Y92.411 E15.7936
G1 X83.083 Y92.322 E15.80516
G1 X88.145 Y90.403 E16.07524
G1 X93.149 Y88.209 E16.34784
G1 X98.007 Y85.744 E16.61962
G1 X102.723 Y83.005 E16.8917
G1 X107.279 Y80.003 E17.16391
G1 X111.661 Y76.745 E17.43633
G1 X115.845 Y73.252 E17.70825
G1 X119.419 Y70.006 E17.94913
G1 X119.67 Y69.797 E17.96542
G1 X121.488 Y68.425 E18.07905
G1 X121.836 Y68.194 E18.09989
G1 X124.145 Y66.84 E18.23343
G1 X124.473 Y66.669 E18.25189
G1 X126.083 Y65.935 E18.34016
G1 X126.399 Y65.809 E18.35714
G1 X128.561 Y65.061 E18.47127
G1 X128.891 Y64.964 E18.48843
G1 X130.643 Y64.54 E18.57836
G1 X131.01 Y64.471 E18.59699
G1 X133.651 Y64.116 E18.72994
G1 X134.1 Y64.084 E18.7524
G1 X136.808 Y64.061 E18.8875
G1 X137.259 Y64.086 E18.91004
G1 X139.947 Y64.402 E19.04507
G1 X140.361 Y64.475 E19.06604
G1 X142.571 Y65.001 E19.17938
G1 X142.969 Y65.12 E19.2001
G1 X145.522 Y66.05 E19.33566
G1 X145.936 Y66.231 E19.3582
G1 X148.307 Y67.45 E19.49121
G1 X148.693 Y67.681 E19.51365
G1 X150.93 Y69.211 E19.64886
G1 X151.317 Y69.516 E19.67345
G1 X153.642 Y71.626 E19.83009
G1 X153.959 Y71.952 E19.85277
G1 X155.482 Y73.733 E19.96969
G1 X155.736 Y74.068 E19.99066
G1 X157.206 Y76.26 E20.12233
G1 X157.445 Y76.674 E20.14618
G1 X158.804 Y79.432 E20.29958
G1 X158.977 Y79.846 E20.32196
G1 X159.725 Y82.008 E20.4361
G1 X159.822 Y82.338 E20.45326
G1 X160.246 Y84.09 E20.54319
G1 X160.315 Y84.459 E20.56192
G1 X160.673 Y87.134 E20.69656
G1 X160.705 Y87.587 E20.71922
G1 X160.724 Y90.29 E20.85408
G1 X160.698 Y90.745 E20.87681
G1 X160.366 Y93.502 E21.01536
G1 X160.338 Y93.695 E21.02509
G1 X159.416 Y98.94 E21.29077
G1 X158.776 Y104.353 E21.56271
G1 X158.442 Y109.789 E21.83442
G1 X158.415 Y115.249 E22.10683
G1 X158.696 Y120.681 E22.37819
G1 X159.291 Y126.141 E22.65221
G1 X159.692 Y128.784 E22.78557
G1 X160.689 Y134.248 E23.06268
G1 X160.738 Y134.64 E23.08238
G1 X160.925 Y137.28 E23.21442
G1 X160.928 Y137.734 E23.23708
G1 X160.775 Y140.485 E23.37454
G1 X160.728 Y140.9 E23.39537
G1 X160.346 Y143.105 E23.50702
G1 X160.273 Y143.436 E23.52393
G1 X159.796 Y145.188 E23.61452
G1 X159.679 Y145.543 E23.63317
G1 X158.723 Y148.009 E23.76512
G1 X158.534 Y148.417 E23.78755
G1 X157.243 Y150.81 E23.9232
G1 X157.002 Y151.196 E23.94591
G1 X155.423 Y153.402 E24.08125
G1 X155.138 Y153.752 E24.10377
G1 X153.316 Y155.721 E24.23761
G1 X152.989 Y156.033 E24.26016
G1 X150.927 Y157.765 E24.39451
G1 X150.565 Y158.032 E24.41695
G1 X148.301 Y159.494 E24.5514
G1 X148.005 Y159.666 E24.56848
G1 X146.778 Y160.302 E24.63743
G1 X146.503 Y160.43 E24.65257
G1 X144.423 Y161.295 E24.76495
G1 X144.034 Y161.431 E24.78551
G1 X141.473 Y162.166 E24.91844
G1 X141.105 Y162.251 E24.93728
G1 X139.301 Y162.569 E25.02867
G1 X138.922 Y162.616 E25.04772
G1 X136.192 Y162.803 E25.18424
G1 X135.747 Y162.805 E25.20645
G1 X133.204 Y162.664 E25.33351
G1 X132.801 Y162.619 E25.35374
G1 X130.478 Y162.225 E25.47129
G1 X130.134 Y162.15 E25.48886
G1 X128.382 Y161.673 E25.57945
G1 X128.022 Y161.554 E25.59836
G1 X125.502 Y160.573 E25.73328
G1 X125.092 Y160.383 E25.75582
G1 X122.728 Y159.101 E25.88999
G1 X122.305 Y158.831 E25.91502
G1 X115.894 Y154.094 E26.31271
G1 X113.641 Y152.541 E26.44923
G1 X109.009 Y149.634 E26.72206
G1 X104.227 Y146.998 E26.99448
G1 X99.307 Y144.638 E27.26672
G1 X94.281 Y142.566 E27.53794
G1 X89.106 Y140.77 E27.81123
G1 X84.938 Y139.54 E28.02804
G1 X84.655 Y139.443 E28.04296
G1 X82.097 Y138.451 E28.17984
G1 X81.683 Y138.26 E28.20259
G1 X79.331 Y136.985 E28.33606
G1 X78.95 Y136.746 E28.3585
G1 X76.738 Y135.161 E28.49426
G1 X76.388 Y134.876 E28.51678
G1 X74.431 Y133.063 E28.64988
G1 X74.144 Y132.764 E28.67055
G1 X72.659 Y131.03 E28.78445
G1 X72.405 Y130.697 E28.80535
G1 X70.901 Y128.46 E28.93983
G1 X70.659 Y128.041 E28.96397
G1 X69.287 Y125.253 E29.11899
G1 X69.111 Y124.83 E29.14185
G1 X68.356 Y122.627 E29.25803
G1 X68.262 Y122.303 E29.27486
G1 X67.857 Y120.622 E29.36113
G1 X67.794 Y120.291 E29.37794
G1 X67.472 Y118.048 E29.49099
G1 X67.436 Y117.632 E29.51182
G1 X67.363 Y114.909 E29.64772
G1 X67.379 Y114.459 E29.67019
G1 X67.641 Y111.807 E29.80314
G1 X67.699 Y111.432 E29.82207
G1 X68.068 Y109.647 E29.91301
G1 X68.151 Y109.321 E29.92979
G1 X68.808 Y107.177 E30.04167
G1 X68.954 Y106.785 E30.06253
G1 X70.047 Y104.295 E30.1982
G1 X70.253 Y103.895 E30.22065
G1 X71.633 Y101.587 E30.35481
G1 X71.888 Y101.215 E30.37731
G1 X73.536 Y99.11 E30.51069
G1 X73.863 Y98.747 E30.53506
G1 X76.132 Y96.543 E30.69287
G1 X76.477 Y96.247 E30.71555
G0 F3000 X76.717 Y96.567
G1 F1200 X78.518 Y95.213 E30.82797
G1 X78.822 Y95.011 E30.84618
G1 X81.112 Y93.668 E30.97862
G1 X81.407 Y93.515 E30.9952
G1 X83.035 Y92.775 E31.08442
G1 X83.224 Y92.696 E31.09464
G1 X88.292 Y90.774 E31.36505
G1 X93.318 Y88.571 E31.63883
G1 X98.21 Y86.089 E31.91251
G1 X102.931 Y83.347 E32.18489
G1 X107.513 Y80.328 E32.45864
G1 X111.902 Y77.064 E32.73153
G1 X116.112 Y73.549 E33.00515
G1 X119.688 Y70.302 E33.24613
G1 X119.911 Y70.117 E33.26058
G1 X121.729 Y68.745 E33.37421
G1 X122.038 Y68.539 E33.39274
G1 X124.347 Y67.185 E33.52628
G1 X124.639 Y67.033 E33.54271
G1 X126.249 Y66.299 E33.63098
G1 X126.53 Y66.187 E33.64607
G1 X128.692 Y65.439 E33.76021
G1 X128.985 Y65.353 E33.77544
G1 X130.737 Y64.929 E33.86538
G1 X131.064 Y64.868 E33.88197
G1 X133.705 Y64.513 E34.01492
G1 X134.104 Y64.484 E34.03487
G1 X136.812 Y64.461 E34.16998
G1 X137.213 Y64.483 E34.19002
G1 X139.901 Y64.799 E34.32505
G1 X140.268 Y64.864 E34.34364
G1 X142.478 Y65.39 E34.45698
G1 X142.832 Y65.496 E34.47541
G1 X145.385 Y66.426 E34.61097
G1 X145.753 Y66.587 E34.63101
G1 X148.124 Y67.806 E34.76402
G1 X148.468 Y68.011 E34.784
G1 X150.705 Y69.541 E34.91921
G1 X151.049 Y69.812 E34.94106
G1 X153.374 Y71.922 E35.0977
G1 X153.655 Y72.212 E35.11784
G1 X155.178 Y73.993 E35.23476
G1 X155.404 Y74.291 E35.25341
G1 X156.874 Y76.483 E35.38509
G1 X157.086 Y76.851 E35.40628
G1 X158.445 Y79.609 E35.55967
G1 X158.599 Y79.977 E35.57957
G1 X159.347 Y82.139 E35.69371
G1 X159.433 Y82.432 E35.70894
G1 X159.857 Y84.184 E35.79888
G1 X159.919 Y84.513 E35.81558
G1 X160.277 Y87.188 E35.95022
G1 X160.305 Y87.59 E35.97033
G1 X160.324 Y90.293 E36.10519
G1 X160.301 Y90.698 E36.12542
G1 X159.969 Y93.455 E36.26396
G1 X159.944 Y93.626 E36.27259
G1 X159.021 Y98.878 E36.53863
G1 X158.377 Y104.317 E36.81187
G1 X158.042 Y109.779 E37.08489
G1 X158.015 Y115.25 E37.35784
G1 X158.299 Y120.729 E37.63155
G1 X158.891 Y126.172 E37.90471
G1 X159.303 Y128.883 E38.04151
G1 X160.295 Y134.32 E38.31724
G1 X160.339 Y134.668 E38.33474
G1 X160.526 Y137.308 E38.46678
G1 X160.529 Y137.712 E38.48694
G1 X160.376 Y140.463 E38.6244
G1 X160.334 Y140.831 E38.64288
G1 X159.952 Y143.036 E38.75453
G1 X159.887 Y143.331 E38.7696
G1 X159.41 Y145.083 E38.86019
G1 X159.306 Y145.399 E38.87678
G1 X158.35 Y147.865 E39.00873
G1 X158.182 Y148.227 E39.02864
G1 X156.891 Y150.62 E39.1643
G1 X156.677 Y150.964 E39.18451
G1 X155.098 Y153.17 E39.31985
G1 X154.845 Y153.48 E39.33982
G1 X153.023 Y155.449 E39.47366
G1 X152.732 Y155.726 E39.4937
G1 X150.67 Y157.458 E39.62805
G1 X150.348 Y157.696 E39.64803
G1 X148.084 Y159.158 E39.78248
G1 X147.821 Y159.311 E39.79766
G1 X146.594 Y159.947 E39.86661
G1 X146.35 Y160.061 E39.88005
G1 X144.27 Y160.926 E39.99243
G1 X143.924 Y161.047 E40.01072
G1 X141.363 Y161.782 E40.14365
G1 X141.036 Y161.857 E40.16039
G1 X139.232 Y162.175 E40.25178
G1 X138.895 Y162.217 E40.26872
G1 X136.165 Y162.404 E40.40524
G1 X135.769 Y162.406 E40.42499
G1 X133.226 Y162.265 E40.55206
G1 X132.868 Y162.225 E40.57003
G1 X130.545 Y161.831 E40.68758
G1 X130.239 Y161.764 E40.70321
G1 X128.487 Y161.287 E40.7938
G1 X128.167 Y161.181 E40.81062
G1 X125.647 Y160.2 E40.94553
G1 X125.283 Y160.031 E40.96555
G1 X122.919 Y158.749 E41.09972
G1 X122.542 Y158.51 E41.12199
G1 X116.103 Y153.752 E41.52142
G1 X113.853 Y152.202 E41.65773
G1 X109.209 Y149.287 E41.93128
G1 X104.415 Y146.643 E42.20442
G1 X99.484 Y144.279 E42.47724
G1 X94.408 Y142.187 E42.75115
G1 X89.23 Y140.389 E43.02461
G1 X85.051 Y139.156 E43.24198
G1 X84.8 Y139.071 E43.25521
G1 X82.242 Y138.079 E43.39209
G1 X81.874 Y137.908 E43.41233
G1 X79.522 Y136.633 E43.5458
G1 X79.183 Y136.421 E43.56575
G1 X76.971 Y134.836 E43.70152
G1 X76.66 Y134.582 E43.72155
G1 X74.703 Y132.769 E43.85464
G1 X74.447 Y132.503 E43.87306
G1 X72.962 Y130.769 E43.98696
G1 X72.737 Y130.473 E44.00551
G1 X71.233 Y128.236 E44.13999
G1 X71.018 Y127.864 E44.16143
G1 X69.646 Y125.076 E44.31645
G1 X69.49 Y124.7 E44.33676
G1 X68.735 Y122.497 E44.45294
G1 X68.651 Y122.21 E44.46786
G1 X68.246 Y120.529 E44.55413
G1 X68.189 Y120.234 E44.56912
G1 X67.867 Y117.991 E44.68217
G1 X67.836 Y117.622 E44.70064
G1 X67.763 Y114.899 E44.83654
G1 X67.778 Y114.498 E44.85656
G1 X68.04 Y111.846 E44.98952
G1 X68.09 Y111.513 E45.00632
G1 X68.459 Y109.728 E45.09725
G1 X68.533 Y109.438 E45.11218
G1 X69.19 Y107.294 E45.22406
G1 X69.32 Y106.946 E45.24259
G1 X70.413 Y104.456 E45.37826
G1 X70.597 Y104.1 E45.39825
G1 X71.977 Y101.792 E45.53241
G1 X72.203 Y101.461 E45.55241
G1 X73.851 Y99.356 E45.68578
G1 X74.141 Y99.034 E45.7074
G1 X76.41 Y96.83 E45.86522
G1 X76.717 Y96.567 E45.88539
G1 F2700 E41.88539
G0 F3000 X78.269 Y98.555
G0 X79.118 Y99.518
G0 X79.169 Y99.58
G0 X79.106 Y99.503
;TYPE:WALL-INNER
G1 F2700 E45.88539
G1 F1200 X80.153 Y98.69 E45.95152
G1 X81.026 Y98.096 E46.0042
G1 X81.177 Y97.994 E46.01329
G1 X81.235 Y97.954 E46.01681
G1 X81.322 Y97.903 E46.02184
G0 X81.312 Y97.966
G0 X81.282 Y98.148
G1 X81.296 Y98.331 E46.02888
G1 X81.304 Y98.42 E46.03334
G1 X81.394 Y98.684 E46.04725
G1 X81.549 Y98.916 E46.06117
G1 X81.738 Y99.084 E46.07379
G1 X81.755 Y99.1 E46.07495
G1 X81.983 Y99.22 E46.08781
G1 X82.151 Y99.271 E46.09657
G0 X82.059 Y99.332
G0 X81.959 Y99.4
G1 X81.94 Y99.413 E46.09767
G1 X81.096 Y99.982 E46.14845
G1 X80.138 Y100.726 E46.20897
G1 X79.228 Y101.526 E46.26942
G1 X78.37 Y102.384 E46.32996
G1 X77.569 Y103.293 E46.3904
G1 X76.824 Y104.251 E46.45095
G1 X76.258 Y105.086 E46.50127
G1 X76.219 Y105.143 E46.50472
G1 X76.143 Y105.254 E46.51143
G1 X76.102 Y105.324 E46.51548
G0 X76.092 Y105.263
G0 X76.086 Y105.232
G1 X75.973 Y104.977 E46.5166
G1 X75.93 Y104.923 E46.51968
G1 X75.801 Y104.761 E46.53001
G1 X75.58 Y104.592 E46.54389
G1 X75.326 Y104.487 E46.55761
G1 X75.175 Y104.463 E46.56523
G1 X75.054 Y104.445 E46.57134
G1 X74.792 Y104.473 E46.58448
G1 X74.776 Y104.475 E46.58529
G1 X74.736 Y104.49 E46.58742
G0 X74.752 Y104.462
G0 X74.785 Y104.407
G0 X74.851 Y104.309
G1 X74.92 Y104.208 E46.59251
G1 X75.526 Y103.316 E46.64631
G1 X76.338 Y102.271 E46.71234
G1 X77.195 Y101.297 E46.77706
G1 X78.132 Y100.36 E46.84317
G1 X79.106 Y99.503 E46.9079
G1 F2700 E42.9079
G0 F3000 X79.169 Y99.58
G0 X81.311 Y97.919
G0 X82.689 Y97.13
G0 X82.828 Y97.077
G0 X82.79 Y97.169
G1 F2700 E46.9079
G1 F1200 X82.67 Y97.131 E46.91418
G0 X82.749 Y97.091
G1 X82.879 Y97.025 E46.92036
G1 X82.949 Y96.989 E46.92429
G1 X83.528 Y96.693 E46.95673
G1 X84.754 Y96.163 E47.02337
G1 X85.968 Y95.727 E47.08772
