;FLAVOR:RepRap
;TIME:9204
;Filament used: 6.0852m
;Layer height: 0.2
;Generated with Cura_SteamEngine 2.4.0
M190 S60
M104 S195
M109 S195
G21 ;metric values
G90 ;absolute positioning
M82 ;set extruder to absolute mode
M107 ;start with the fan off
G28 X0 Y0 ;move X/Y to min endstops
G28 Z0 ;move Z to min endstops
G1 Z15.0 F9000 ;move the platform down 15mm
G92 E0 ;zero the extruded length
G1 F200 E3 ;extrude 3mm of feed stock
G92 E0 ;zero the extruded length again
G1 F9000;Put printing message on LCD screen
M117 Printing...
;LAYER_COUNT:37
;LAYER:0
M107
G1 F2700 E-4
G0 F3000 X60.294 Y61.933 Z0.3
G0 X59.921 Y62.358
;TYPE:SKIRT
G1 F2700 E0
G1 F1200 X60.294 Y61.933 E0.02962
G1 X60.862 Y61.466 E0.06814
G1 X61.808 Y60.824 E0.12803
G1 X62.297 Y60.541 E0.15763
G1 X62.899 Y60.304 E0.19152
G1 X63.688 Y60.066 E0.23469
G1 X64.239 Y59.942 E0.26428
G1 X64.727 Y59.898 E0.28994
G1 X71.886 Y59.691 E0.66512
G1 X74.572 Y59.5 E0.80618
G1 X78.404 Y59.098 E1.00802
G1 X152.5 Y49.893 E4.91936
G1 X153.064 Y49.863 E4.94895
G1 X153.707 Y49.926 E4.98279
G1 X154.562 Y50.081 E5.02831
G1 X155.109 Y50.221 E5.05789
G1 X155.481 Y50.365 E5.07878
G1 X156.058 Y50.623 E5.11189
G1 X156.556 Y50.89 E5.14149
G1 X156.931 Y51.158 E5.16564
G1 X157.722 Y51.794 E5.21881
G1 X158.137 Y52.178 E5.24843
G1 X158.385 Y52.47 E5.2685
G1 X158.69 Y52.866 E5.29468
G1 X159.115 Y53.552 E5.33695
G1 X159.471 Y54.281 E5.37945
G1 X159.599 Y54.57 E5.39601
G1 X161.861 Y60.314 E5.7194
G1 X164.15 Y65.24 E6.00394
G1 X166.699 Y70.007 E6.28712
G1 X169.542 Y74.662 E6.57285
G1 X172.618 Y79.116 E6.85641
G1 X175.963 Y83.417 E7.14183
G1 X179.147 Y87.09 E7.39647
G1 X179.486 Y87.542 E7.42607
G1 X179.759 Y88.038 E7.45573
G1 X179.958 Y88.566 E7.48529
G1 X180.081 Y89.118 E7.51491
G1 X180.125 Y89.704 E7.5457
G1 X180.129 Y92.403 E7.68708
G1 X180.127 Y92.534 E7.69395
G1 X180.016 Y96.07 E7.87927
G1 X180.093 Y101.535 E8.16558
G1 X180.504 Y107.279 E8.46725
G1 X180.514 Y107.563 E8.48214
G1 X180.52 Y149.093 E10.65767
G1 X180.674 Y154.551 E10.9437
G1 X181.136 Y159.98 E11.22913
G1 X181.901 Y165.348 E11.51317
G1 X182.969 Y170.679 E11.79798
G1 X183.607 Y173.281 E11.93832
G1 X185.547 Y180.019 E12.30563
G1 X185.664 Y180.572 E12.33524
G1 X185.703 Y181.182 E12.36726
G1 X185.616 Y187.36 E12.69092
G1 X185.695 Y190.929 E12.87793
G1 X185.668 Y191.494 E12.90756
G1 X185.561 Y192.049 E12.93717
G1 X185.377 Y192.584 E12.96681
G1 X185.119 Y193.087 E12.99642
G1 X184.793 Y193.549 E13.02604
G1 X184.406 Y193.96 E13.05562
G1 X183.964 Y194.313 E13.08525
G1 X183.477 Y194.6 E13.11486
G1 X182.847 Y194.849 E13.15035
G1 X175.809 Y196.964 E13.53532
G1 X175.258 Y197.088 E13.5649
G1 X174.659 Y197.133 E13.59637
G1 X50.712 Y197.153 E20.0893
G1 X49.991 Y197.088 E20.12722
G1 X49.423 Y196.984 E20.15747
G1 X48.981 Y196.877 E20.18129
G1 X42.282 Y194.844 E20.54802
G1 X41.754 Y194.642 E20.57764
G1 X41.26 Y194.367 E20.60725
G1 X40.809 Y194.026 E20.63687
G1 X40.411 Y193.624 E20.66651
G1 X40.074 Y193.171 E20.69608
G1 X39.804 Y192.674 E20.72571
G1 X39.606 Y192.144 E20.75535
G1 X39.486 Y191.592 E20.78494
G1 X39.445 Y190.925 E20.81995
G1 X39.525 Y187.388 E21.00528
G1 X39.445 Y180.969 E21.34156
G1 X39.478 Y180.405 E21.37116
G1 X39.635 Y179.702 E21.40889
G1 X40.405 Y177.292 E21.54143
G1 X41.853 Y172.035 E21.82707
G1 X43.011 Y166.669 E22.11464
G1 X43.453 Y164.082 E22.25212
G1 X44.148 Y158.652 E22.53889
G1 X44.533 Y153.225 E22.82389
G1 X44.621 Y149.119 E23.03904
G1 X44.581 Y106.295 E25.28236
G1 X44.269 Y100.795 E25.57094
G1 X44.055 Y98.316 E25.70128
G1 X44.042 Y98.108 E25.7122
G1 X43.852 Y92.547 E26.00368
G1 X43.85 Y92.41 E26.01086
G1 X43.85 Y89.714 E26.15209
G1 X43.89 Y89.15 E26.18171
G1 X44.009 Y88.597 E26.21134
G1 X44.205 Y88.067 E26.24094
G1 X44.473 Y87.57 E26.27052
G1 X44.729 Y87.212 E26.29358
G1 X46.123 Y85.474 E26.41029
G1 X49.365 Y81.085 E26.69613
G1 X52.341 Y76.543 E26.98058
G1 X55.059 Y71.831 E27.26554
G1 X57.511 Y66.964 E27.55103
G1 X58.937 Y63.82 E27.73187
G1 X59.206 Y63.323 E27.76148
G1 X59.393 Y63.054 E27.77864
G1 X59.921 Y62.358 E27.8244
G0 F3000 X60.24 Y62.6
G1 F1200 X60.595 Y62.198 E27.8525
G1 X61.086 Y61.797 E27.88571
G1 X62.032 Y61.155 E27.9456
G1 X62.497 Y60.888 E27.97368
G1 X63.014 Y60.687 E28.00274
G1 X63.803 Y60.449 E28.04591
G1 X64.327 Y60.333 E28.07403
G1 X64.739 Y60.298 E28.09569
G1 X71.902 Y60.091 E28.47108
G1 X74.613 Y59.898 E28.61345
G1 X78.4 Y59.501 E28.81292
G1 X152.549 Y50.289 E32.72705
G1 X153.085 Y50.263 E32.75517
G1 X153.635 Y50.32 E32.78413
G1 X154.49 Y50.475 E32.82965
G1 X155.009 Y50.609 E32.85773
G1 X155.317 Y50.731 E32.87508
G1 X155.894 Y50.989 E32.90819
G1 X156.366 Y51.243 E32.93627
G1 X156.681 Y51.469 E32.95658
G1 X157.472 Y52.105 E33.00975
G1 X157.864 Y52.472 E33.03788
G1 X158.068 Y52.714 E33.05446
G1 X158.373 Y53.11 E33.08064
G1 X158.756 Y53.727 E33.11869
G1 X159.112 Y54.456 E33.16118
G1 X159.227 Y54.717 E33.17613
G1 X161.493 Y60.471 E33.50008
G1 X163.785 Y65.404 E33.78502
G1 X166.36 Y70.219 E34.07106
G1 X169.204 Y74.877 E34.35695
G1 X172.297 Y79.354 E34.64201
G1 X175.653 Y83.67 E34.92841
G1 X178.845 Y87.352 E35.18368
G1 X179.165 Y87.782 E35.21175
G1 X179.418 Y88.255 E35.23985
G1 X179.597 Y88.76 E35.26792
G1 X179.7 Y89.287 E35.29605
G1 X179.725 Y89.705 E35.31799
G1 X179.729 Y92.404 E35.45937
G1 X179.727 Y92.522 E35.46555
G1 X179.616 Y96.064 E35.65119
G1 X179.694 Y101.551 E35.93866
G1 X180.105 Y107.307 E36.24095
G1 X180.114 Y107.563 E36.25437
G1 X180.12 Y149.069 E38.42865
G1 X180.276 Y154.596 E38.71829
G1 X180.737 Y160.017 E39.0033
G1 X181.507 Y165.414 E39.28888
G1 X182.577 Y170.756 E39.57428
G1 X183.228 Y173.414 E39.71763
G1 X185.162 Y180.13 E40.08374
G1 X185.272 Y180.655 E40.11184
G1 X185.303 Y181.177 E40.13924
G1 X185.216 Y187.363 E40.46332
G1 X185.295 Y190.938 E40.65064
G1 X185.267 Y191.474 E40.67876
G1 X185.16 Y191.999 E40.70683
G1 X184.976 Y192.503 E40.73493
G1 X184.719 Y192.974 E40.76304
G1 X184.395 Y193.401 E40.79112
G1 X184.011 Y193.775 E40.8192
G1 X183.575 Y194.089 E40.84734
G1 X183.098 Y194.334 E40.87543
G1 X182.732 Y194.466 E40.89582
G1 X175.694 Y196.581 E41.28079
G1 X175.17 Y196.696 E41.30889
G1 X174.659 Y196.733 E41.33573
G1 X50.712 Y196.753 E47.82866
G1 X50.063 Y196.694 E47.8628
G1 X49.495 Y196.59 E47.89304
G1 X49.098 Y196.494 E47.91444
G1 X42.399 Y194.461 E48.28117
G1 X41.898 Y194.267 E48.30931
G1 X41.433 Y194.002 E48.33735
G1 X41.011 Y193.67 E48.36548
G1 X40.644 Y193.279 E48.39357
G1 X40.339 Y192.838 E48.42166
G1 X40.103 Y192.356 E48.44977
G1 X39.941 Y191.845 E48.47785
G1 X39.856 Y191.316 E48.50592
G1 X39.845 Y190.934 E48.52594
G1 X39.925 Y187.392 E48.71153
G1 X39.845 Y180.964 E49.04829
G1 X39.879 Y180.429 E49.07637
G1 X40.016 Y179.823 E49.10892
G1 X40.785 Y177.416 E49.24129
G1 X42.245 Y172.116 E49.52927
G1 X43.401 Y166.756 E49.8165
G1 X43.85 Y164.129 E49.95611
G1 X44.546 Y158.694 E50.24315
G1 X44.933 Y153.242 E50.52947
G1 X45.021 Y149.126 E50.74514
G1 X44.981 Y106.273 E52.98998
G1 X44.671 Y100.803 E53.27698
G1 X44.453 Y98.281 E53.40959
G1 X44.442 Y98.094 E53.4194
G1 X44.252 Y92.533 E53.71088
G1 X44.25 Y92.41 E53.71733
G1 X44.25 Y89.714 E53.85856
G1 X44.29 Y89.179 E53.88666
G1 X44.409 Y88.656 E53.91476
G1 X44.604 Y88.157 E53.94282
G1 X44.872 Y87.692 E53.97094
G1 X45.041 Y87.462 E53.98589
G1 X46.449 Y85.706 E54.1038
G1 X49.692 Y81.317 E54.38967
G1 X52.685 Y76.749 E54.67575
G1 X55.405 Y72.032 E54.96099
G1 X57.87 Y67.14 E55.24795
G1 X59.301 Y63.985 E55.42943
G1 X59.712 Y63.296 E55.47145
G1 X60.24 Y62.6 E55.51722
G0 F3000 X60.559 Y62.842
G1 F1200 X60.895 Y62.465 E55.54367
G1 X61.311 Y62.128 E55.57172
G1 X62.257 Y61.486 E55.63161
G1 X62.697 Y61.236 E55.65812
G1 X63.13 Y61.07 E55.68241
G1 X63.919 Y60.832 E55.72558
G1 X64.413 Y60.725 E55.75206
G1 X64.75 Y60.697 E55.76977
G1 X71.943 Y60.489 E56.14673
G1 X74.621 Y60.299 E56.28737
G1 X78.48 Y59.894 E56.49064
G1 X152.598 Y50.686 E60.40313
G1 X153.104 Y50.664 E60.42967
G1 X153.564 Y50.713 E60.4539
G1 X154.419 Y50.868 E60.49942
G1 X154.908 Y50.998 E60.52592
G1 X155.154 Y51.096 E60.5398
G1 X155.731 Y51.354 E60.57291
G1 X156.175 Y51.596 E60.59939
G1 X156.43 Y51.781 E60.6159
G1 X157.221 Y52.417 E60.66907
G1 X157.589 Y52.764 E60.69556
G1 X157.751 Y52.958 E60.7088
G1 X158.056 Y53.354 E60.73499
G1 X158.396 Y53.903 E60.76882
G1 X158.752 Y54.632 E60.81131
G1 X158.854 Y54.863 E60.82454
G1 X161.124 Y60.627 E61.14906
G1 X163.427 Y65.583 E61.43534
G1 X166.011 Y70.416 E61.72243
G1 X168.863 Y75.086 E62.00908
G1 X171.982 Y79.602 E62.29659
G1 X175.336 Y83.915 E62.5828
G1 X178.543 Y87.614 E62.83925
G1 X178.843 Y88.021 E62.86574
G1 X179.075 Y88.47 E62.89222
G1 X179.233 Y88.95 E62.91869
G1 X179.314 Y89.449 E62.94517
G1 X179.325 Y89.705 E62.95859
G1 X179.329 Y92.404 E63.09998
G1 X179.327 Y92.509 E63.10548
G1 X179.216 Y96.046 E63.29086
G1 X179.294 Y101.568 E63.58015
G1 X179.706 Y107.336 E63.88308
G1 X179.714 Y107.564 E63.89503
G1 X179.72 Y149.08 E66.06983
G1 X179.877 Y154.624 E66.36037
G1 X180.338 Y160.053 E66.64579
G1 X181.112 Y165.477 E66.9328
G1 X182.19 Y170.86 E67.22039
G1 X182.837 Y173.5 E67.36278
G1 X184.778 Y180.241 E67.73025
G1 X184.879 Y180.736 E67.75672
G1 X184.903 Y181.171 E67.77954
G1 X184.816 Y187.365 E68.10404
G1 X184.895 Y190.947 E68.29173
G1 X184.866 Y191.452 E68.31823
G1 X184.759 Y191.946 E68.3447
G1 X184.574 Y192.416 E68.37116
G1 X184.318 Y192.852 E68.39765
G1 X183.996 Y193.242 E68.42414
G1 X183.617 Y193.577 E68.45064
G1 X183.19 Y193.848 E68.47713
G1 X182.617 Y194.083 E68.50958
G1 X175.579 Y196.198 E68.89455
G1 X175.085 Y196.304 E68.92101
G1 X174.659 Y196.333 E68.94338
G1 X50.712 Y196.353 E75.43631
G1 X50.135 Y196.301 E75.46666
G1 X49.567 Y196.197 E75.49691
G1 X49.214 Y196.111 E75.51594
G1 X42.515 Y194.078 E75.88267
G1 X42.044 Y193.894 E75.90916
G1 X41.608 Y193.637 E75.93567
G1 X41.218 Y193.315 E75.96217
G1 X40.884 Y192.936 E75.98863
G1 X40.614 Y192.509 E76.01509
G1 X40.414 Y192.045 E76.04156
G1 X40.29 Y191.554 E76.06809
G1 X40.245 Y190.943 E76.10018
G1 X40.325 Y187.396 E76.28604
G1 X40.245 Y180.959 E76.62327
G1 X40.279 Y180.455 E76.64973
G1 X40.397 Y179.945 E76.67715
G1 X41.17 Y177.525 E76.81023
G1 X42.632 Y172.218 E77.09859
G1 X43.798 Y166.812 E77.3883
G1 X44.244 Y164.201 E77.52705
G1 X44.944 Y158.737 E77.81562
G1 X45.333 Y153.259 E78.10331
G1 X45.421 Y149.135 E78.31939
G1 X45.381 Y106.267 E80.56502
G1 X45.068 Y100.748 E80.8546
G1 X44.852 Y98.247 E80.9861
G1 X44.842 Y98.08 E80.99486
G1 X44.652 Y92.519 E81.28635
G1 X44.65 Y92.41 E81.29206
G1 X44.65 Y89.714 E81.43329
G1 X44.69 Y89.21 E81.45977
G1 X44.809 Y88.719 E81.48624
G1 X45.003 Y88.252 E81.51273
G1 X45.353 Y87.712 E81.54644
G1 X46.753 Y85.966 E81.66367
G1 X50.024 Y81.539 E81.95202
G1 X53.027 Y76.954 E82.23913
G1 X55.758 Y72.22 E82.52543
G1 X58.239 Y67.296 E82.81426
G1 X59.666 Y64.15 E82.99523
G1 X60.031 Y63.538 E83.03255
G1 X60.559 Y62.842 E83.07832
G0 F3000 X48.04 Y89.91
;TYPE:SUPPORT
G1 F1200 X149.483 Y89.91 E88.39238
G1 X152.271 Y90.259 E88.53957
G1 X152.88 Y90.308 E88.57157
G1 X153.564 Y90.254 E88.60752
G1 X154.245 Y90.091 E88.6442
G1 X154.681 Y89.91 E88.66893
G1 X175.939 Y89.91 E89.78252
G1 X175.939 Y92.21 E89.90301
G1 X48.04 Y92.21 E96.60296
G1 X48.04 Y89.91 E96.72344
G0 F3000 X48.199 Y90.644
G1 F1200 X175.779 Y90.644 E103.40669
G0 F3000 X173.29 Y90.07
G1 F1200 X173.29 Y92.05 E103.51041
G0 F3000 X170.624 Y92.05
G1 F1200 X170.624 Y90.07 E103.61413
G0 F3000 X167.958 Y90.07
G1 F1200 X167.958 Y92.05 E103.71785
G0 F3000 X165.292 Y92.05
G1 F1200 X165.292 Y90.07 E103.82157
G0 F3000 X162.626 Y90.07
G1 F1200 X162.626 Y92.05 E103.92529
G0 F3000 X159.96 Y92.05
G1 F1200 X159.96 Y90.07 E104.02902
G0 F3000 X157.294 Y90.07
G1 F1200 X157.294 Y92.05 E104.13274
G0 F3000 X154.628 Y92.05
G1 F1200 X154.628 Y90.105 E104.23463
G0 F3000 X151.962 Y90.382
G1 F1200 X151.962 Y92.05 E104.322
G0 F3000 X149.296 Y92.05
G1 F1200 X149.296 Y90.07 E104.42573
G0 F3000 X146.63 Y90.07
G1 F1200 X146.63 Y92.05 E104.52945
G0 F3000 X143.964 Y92.05
G1 F1200 X143.964 Y90.07 E104.63317
G0 F3000 X141.298 Y90.07
G1 F1200 X141.298 Y92.05 E104.73689
G0 F3000 X138.632 Y92.05
G1 F1200 X138.632 Y90.07 E104.84061
G0 F3000 X135.966 Y90.07
G1 F1200 X135.966 Y92.05 E104.94433
G0 F3000 X133.3 Y92.05
G1 F1200 X133.3 Y90.07 E105.04806
G0 F3000 X130.634 Y90.07
G1 F1200 X130.634 Y92.05 E105.15178
G0 F3000 X127.968 Y92.05
G1 F1200 X127.968 Y90.07 E105.2555
G0 F3000 X125.302 Y90.07
G1 F1200 X125.302 Y92.05 E105.35922
G0 F3000 X122.636 Y92.05
G1 F1200 X122.636 Y90.07 E105.46294
G0 F3000 X119.97 Y90.07
G1 F1200 X119.97 Y92.05 E105.56666
G0 F3000 X117.304 Y92.05
G1 F1200 X117.304 Y90.07 E105.67039
G0 F3000 X114.638 Y90.07
G1 F1200 X114.638 Y92.05 E105.77411
G0 F3000 X111.972 Y92.05
G1 F1200 X111.972 Y90.07 E105.87783
G0 F3000 X109.306 Y90.07
G1 F1200 X109.306 Y92.05 E105.98155
G0 F3000 X106.64 Y92.05
G1 F1200 X106.64 Y90.07 E106.08527
G0 F3000 X103.974 Y90.07
G1 F1200 X103.974 Y92.05 E106.18899
G0 F3000 X101.308 Y92.05
G1 F1200 X101.308 Y90.07 E106.29272
G0 F3000 X98.642 Y90.07
G1 F1200 X98.642 Y92.05 E106.39644
G0 F3000 X95.976 Y92.05
G1 F1200 X95.976 Y90.07 E106.50016
G0 F3000 X93.31 Y90.07
G1 F1200 X93.31 Y92.05 E106.60388
G0 F3000 X90.644 Y92.05
G1 F1200 X90.644 Y90.07 E106.7076
G0 F3000 X87.978 Y90.07
G1 F1200 X87.978 Y92.05 E106.81133
G0 F3000 X85.312 Y92.05
G1 F1200 X85.312 Y90.07 E106.91505
G0 F3000 X82.646 Y90.07
G1 F1200 X82.646 Y92.05 E107.01877
G0 F3000 X79.98 Y92.05
G1 F1200 X79.98 Y90.07 E107.12249
G0 F3000 X77.314 Y90.07
G1 F1200 X77.314 Y92.05 E107.22621
G0 F3000 X74.648 Y92.05
G1 F1200 X74.648 Y90.07 E107.32993
G0 F3000 X71.982 Y90.07
G1 F1200 X71.982 Y92.05 E107.43366
G0 F3000 X69.316 Y92.05
G1 F1200 X69.316 Y90.07 E107.53738
G0 F3000 X66.65 Y90.07
G1 F1200 X66.65 Y92.05 E107.6411
G0 F3000 X63.984 Y92.05
G1 F1200 X63.984 Y90.07 E107.74482
G0 F3000 X61.318 Y90.07
G1 F1200 X61.318 Y92.05 E107.84854
G0 F3000 X58.652 Y92.05
G1 F1200 X58.652 Y90.07 E107.95226
G0 F3000 X55.986 Y90.07
G1 F1200 X55.986 Y92.05 E108.05599
G0 F3000 X53.32 Y92.05
G1 F1200 X53.32 Y90.07 E108.15971
G0 F3000 X50.654 Y90.07
G1 F1200 X50.654 Y92.05 E108.26343
G1 F2700 E104.26343
G0 F3000 X47.387 Y92.757
G0 X47.387 Y98.963
G0 X52.621 Y102.798
G1 F2700 E108.26343
G1 F1200 X52.621 Y102.268 E108.29119
G1 X172.52 Y102.268 E114.57207
G1 X172.52 Y102.798 E114.59983
G1 X172.756 Y103.12 E114.62075
G1 X172.756 Y104.068 E114.67041
G1 X52.385 Y104.068 E120.97601
G1 X52.385 Y103.12 E121.02567
G1 X52.621 Y102.798 E121.04658
G0 F3000 X53.32 Y102.428
G1 F1200 X53.32 Y103.908 E121.12411
G0 F3000 X55.986 Y103.908
G1 F1200 X55.986 Y102.428 E121.20164
G0 F3000 X58.652 Y102.428
G1 F1200 X58.652 Y103.908 E121.27917
G0 F3000 X61.318 Y103.908
G1 F1200 X61.318 Y102.428 E121.3567
G0 F3000 X63.984 Y102.428
G1 F1200 X63.984 Y103.908 E121.43423
G0 F3000 X66.65 Y103.908
G1 F1200 X66.65 Y102.428 E121.51176
G0 F3000 X69.316 Y102.428
G1 F1200 X69.316 Y103.908 E121.58929
G0 F3000 X71.982 Y103.908
G1 F1200 X71.982 Y102.428 E121.66681
G0 F3000 X74.648 Y102.428
G1 F1200 X74.648 Y103.908 E121.74434
G0 F3000 X77.314 Y103.908
G1 F1200 X77.314 Y102.428 E121.82187
G0 F3000 X79.98 Y102.428
G1 F1200 X79.98 Y103.908 E121.8994
G0 F3000 X82.646 Y103.908
G1 F1200 X82.646 Y102.428 E121.97693
G0 F3000 X85.312 Y102.428
G1 F1200 X85.312 Y103.908 E122.05446
G0 F3000 X87.978 Y103.908
G1 F1200 X87.978 Y102.428 E122.13199
G0 F3000 X90.644 Y102.428
G1 F1200 X90.644 Y103.908 E122.20952
G0 F3000 X93.31 Y103.908
G1 F1200 X93.31 Y102.428 E122.28705
G0 F3000 X95.976 Y102.428
G1 F1200 X95.976 Y103.908 E122.36458
G0 F3000 X98.642 Y103.908
G1 F1200 X98.642 Y102.428 E122.44211
G0 F3000 X101.308 Y102.428
G1 F1200 X101.308 Y103.908 E122.51964
G0 F3000 X103.974 Y103.908
G1 F1200 X103.974 Y102.428 E122.59717
G0 F3000 X106.64 Y102.428
G1 F1200 X106.64 Y103.908 E122.6747
G0 F3000 X109.306 Y103.908
G1 F1200 X109.306 Y102.428 E122.75223
G0 F3000 X111.972 Y102.428
G1 F1200 X111.972 Y103.908 E122.82976
G0 F3000 X114.638 Y103.908
G1 F1200 X114.638 Y102.428 E122.90728
G0 F3000 X117.304 Y102.428
G1 F1200 X117.304 Y103.908 E122.98481
G0 F3000 X119.97 Y103.908
G1 F1200 X119.97 Y102.428 E123.06234
G0 F3000 X122.636 Y102.428
G1 F1200 X122.636 Y103.908 E123.13987
G0 F3000 X125.302 Y103.908
G1 F1200 X125.302 Y102.428 E123.2174
