;FLAVOR:RepRap
;TIME:1981
;Filament used: 1.23202m
;Layer height: 0.2
;Generated with Cura_SteamEngine 2.4.0
M190 S60
M104 S195
M109 S195
G21 ;metric values
G90 ;absolute positioning
M82 ;set extruder to absolute mode
M107 ;start with the fan off
G28 X0 Y0 ;move X/Y to min endstops
G28 Z0 ;move Z to min endstops
G1 Z15.0 F9000 ;move the platform down 15mm
G92 E0 ;zero the extruded length
G1 F200 E3 ;extrude 3mm of feed stock
G92 E0 ;zero the extruded length again
G1 F9000;Put printing message on LCD screen
M117 Printing...
;LAYER_COUNT:10
;LAYER:0
M107
G1 F2700 E-4
G0 F3000 X99.26 Y64.113 Z0.3
;TYPE:SKIRT
G1 F2700 E0
G1 F1200 X99.597 Y63.658 E0.02966
G1 X99.994 Y63.256 E0.05926
G1 X100.444 Y62.913 E0.0889
G1 X100.937 Y62.638 E0.11847
G1 X101.465 Y62.434 E0.14812
G1 X102.015 Y62.307 E0.17769
G1 X102.636 Y62.259 E0.21032
G1 X117.37 Y62.26 E0.98216
G1 X117.934 Y62.3 E1.01177
G1 X118.27 Y62.363 E1.02968
G1 X121 Y62.993 E1.17645
G1 X123.643 Y63.524 E1.31767
G1 X129.014 Y64.369 E1.60249
G1 X134.999 Y64.954 E1.91751
G1 X135.557 Y65.049 E1.94716
G1 X136.095 Y65.221 E1.97675
G1 X136.604 Y65.467 E2.00636
G1 X137.073 Y65.783 E2.03599
G1 X137.492 Y66.162 E2.06558
G1 X137.855 Y66.596 E2.09522
G1 X138.152 Y67.077 E2.12483
G1 X138.379 Y67.594 E2.15441
G1 X138.53 Y68.139 E2.18404
G1 X138.61 Y68.938 E2.2261
G1 X138.573 Y112.84 E4.5259
G1 X138.57 Y112.983 E4.53339
G1 X138.429 Y116.857 E4.73646
G1 X138.408 Y156.616 E6.81923
G1 X138.368 Y157.18 E6.84885
G1 X138.248 Y157.733 E6.87849
G1 X138.052 Y158.263 E6.90809
G1 X137.784 Y158.76 E6.93767
G1 X137.447 Y159.215 E6.96733
G1 X137.05 Y159.617 E6.99693
G1 X136.6 Y159.96 E7.02657
G1 X136.107 Y160.235 E7.05614
G1 X135.579 Y160.439 E7.08579
G1 X135.029 Y160.566 E7.11536
G1 X134.406 Y160.614 E7.14809
G1 X119.645 Y160.608 E7.92134
G1 X118.804 Y160.518 E7.96565
G1 X113.3 Y159.331 E8.2606
G1 X110.699 Y158.886 E8.39884
G1 X105.243 Y158.188 E8.68698
G1 X102.101 Y157.925 E8.85215
G1 X101.542 Y157.838 E8.88178
G1 X101.001 Y157.674 E8.9114
G1 X100.489 Y157.434 E8.94102
G1 X100.016 Y157.125 E8.97061
G1 X99.591 Y156.752 E9.00024
G1 X99.222 Y156.324 E9.02984
G1 X98.918 Y155.847 E9.05947
G1 X98.684 Y155.332 E9.0891
G1 X98.526 Y154.79 E9.11868
G1 X98.445 Y154.23 E9.14832
G1 X98.434 Y153.936 E9.16373
G1 X98.471 Y110.033 E11.46358
G1 X98.474 Y109.89 E11.47107
G1 X98.615 Y106.016 E11.67414
G1 X98.636 Y66.257 E13.7569
G1 X98.676 Y65.693 E13.78652
G1 X98.796 Y65.14 E13.81617
G1 X98.992 Y64.61 E13.84577
G1 X99.26 Y64.113 E13.87535
G0 F3000 X99.659 Y64.235
G1 F1200 X99.992 Y63.816 E13.90338
G1 X100.385 Y63.45 E13.93152
G1 X100.827 Y63.147 E13.95959
G1 X101.309 Y62.912 E13.98768
G1 X101.821 Y62.752 E14.01578
G1 X102.351 Y62.67 E14.04387
G1 X102.636 Y62.659 E14.05881
G1 X117.37 Y62.66 E14.83065
G1 X117.905 Y62.7 E14.85875
G1 X118.18 Y62.752 E14.87342
G1 X120.93 Y63.387 E15.02126
G1 X123.576 Y63.918 E15.16264
G1 X128.964 Y64.766 E15.44836
G1 X134.96 Y65.352 E15.76396
G1 X135.489 Y65.444 E15.79208
G1 X135.997 Y65.613 E15.82013
G1 X136.476 Y65.856 E15.84827
G1 X136.912 Y66.167 E15.87632
G1 X137.298 Y66.54 E15.90444
G1 X137.624 Y66.966 E15.93254
G1 X137.883 Y67.436 E15.96065
G1 X138.069 Y67.938 E15.9887
G1 X138.179 Y68.463 E16.01679
G1 X138.21 Y68.938 E16.04173
G1 X138.173 Y112.84 E18.34152
G1 X138.171 Y112.968 E18.34823
G1 X138.029 Y116.87 E18.55277
G1 X138.008 Y156.616 E20.63485
G1 X137.968 Y157.151 E20.66296
G1 X137.849 Y157.674 E20.69106
G1 X137.653 Y158.173 E20.71914
G1 X137.385 Y158.638 E20.74726
G1 X137.052 Y159.057 E20.77529
G1 X136.659 Y159.423 E20.80342
G1 X136.217 Y159.726 E20.8315
G1 X135.735 Y159.961 E20.85959
G1 X135.223 Y160.121 E20.88769
G1 X134.693 Y160.203 E20.91578
G1 X134.407 Y160.214 E20.93077
G1 X119.646 Y160.208 E21.70403
G1 X118.888 Y160.127 E21.74396
G1 X113.359 Y158.934 E22.04026
G1 X110.767 Y158.491 E22.17801
G1 X105.283 Y157.789 E22.46763
G1 X102.134 Y157.526 E22.63317
G1 X101.604 Y157.442 E22.66128
G1 X101.093 Y157.28 E22.68936
G1 X100.612 Y157.044 E22.71742
G1 X100.171 Y156.739 E22.74551
G1 X99.78 Y156.371 E22.77364
G1 X99.448 Y155.95 E22.80173
G1 X99.182 Y155.484 E22.82983
G1 X98.989 Y154.984 E22.85791
G1 X98.872 Y154.461 E22.88598
G1 X98.834 Y153.936 E22.91356
G1 X98.871 Y110.033 E25.21341
G1 X98.873 Y109.905 E25.22011
G1 X99.015 Y106.003 E25.42465
G1 X99.036 Y66.257 E27.50674
G1 X99.076 Y65.722 E27.53484
G1 X99.195 Y65.199 E27.56294
G1 X99.391 Y64.7 E27.59102
G1 X99.659 Y64.235 E27.61914
G0 F3000 X100.056 Y64.366
G1 F1200 X100.387 Y63.983 E27.64565
G1 X100.773 Y63.657 E27.67212
G1 X101.206 Y63.396 E27.69861
G1 X101.675 Y63.207 E27.72509
G1 X102.168 Y63.093 E27.7516
G1 X102.636 Y63.059 E27.77618
G1 X117.37 Y63.06 E28.54802
G1 X118.09 Y63.142 E28.58598
G1 X120.866 Y63.783 E28.73522
G1 X123.485 Y64.309 E28.87516
G1 X128.912 Y65.163 E29.16295
G1 X134.921 Y65.75 E29.47923
G1 X135.419 Y65.839 E29.50573
G1 X135.897 Y66.005 E29.53224
G1 X136.342 Y66.244 E29.5587
G1 X136.744 Y66.551 E29.58519
G1 X137.093 Y66.916 E29.61165
G1 X137.38 Y67.333 E29.63817
G1 X137.598 Y67.789 E29.66464
G1 X137.741 Y68.274 E29.69113
G1 X137.81 Y68.938 E29.7261
G1 X137.773 Y112.84 E32.0259
G1 X137.771 Y112.953 E32.03182
G1 X137.629 Y116.855 E32.23636
G1 X137.608 Y156.616 E34.31923
G1 X137.568 Y157.12 E34.34571
G1 X137.449 Y157.611 E34.37218
G1 X137.254 Y158.077 E34.39864
G1 X136.988 Y158.507 E34.42513
G1 X136.657 Y158.89 E34.45164
G1 X136.271 Y159.216 E34.47811
G1 X135.838 Y159.477 E34.5046
G1 X135.369 Y159.666 E34.53108
G1 X134.876 Y159.78 E34.55759
G1 X134.407 Y159.814 E34.58222
G1 X119.646 Y159.808 E35.35547
G1 X118.972 Y159.736 E35.39098
G1 X113.441 Y158.543 E35.68739
G1 X110.812 Y158.093 E35.82711
G1 X105.345 Y157.394 E36.11583
G1 X102.167 Y157.128 E36.28289
G1 X101.668 Y157.046 E36.30938
G1 X101.189 Y156.887 E36.33582
G1 X100.74 Y156.654 E36.36232
G1 X100.334 Y156.353 E36.38879
G1 X99.98 Y155.992 E36.41528
G1 X99.687 Y155.58 E36.44176
G1 X99.463 Y155.127 E36.46823
G1 X99.313 Y154.644 E36.49473
G1 X99.234 Y153.936 E36.53205
G1 X99.271 Y110.033 E38.83189
G1 X99.273 Y109.92 E38.83781
G1 X99.415 Y106.018 E39.04235
G1 X99.436 Y66.257 E41.12522
G1 X99.476 Y65.753 E41.15171
G1 X99.595 Y65.262 E41.17817
G1 X99.79 Y64.796 E41.20464
G1 X100.056 Y64.366 E41.23112
G1 F2700 E37.23112
G0 F3000 X118.028 Y65.597
G0 X127.044 Y69.124
;TYPE:SUPPORT
G1 F2700 E41.23112
G1 F1200 X134.419 Y69.124 E41.61746
G1 X134.419 Y111.798 E43.85293
G1 X127.044 Y111.798 E44.23926
G1 X127.044 Y69.124 E46.47473
G0 F3000 X129.842 Y77.31
G1 F1200 X129.418 Y77.484 E46.49874
G1 X129.031 Y77.723 E46.52256
G1 X128.687 Y78.017 E46.54627
G1 X128.393 Y78.361 E46.56997
G1 X128.154 Y78.748 E46.5938
G1 X127.98 Y79.172 E46.61781
G1 X127.875 Y79.609 E46.64135
G1 X127.839 Y80.061 E46.66511
G1 X127.875 Y80.513 E46.68886
G1 X127.98 Y80.95 E46.7124
G1 X128.154 Y81.374 E46.73641
G1 X128.393 Y81.761 E46.76024
G1 X128.687 Y82.105 E46.78394
G1 X129.031 Y82.399 E46.80765
G1 X129.418 Y82.638 E46.83148
G1 X129.841 Y82.812 E46.85544
G1 X130.275 Y82.916 E46.87881
G1 X130.731 Y82.954 E46.90279
G1 X131.187 Y82.916 E46.92676
G1 X131.622 Y82.812 E46.95018
G1 X132.045 Y82.638 E46.97415
G1 X132.431 Y82.399 E46.99793
G1 X132.775 Y82.105 E47.02163
G1 X133.069 Y81.761 E47.04534
G1 X133.308 Y81.374 E47.06917
G1 X133.482 Y80.951 E47.09313
G1 X133.586 Y80.517 E47.1165
G1 X133.624 Y80.061 E47.14047
G1 X133.586 Y79.605 E47.16444
G1 X133.482 Y79.171 E47.18782
G1 X133.308 Y78.748 E47.21178
G1 X133.069 Y78.361 E47.23561
G1 X132.775 Y78.017 E47.25932
G1 X132.431 Y77.723 E47.28302
G1 X132.045 Y77.484 E47.3068
G1 X131.622 Y77.31 E47.33076
G1 X131.182 Y77.205 E47.35446
G1 X130.731 Y77.169 E47.37816
G1 X130.279 Y77.205 E47.40191
G1 X129.842 Y77.31 E47.42546
G1 F2700 E43.42546
G0 F3000 X128.633 Y78.991
G0 X128.406 Y79.693
G0 X128.406 Y80.429
G0 X130.731 Y88.106
G1 F2700 E47.42546
G1 F1200 X130.275 Y88.144 E47.44943
G1 X129.84 Y88.248 E47.47286
G1 X129.421 Y88.422 E47.49662
G1 X129.031 Y88.659 E47.52053
G1 X128.686 Y88.954 E47.54431
G1 X128.393 Y89.299 E47.56802
G1 X128.154 Y89.684 E47.59176
G1 X127.979 Y90.109 E47.61583
G1 X127.875 Y90.548 E47.63947
G1 X127.839 Y90.999 E47.66317
G1 X127.875 Y91.451 E47.68692
G1 X127.98 Y91.888 E47.71047
G1 X128.154 Y92.313 E47.73452
G1 X128.393 Y92.698 E47.75826
G1 X128.686 Y93.043 E47.78197
G1 X129.031 Y93.338 E47.80575
G1 X129.421 Y93.575 E47.82966
G1 X129.84 Y93.749 E47.85342
G1 X130.275 Y93.853 E47.87685
G1 X130.731 Y93.891 E47.90082
G1 X131.187 Y93.853 E47.92479
G1 X131.622 Y93.749 E47.94822
G1 X132.042 Y93.576 E47.97202
G1 X132.432 Y93.336 E47.99601
G1 X132.776 Y93.043 E48.01968
G1 X133.069 Y92.698 E48.04339
G1 X133.308 Y92.313 E48.06713
G1 X133.482 Y91.889 E48.09114
G1 X133.586 Y91.455 E48.11451
G1 X133.624 Y90.999 E48.13848
G1 X133.586 Y90.543 E48.16245
G1 X133.482 Y90.109 E48.18583
G1 X133.308 Y89.684 E48.20989
G1 X133.069 Y89.299 E48.23363
G1 X132.776 Y88.954 E48.25734
G1 X132.432 Y88.661 E48.28101
G1 X132.042 Y88.421 E48.305
G1 X131.622 Y88.248 E48.32879
G1 X131.187 Y88.144 E48.35222
G1 X130.731 Y88.106 E48.37619
G1 F2700 E44.37619
G0 F3000 X132.396 Y89.334
G0 X132.828 Y89.928
G0 X133.056 Y90.629
G0 X133.056 Y91.369
G0 X130.731 Y99.044
G1 F2700 E48.37619
G1 F1200 X130.279 Y99.08 E48.39995
G1 X129.842 Y99.185 E48.42349
G1 X129.418 Y99.359 E48.4475
G1 X129.031 Y99.598 E48.47133
G1 X128.687 Y99.892 E48.49503
G1 X128.393 Y100.236 E48.51874
G1 X128.154 Y100.623 E48.54256
G1 X127.98 Y101.047 E48.56657
G1 X127.875 Y101.484 E48.59012
G1 X127.839 Y101.936 E48.61387
G1 X127.875 Y102.388 E48.63762
G1 X127.98 Y102.825 E48.66116
G1 X128.154 Y103.249 E48.68517
G1 X128.393 Y103.636 E48.709
G1 X128.687 Y103.98 E48.73271
G1 X129.031 Y104.274 E48.75641
G1 X129.418 Y104.513 E48.78024
G1 X129.841 Y104.687 E48.8042
G1 X130.275 Y104.791 E48.82758
G1 X130.731 Y104.829 E48.85155
G1 X131.187 Y104.791 E48.87552
G1 X131.622 Y104.687 E48.89895
G1 X132.045 Y104.513 E48.92291
G1 X132.431 Y104.274 E48.94669
G1 X132.775 Y103.98 E48.97039
G1 X133.069 Y103.636 E48.9941
G1 X133.308 Y103.249 E49.01793
G1 X133.482 Y102.826 E49.04189
G1 X133.586 Y102.392 E49.06527
G1 X133.624 Y101.936 E49.08924
G1 X133.586 Y101.48 E49.11321
G1 X133.482 Y101.046 E49.13659
G1 X133.308 Y100.623 E49.16055
G1 X133.069 Y100.236 E49.18437
G1 X132.775 Y99.892 E49.20808
G1 X132.431 Y99.598 E49.23178
G1 X132.045 Y99.359 E49.25557
G1 X131.622 Y99.185 E49.27953
G1 X131.182 Y99.08 E49.30322
G1 X130.731 Y99.044 E49.32692
G0 F3000 X130.634 Y98.892
G1 F1200 X130.634 Y94.043 E49.58094
G0 F3000 X128.754 Y93.31
G1 F1200 X127.204 Y93.31 E49.66213
G0 F3000 X127.968 Y92.282
G1 F1200 X127.968 Y100.655 E50.10075
G0 F3000 X127.752 Y101.308
G1 F1200 X127.204 Y101.308 E50.12946
G0 F3000 X127.968 Y103.218
G1 F1200 X127.968 Y111.638 E50.57054
G0 F3000 X127.204 Y109.306
G1 F1200 X134.259 Y109.306 E50.94011
G0 F3000 X133.3 Y111.638
G1 F1200 X133.3 Y103.566 E51.36296
G0 F3000 X132.991 Y103.974
G1 F1200 X134.259 Y103.974 E51.42938
G0 F3000 X134.259 Y101.308
G1 F1200 X133.709 Y101.308 E51.45819
G0 F3000 X133.3 Y100.305
G1 F1200 X133.3 Y92.628 E51.86035
G0 F3000 X132.71 Y93.31
G1 F1200 X134.259 Y93.31 E51.9415
G0 F3000 X134.259 Y90.644
G1 F1200 X133.754 Y90.644 E51.96795
G0 F3000 X133.3 Y89.367
G1 F1200 X133.3 Y81.691 E52.37006
G0 F3000 X134.259 Y82.646
G1 F1200 X132.335 Y82.646 E52.47084
G0 F3000 X130.634 Y83.106
G1 F1200 X130.634 Y87.955 E52.72486
G0 F3000 X130.334 Y87.978
G1 F1200 X127.204 Y87.978 E52.88882
G0 F3000 X127.968 Y89.717
G1 F1200 X127.968 Y81.343 E53.32749
G0 F3000 X127.685 Y79.98
G1 F1200 X127.204 Y79.98 E53.35269
G0 F3000 X127.968 Y78.78
G1 F1200 X127.968 Y69.284 E53.85013
G0 F3000 X127.204 Y69.316
G1 F1200 X134.259 Y69.316 E54.21971
G0 F3000 X133.3 Y69.284
G1 F1200 X133.3 Y78.43 E54.69882
G0 F3000 X134.259 Y77.314
G1 F1200 X132.052 Y77.314 E54.81443
G0 F3000 X130.634 Y77.017
G1 F1200 X130.634 Y69.284 E55.21952
G0 F3000 X127.204 Y71.982
G1 F1200 X134.259 Y71.982 E55.5891
G0 F3000 X134.259 Y74.648
G1 F1200 X127.204 Y74.648 E55.95867
G0 F3000 X127.204 Y77.314
G1 F1200 X129.408 Y77.314 E56.07413
G1 F2700 E52.07413
G0 F3000 X131.456 Y77.82
G0 X132.114 Y78.157
G0 X132.635 Y78.678
G0 X133.777 Y79.98
G1 F2700 E56.07413
G1 F1200 X134.259 Y79.98 E56.09938
G1 F2700 E52.09938
G0 F3000 X132.114 Y81.965
G0 X131.456 Y82.301
G0 X129.129 Y82.646
G1 F2700 E56.09938
G1 F1200 X127.204 Y82.646 E56.20022
G0 F3000 X127.204 Y85.312
G1 F1200 X134.259 Y85.312 E56.56979
G0 F3000 X134.259 Y87.978
G1 F1200 X131.127 Y87.978 E56.73386
G1 F2700 E52.73386
G0 F3000 X129.347 Y89.094
G0 X127.707 Y90.644
G1 F2700 E56.73386
G1 F1200 X127.204 Y90.644 E56.76021
G0 F3000 X127.204 Y95.976
G1 F1200 X134.259 Y95.976 E57.12978
G0 F3000 X134.259 Y98.642
G1 F1200 X127.204 Y98.642 E57.49936
G0 F3000 X127.204 Y103.974
G1 F1200 X128.472 Y103.974 E57.56578
G0 F3000 X130.634 Y104.981
G1 F1200 X130.634 Y111.638 E57.91451
G0 F3000 X127.204 Y106.64
G1 F1200 X134.259 Y106.64 E58.28408
G1 F2700 E54.28408
G0 F3000 X118.028 Y110.528
G0 X110 Y111.075
G1 F2700 E58.28408
G1 F1200 X110 Y153.75 E60.5196
G1 X102.625 Y153.75 E60.90593
G1 X102.625 Y111.075 E63.14145
G1 X110 Y111.075 E63.52779
G0 F3000 X107.202 Y118.186
G1 F1200 X106.765 Y118.081 E63.55133
G1 X106.313 Y118.045 E63.57509
G1 X105.861 Y118.081 E63.59884
G1 X105.424 Y118.186 E63.62238
G1 X105 Y118.36 E63.64639
G1 X104.613 Y118.599 E63.67022
G1 X104.269 Y118.893 E63.69392
G1 X103.975 Y119.237 E63.71763
G1 X103.736 Y119.624 E63.74146
G1 X103.562 Y120.047 E63.76542
G1 X103.458 Y120.481 E63.78879
G1 X103.42 Y120.937 E63.81276
G1 X103.458 Y121.393 E63.83674
G1 X103.562 Y121.827 E63.86011
G1 X103.736 Y122.25 E63.88407
G1 X103.975 Y122.637 E63.9079
G1 X104.269 Y122.981 E63.93161
G1 X104.613 Y123.275 E63.95531
G1 X105 Y123.514 E63.97914
G1 X105.423 Y123.688 E64.0031
G1 X105.857 Y123.792 E64.02648
G1 X106.313 Y123.83 E64.05045
G1 X106.769 Y123.792 E64.07442
G1 X107.203 Y123.688 E64.0978
G1 X107.626 Y123.514 E64.12176
G1 X108.013 Y123.275 E64.14558
G1 X108.357 Y122.981 E64.16929
G1 X108.651 Y122.637 E64.19299
G1 X108.89 Y122.25 E64.21682
G1 X109.064 Y121.826 E64.24083
G1 X109.169 Y121.389 E64.26437
G1 X109.205 Y120.937 E64.28813
G1 X109.169 Y120.485 E64.31188
G1 X109.064 Y120.048 E64.33542
G1 X108.89 Y119.624 E64.35943
G1 X108.651 Y119.237 E64.38326
G1 X108.357 Y118.893 E64.40696
G1 X108.013 Y118.599 E64.43067
G1 X107.626 Y118.36 E64.4545
G1 X107.202 Y118.186 E64.4785
G1 F2700 E60.4785
G0 F3000 X108.411 Y119.867
G0 X108.638 Y120.569
G0 X108.638 Y121.305
G0 X106.313 Y128.982
G1 F2700 E64.4785
G1 F1200 X105.857 Y129.02 E64.50247
G1 X105.422 Y129.124 E64.5259
G1 X105.003 Y129.298 E64.54967
G1 X104.613 Y129.535 E64.57358
G1 X104.268 Y129.83 E64.59736
G1 X103.975 Y130.175 E64.62107
G1 X103.736 Y130.56 E64.64481
G1 X103.562 Y130.985 E64.66886
G1 X103.458 Y131.419 E64.69224
G1 X103.42 Y131.875 E64.71621
G1 X103.458 Y132.33 E64.74013
G1 X103.562 Y132.764 E64.76351
G1 X103.736 Y133.189 E64.78757
G1 X103.975 Y133.574 E64.8113
G1 X104.268 Y133.919 E64.83501
G1 X104.613 Y134.214 E64.85879
G1 X105.003 Y134.451 E64.8827
G1 X105.422 Y134.625 E64.90647
G1 X105.857 Y134.729 E64.9299
G1 X106.313 Y134.767 E64.95387
G1 X106.769 Y134.729 E64.97784
G1 X107.204 Y134.625 E65.00127
G1 X107.623 Y134.451 E65.02503
G1 X108.013 Y134.214 E65.04894
G1 X108.358 Y133.919 E65.07272
G1 X108.651 Y133.574 E65.09643
G1 X108.89 Y133.189 E65.12017
G1 X109.065 Y132.764 E65.14424
G1 X109.169 Y132.326 E65.16783
G1 X109.205 Y131.875 E65.19153
G1 X109.169 Y131.424 E65.21523
G1 X109.065 Y130.985 E65.23886
G1 X108.89 Y130.56 E65.26294
G1 X108.651 Y130.175 E65.28668
G1 X108.358 Y129.83 E65.31039
G1 X108.013 Y129.535 E65.33417
G1 X107.623 Y129.298 E65.35807
G1 X107.204 Y129.124 E65.38184
G1 X106.769 Y129.02 E65.40527
G1 X106.313 Y128.982 E65.42924
G1 F2700 E61.42924
G0 F3000 X107.978 Y130.21
G0 X108.41 Y130.804
G0 X108.638 Y131.507
G0 X108.638 Y132.242
G0 X106.313 Y139.92
G1 F2700 E65.42924
G1 F1200 X105.861 Y139.956 E65.45299
G1 X105.424 Y140.061 E65.47654
G1 X105 Y140.235 E65.50054
G1 X104.613 Y140.474 E65.52437
G1 X104.269 Y140.768 E65.54808
G1 X103.975 Y141.112 E65.57178
G1 X103.736 Y141.499 E65.59561
G1 X103.562 Y141.922 E65.61957
