;FLAVOR:RepRap
;TIME:2436
;Filament used: 1.94859m
;Layer height: 0.2
;Generated with Cura_SteamEngine 2.4.0
M190 S60
M104 S195
M109 S195
G21 ;metric values
G90 ;absolute positioning
M82 ;set extruder to absolute mode
M107 ;start with the fan off
G28 X0 Y0 ;move X/Y to min endstops
G28 Z0 ;move Z to min endstops
G1 Z15.0 F9000 ;move the platform down 15mm
G92 E0 ;zero the extruded length
G1 F200 E3 ;extrude 3mm of feed stock
G92 E0 ;zero the extruded length again
G1 F9000;Put printing message on LCD screen
M117 Printing...
;LAYER_COUNT:95
;LAYER:0
M107
G1 F2700 E-4
G0 F3000 X94.093 Y103.138 Z0.3
;TYPE:SKIRT
G1 F2700 E0
G1 F1200 X95.395 Y102.042 E0.08915
G1 X95.798 Y101.744 E0.11541
G1 X97.237 Y100.813 E0.20519
G1 X97.634 Y100.587 E0.22912
G1 X98.673 Y100.072 E0.28987
G1 X99.024 Y99.918 E0.30995
G1 X100.582 Y99.324 E0.39729
G1 X101.054 Y99.177 E0.42319
G1 X102.7 Y98.773 E0.51197
G1 X102.938 Y98.722 E0.52473
G1 X108.155 Y97.774 E0.80249
G1 X113.454 Y96.528 E1.08765
G1 X116.043 Y95.803 E1.22849
G1 X121.25 Y94.101 E1.51546
G1 X123.783 Y93.152 E1.65716
G1 X126.249 Y92.147 E1.79665
G1 X132.44 Y89.273 E2.15421
G1 X132.968 Y89.072 E2.1838
G1 X133.519 Y88.947 E2.2134
G1 X134.083 Y88.901 E2.24305
G1 X134.647 Y88.935 E2.27264
G1 X135.201 Y89.049 E2.30227
G1 X135.733 Y89.239 E2.33187
G1 X136.234 Y89.502 E2.36151
G1 X136.692 Y89.834 E2.39114
G1 X137.029 Y90.151 E2.41538
G1 X137.454 Y90.6 E2.44776
G1 X137.813 Y91.037 E2.47739
G1 X138.106 Y91.52 E2.50698
G1 X138.328 Y92.04 E2.5366
G1 X138.475 Y92.586 E2.56622
G1 X138.544 Y93.147 E2.59583
G1 X138.533 Y93.713 E2.62549
G1 X138.396 Y94.446 E2.66455
G1 X136.532 Y100.99 E3.02099
G1 X135.358 Y106.316 E3.30669
G1 X134.898 Y108.94 E3.44624
G1 X134.184 Y114.323 E3.7307
G1 X133.77 Y119.813 E4.01911
G1 X133.607 Y123.439 E4.20925
G1 X133.542 Y124.001 E4.23888
G1 X133.417 Y124.492 E4.26542
G1 X133.081 Y125.53 E4.32258
G1 X132.76 Y126.261 E4.3644
G1 X132.439 Y126.831 E4.39867
G1 X132.036 Y127.417 E4.43592
G1 X131.448 Y128.128 E4.48426
G1 X131.058 Y128.537 E4.51386
G1 X130.785 Y128.764 E4.53246
G1 X129.887 Y129.446 E4.59153
G1 X129.414 Y129.756 E4.62116
G1 X129.019 Y129.948 E4.64416
G1 X128.011 Y130.372 E4.70145
G1 X127.476 Y130.554 E4.73105
G1 X127.092 Y130.635 E4.75161
G1 X126.161 Y130.784 E4.801
G1 X125.661 Y130.832 E4.82731
G1 X113.966 Y131.219 E5.44029
G1 X113.834 Y131.221 E5.4472
G1 X91.993 Y131.222 E6.59134
G1 X91.429 Y131.182 E6.62096
G1 X91.091 Y131.119 E6.63897
G1 X90.482 Y130.978 E6.67171
G1 X89.872 Y130.784 E6.70525
G1 X88.775 Y130.336 E6.76732
G1 X88.217 Y130.056 E6.80002
G1 X87.347 Y129.53 E6.85328
G1 X86.683 Y129.027 E6.89692
G1 X85.554 Y127.97 E6.97793
G1 X85.076 Y127.434 E7.01556
G1 X84.534 Y126.704 E7.06318
G1 X84.126 Y126.021 E7.10486
G1 X83.437 Y124.555 E7.18972
G1 X83.233 Y124.028 E7.21932
G1 X83.131 Y123.62 E7.24135
G1 X82.837 Y122.114 E7.32173
G1 X82.764 Y121.424 E7.35808
G1 X82.749 Y120.638 E7.39926
G1 X82.77 Y120.141 E7.42532
G1 X82.859 Y119.301 E7.46957
G1 X82.945 Y118.798 E7.4963
G1 X83.131 Y118.015 E7.53846
G1 X83.278 Y117.532 E7.5649
G1 X83.574 Y116.744 E7.609
G1 X83.79 Y116.268 E7.63638
G1 X84.229 Y115.445 E7.68525
G1 X84.675 Y114.779 E7.72723
G1 X88.246 Y110.459 E8.02084
G1 X91.966 Y105.513 E8.34504
G1 X92.154 Y105.281 E8.36068
G1 X93.66 Y103.562 E8.4804
G1 X94.093 Y103.138 E8.51215
G0 F3000 X94.351 Y103.444
G1 F1200 X95.653 Y102.348 E8.6013
G1 X96.015 Y102.079 E8.62493
G1 X97.454 Y101.148 E8.71471
G1 X97.811 Y100.945 E8.73622
G1 X98.85 Y100.43 E8.79697
G1 X99.167 Y100.292 E8.81508
G1 X100.725 Y99.698 E8.90243
G1 X101.149 Y99.566 E8.92569
G1 X102.795 Y99.162 E9.01448
G1 X103.009 Y99.116 E9.02594
G1 X108.244 Y98.165 E9.30466
G1 X113.556 Y96.916 E9.59052
G1 X116.141 Y96.191 E9.73116
G1 X121.396 Y94.474 E10.02076
G1 X123.897 Y93.538 E10.16065
G1 X126.415 Y92.511 E10.30311
G1 X132.608 Y89.636 E10.66078
G1 X133.11 Y89.447 E10.68888
G1 X133.634 Y89.334 E10.71696
G1 X134.17 Y89.301 E10.74509
G1 X134.704 Y89.348 E10.77317
G1 X135.225 Y89.474 E10.80125
G1 X135.722 Y89.675 E10.82933
G1 X136.184 Y89.948 E10.85745
G1 X136.739 Y90.426 E10.89582
G1 X137.164 Y90.875 E10.9282
G1 X137.502 Y91.291 E10.95628
G1 X137.775 Y91.753 E10.98439
G1 X137.977 Y92.25 E11.0125
G1 X138.102 Y92.771 E11.04056
G1 X138.149 Y93.305 E11.06864
G1 X138.115 Y93.841 E11.09678
G1 X138.011 Y94.336 E11.12327
G1 X136.148 Y100.876 E11.4795
G1 X134.962 Y106.257 E11.76815
G1 X134.505 Y108.861 E11.90664
G1 X133.785 Y114.294 E12.19374
G1 X133.37 Y119.798 E12.48288
G1 X133.207 Y123.421 E12.67286
G1 X133.143 Y123.954 E12.70098
G1 X133.036 Y124.369 E12.72343
G1 X132.7 Y125.407 E12.78059
G1 X132.412 Y126.065 E12.81821
G1 X132.091 Y126.635 E12.85248
G1 X131.728 Y127.162 E12.886
G1 X131.14 Y127.873 E12.93434
G1 X130.769 Y128.26 E12.96242
G1 X130.543 Y128.446 E12.97775
G1 X129.645 Y129.128 E13.03682
G1 X129.195 Y129.42 E13.06492
G1 X128.864 Y129.579 E13.08416
G1 X127.856 Y130.003 E13.14145
G1 X127.347 Y130.174 E13.16957
G1 X127.029 Y130.24 E13.18659
G1 X126.098 Y130.389 E13.23598
G1 X125.648 Y130.432 E13.25966
G1 X113.953 Y130.819 E13.87263
G1 X113.834 Y130.821 E13.87887
G1 X91.993 Y130.822 E15.023
G1 X91.458 Y130.782 E15.05111
G1 X91.181 Y130.729 E15.06588
G1 X90.572 Y130.588 E15.09863
G1 X90.023 Y130.414 E15.1288
G1 X88.926 Y129.966 E15.19087
G1 X88.424 Y129.714 E15.22029
G1 X87.554 Y129.188 E15.27355
G1 X86.957 Y128.735 E15.31281
G1 X85.828 Y127.678 E15.39383
G1 X85.398 Y127.196 E15.42766
G1 X84.856 Y126.466 E15.47529
G1 X84.488 Y125.851 E15.51283
G1 X83.799 Y124.385 E15.59769
G1 X83.608 Y123.884 E15.62578
G1 X83.524 Y123.544 E15.64412
G1 X83.23 Y122.038 E15.7245
G1 X83.164 Y121.417 E15.75722
G1 X83.149 Y120.631 E15.7984
G1 X83.168 Y120.183 E15.82189
G1 X83.257 Y119.343 E15.86614
G1 X83.334 Y118.89 E15.89021
G1 X83.52 Y118.107 E15.93237
G1 X83.653 Y117.673 E15.95615
G1 X83.949 Y116.885 E16.00024
G1 X84.143 Y116.457 E16.02486
G1 X84.582 Y115.634 E16.07372
G1 X84.983 Y115.034 E16.11152
G1 X88.562 Y110.705 E16.40576
G1 X92.286 Y105.753 E16.73034
G1 X92.455 Y105.545 E16.74438
G1 X93.961 Y103.826 E16.8641
G1 X94.351 Y103.444 E16.8927
G0 F3000 X94.608 Y103.75
G1 F1200 X95.91 Y102.654 E16.98185
G1 X96.233 Y102.415 E17.0029
G1 X97.672 Y101.484 E17.09268
G1 X97.989 Y101.304 E17.11178
G1 X99.028 Y100.789 E17.17252
G1 X99.309 Y100.666 E17.18859
G1 X100.867 Y100.072 E17.27594
G1 X101.244 Y99.954 E17.29663
G1 X102.89 Y99.55 E17.38542
G1 X103.081 Y99.51 E17.39564
G1 X108.31 Y98.56 E17.67404
G1 X113.659 Y97.302 E17.96189
G1 X116.254 Y96.575 E18.10307
G1 X121.52 Y94.854 E18.39328
G1 X124.081 Y93.895 E18.53654
G1 X126.573 Y92.879 E18.67751
G1 X132.777 Y89.999 E19.03582
G1 X133.25 Y89.823 E19.06225
G1 X133.746 Y89.723 E19.08876
G1 X134.251 Y89.704 E19.11523
G1 X134.753 Y89.764 E19.14172
G1 X135.24 Y89.902 E19.16823
G1 X135.698 Y90.115 E19.19469
G1 X136.117 Y90.398 E19.22118
G1 X136.448 Y90.701 E19.24469
G1 X136.873 Y91.15 E19.27707
G1 X137.19 Y91.544 E19.30356
G1 X137.442 Y91.982 E19.33004
G1 X137.621 Y92.455 E19.35653
G1 X137.724 Y92.95 E19.38301
G1 X137.747 Y93.455 E19.4095
G1 X137.691 Y93.957 E19.43596
G1 X137.627 Y94.227 E19.45049
G1 X135.756 Y100.797 E19.80834
G1 X134.571 Y106.171 E20.09662
G1 X134.108 Y108.813 E20.23713
G1 X133.388 Y114.246 E20.52423
G1 X132.972 Y119.749 E20.81332
G1 X132.808 Y123.404 E21.00498
G1 X132.745 Y123.905 E21.03143
G1 X132.655 Y124.245 E21.04986
G1 X132.319 Y125.283 E21.10701
G1 X132.063 Y125.868 E21.14046
G1 X131.742 Y126.438 E21.17473
G1 X131.42 Y126.907 E21.20453
G1 X130.832 Y127.618 E21.25286
G1 X130.301 Y128.127 E21.29139
G1 X129.403 Y128.809 E21.35046
G1 X128.978 Y129.082 E21.37692
G1 X128.709 Y129.211 E21.39255
G1 X127.701 Y129.635 E21.44984
G1 X127.221 Y129.793 E21.47631
G1 X126.966 Y129.845 E21.48994
G1 X126.035 Y129.994 E21.53933
G1 X125.635 Y130.032 E21.56038
G1 X113.94 Y130.419 E22.17336
G1 X113.834 Y130.421 E22.17891
G1 X91.993 Y130.422 E23.32304
G1 X91.271 Y130.34 E23.36111
G1 X90.662 Y130.199 E23.39386
G1 X90.174 Y130.043 E23.42069
G1 X89.077 Y129.595 E23.48277
G1 X88.631 Y129.371 E23.50891
G1 X87.761 Y128.845 E23.56217
G1 X87.23 Y128.443 E23.59706
G1 X86.101 Y127.386 E23.67807
G1 X85.719 Y126.958 E23.70813
G1 X85.177 Y126.228 E23.75576
G1 X84.85 Y125.681 E23.78914
G1 X84.161 Y124.215 E23.87399
G1 X83.983 Y123.742 E23.90047
G1 X83.916 Y123.467 E23.9153
G1 X83.622 Y121.961 E23.99568
G1 X83.564 Y121.409 E24.02475
G1 X83.549 Y120.623 E24.06593
G1 X83.566 Y120.225 E24.0868
G1 X83.655 Y119.385 E24.13105
G1 X83.724 Y118.982 E24.15247
G1 X83.91 Y118.199 E24.19463
G1 X84.027 Y117.814 E24.21571
G1 X84.323 Y117.026 E24.2598
G1 X84.496 Y116.645 E24.28172
G1 X84.935 Y115.822 E24.33058
G1 X85.292 Y115.289 E24.36419
G1 X88.876 Y110.953 E24.65888
G1 X92.606 Y105.994 E24.98394
G1 X92.756 Y105.808 E24.99645
G1 X94.262 Y104.089 E25.11617
G1 X94.608 Y103.75 E25.14155
G1 F2700 E21.14155
G0 F3000 X104.27 Y101.864
G0 X106.065 Y101.751
G0 X107.861 Y101.864
G0 X109.617 Y102.198
G0 X111.322 Y102.753
G0 X118.44 Y106.204
;TYPE:SUPPORT
G1 F2700 E25.14155
G1 F1200 X119.597 Y104.883 E25.23354
G1 X122.652 Y101.824 E25.46001
G1 X125.418 Y99.384 E25.65323
G1 X125.461 Y99.002 E25.67336
G1 X125.948 Y98.624 E25.70566
G1 X126.345 Y98.613 E25.72646
G1 X129.399 Y96.244 E25.92894
G1 X133.117 Y93.716 E26.16446
G1 X134.088 Y93.14 E26.2236
G1 X134.309 Y93.373 E26.24042
G1 X133.879 Y94.002 E26.28034
G1 X131.188 Y97.469 E26.51024
G1 X128.675 Y100.317 E26.70921
G1 X128.64 Y100.715 E26.73014
G1 X128.247 Y101.16 E26.76124
G1 X127.854 Y101.188 E26.78188
G1 X125.136 Y103.907 E26.98328
G1 X121.182 Y107.39 E27.25931
G1 X121.033 Y107.361 E27.26726
G1 X119.932 Y107.292 E27.32505
G1 X119.261 Y107.332 E27.36026
G1 X118.44 Y106.204 E27.43334
G0 F3000 X118.953 Y106.64
G1 F1200 X121.79 Y106.64 E27.58196
G0 F3000 X122.636 Y105.897
G1 F1200 X122.636 Y102.067 E27.78259
G0 F3000 X123.48 Y101.308
G1 F1200 X127.506 Y101.308 E27.99349
G0 F3000 X127.968 Y101.02
G1 F1200 X127.968 Y97.555 E28.17501
G0 F3000 X126.567 Y98.642
G1 F1200 X129.938 Y98.642 E28.35159
G0 F3000 X130.634 Y97.855
G1 F1200 X130.634 Y95.597 E28.46988
G0 F3000 X130.077 Y95.976
G1 F1200 X132.144 Y95.976 E28.57816
G0 F3000 X133.3 Y94.489
G1 F1200 X133.3 Y93.793 E28.61462
G0 F3000 X125.302 Y99.701
G1 F1200 X125.302 Y103.513 E28.81431
G0 F3000 X124.816 Y103.974
G1 F1200 X120.731 Y103.974 E29.0283
G0 F3000 X119.97 Y104.736
G1 F1200 X119.97 Y107.133 E29.15387
G1 F2700 E25.15387
G0 F3000 X119.853 Y108.836
G0 X119.93 Y110.117
G0 X117.8 Y110.576
G0 X117.836 Y110.484
;TYPE:WALL-INNER
G1 F2700 E29.15387
G1 F1200 X118.425 Y110.293 E29.1863
G1 X119.184 Y110.142 E29.22684
G1 X119.93 Y110.097 E29.26599
G1 X120.678 Y110.144 E29.30525
G1 X121.409 Y110.284 E29.34424
G1 X122.11 Y110.509 E29.38281
G1 X122.795 Y110.833 E29.4225
G1 X123.424 Y111.233 E29.46155
G1 X123.995 Y111.703 E29.50029
G1 X124.504 Y112.246 E29.53928
G1 X124.945 Y112.855 E29.57867
G1 X125.305 Y113.506 E29.61764
G1 X125.575 Y114.194 E29.65636
G1 X125.763 Y114.924 E29.69584
G1 X125.856 Y115.656 E29.7345
G1 X125.856 Y116.409 E29.77394
G1 X125.763 Y117.141 E29.8126
G1 X125.463 Y118.28 E29.8743
G1 X125.447 Y118.339 E29.8775
G1 X125.432 Y118.399 E29.88074
G1 X125.389 Y118.562 E29.88957
G1 X125.51 Y118.585 E29.89602
G1 X126.212 Y118.718 E29.93345
G1 X126.736 Y118.897 E29.96246
G1 X127.11 Y119.073 E29.98411
G1 X127.518 Y119.331 E30.0094
G1 X127.889 Y119.638 E30.03463
G1 X128.216 Y119.988 E30.05972
G1 X128.524 Y120.421 E30.08755
G1 X128.732 Y120.8 E30.1102
G1 X128.91 Y121.249 E30.1355
G1 X129.03 Y121.716 E30.16076
G1 X129.089 Y122.189 E30.18573
G1 X129.089 Y122.675 E30.21119
G1 X129.03 Y123.148 E30.23616
G1 X128.911 Y123.611 E30.2612
G1 X128.731 Y124.066 E30.28683
G1 X128.462 Y124.541 E30.31543
G1 X128.215 Y124.878 E30.33732
G1 X127.889 Y125.227 E30.36234
G1 X127.518 Y125.534 E30.38756
G1 X127.11 Y125.792 E30.41285
G1 X126.673 Y125.997 E30.43813
G1 X126.217 Y126.146 E30.46326
G1 X125.752 Y126.234 E30.48806
G1 X125.316 Y126.261 E30.51094
G1 X118.868 Y126.413 E30.84881
G1 X113.835 Y126.486 E31.11249
G1 X113.604 Y126.633 E31.12683
G1 X92.052 Y126.633 E32.25583
G1 X91.786 Y126.583 E32.27001
G1 X91.081 Y126.352 E32.30887
G1 X90.402 Y126.033 E32.34817
G1 X89.778 Y125.639 E32.38683
G1 X89.201 Y125.161 E32.42608
G1 X88.695 Y124.619 E32.46492
G1 X88.25 Y124.009 E32.50447
G1 X87.895 Y123.364 E32.54304
G1 X87.621 Y122.671 E32.58208
G1 X87.434 Y121.938 E32.62171
G1 X87.341 Y121.207 E32.66031
G1 X87.34 Y120.456 E32.69965
G1 X87.433 Y119.728 E32.7381
G1 X87.62 Y118.995 E32.77772
G1 X87.895 Y118.302 E32.81678
G1 X88.252 Y117.654 E32.85554
G1 X88.695 Y117.045 E32.89499
G1 X89.204 Y116.501 E32.93401
G1 X89.771 Y116.032 E32.97256
G1 X90.401 Y115.634 E33.0116
G1 X91.088 Y115.309 E33.05141
G1 X91.782 Y115.084 E33.08963
G1 X92.531 Y114.942 E33.12956
G1 X93.113 Y114.898 E33.16014
G1 X93.28 Y113.602 E33.22859
G1 X93.688 Y112.005 E33.31493
G1 X94.288 Y110.49 E33.40029
G1 X95.076 Y109.056 E33.48601
G1 X96.033 Y107.742 E33.57116
G1 X97.159 Y106.542 E33.65736
G1 X98.414 Y105.502 E33.74275
G1 X99.796 Y104.626 E33.82846
G1 X101.276 Y103.93 E33.91414
G1 X102.826 Y103.426 E33.99952
G1 X104.43 Y103.12 E34.08506
G1 X106.065 Y103.018 E34.17087
G1 X107.701 Y103.12 E34.25674
G1 X109.305 Y103.426 E34.34228
G1 X110.854 Y103.93 E34.42761
G1 X112.334 Y104.626 E34.51329
G1 X113.716 Y105.502 E34.599
G1 X114.971 Y106.542 E34.68438
G1 X116.093 Y107.737 E34.77025
G1 X117.058 Y109.065 E34.85625
G1 X117.836 Y110.484 E34.94102
G0 F3000 X117.8 Y110.576
G0 X117.252 Y116.483
G0 X117.182 Y116.553
G1 F1200 X115.244 Y116.553 E35.04254
G1 X111.484 Y122.105 E35.3938
G1 X111.484 Y123.645 E35.47447
G1 X115.058 Y123.645 E35.6617
G1 X115.058 Y125.433 E35.75536
G1 X117.182 Y125.433 E35.86662
G1 X117.182 Y123.645 E35.96029
G1 X117.966 Y123.645 E36.00136
G1 X118.015 Y123.789 E36.00933
G1 X118.361 Y124.346 E36.04368
G1 X118.83 Y124.804 E36.07802
G1 X119.406 Y125.149 E36.11319
G1 X120.067 Y125.384 E36.14994
G1 X120.809 Y125.518 E36.18944
G1 X121.622 Y125.561 E36.23208
G1 X122.082 Y125.548 E36.25619
G1 X122.481 Y125.512 E36.27718
G1 X122.889 Y125.446 E36.29883
G1 X123.272 Y125.352 E36.31949
G1 X123.636 Y125.229 E36.33961
G1 X123.976 Y125.07 E36.35928
G1 X124.29 Y124.879 E36.37853
G1 X124.606 Y124.623 E36.39983
G1 X124.85 Y124.362 E36.41855
G1 X125.05 Y124.07 E36.43709
G1 X125.205 Y123.755 E36.45548
G1 X125.313 Y123.416 E36.47412
G1 X125.374 Y123.064 E36.49283
G1 X125.393 Y122.717 E36.51104
G1 X125.381 Y122.428 E36.52619
G1 X125.343 Y122.155 E36.54063
G1 X125.277 Y121.893 E36.55478
G1 X125.189 Y121.657 E36.56798
G1 X125.08 Y121.436 E36.58088
G1 X124.948 Y121.229 E36.59375
G1 X124.793 Y121.036 E36.60671
G1 X124.56 Y120.812 E36.62364
G1 X124.366 Y120.663 E36.63646
G1 X124.083 Y120.493 E36.65375
G1 X123.696 Y120.307 E36.67625
G1 X123.393 Y120.192 E36.69322
G1 X123.075 Y120.089 E36.71073
G1 X121.528 Y119.711 E36.79416
G1 X121.096 Y119.597 E36.81756
G1 X120.832 Y119.511 E36.83211
G1 X120.665 Y119.437 E36.84167
G1 X120.553 Y119.371 E36.84848
G1 X120.473 Y119.309 E36.85379
G1 X120.406 Y119.239 E36.85886
G1 X120.38 Y119.187 E36.86191
G1 X120.365 Y119.125 E36.86525
G1 X120.358 Y119.02 E36.87076
G1 X120.363 Y118.93 E36.87548
G1 X120.404 Y118.789 E36.88318
G1 X120.457 Y118.71 E36.88816
G1 X120.56 Y118.624 E36.89519
G1 X120.644 Y118.577 E36.90023
G1 X120.756 Y118.53 E36.90659
G1 X120.893 Y118.488 E36.9141
G1 X121.034 Y118.456 E36.92167
G1 X121.216 Y118.431 E36.9313
G1 X121.415 Y118.415 E36.94176
G1 X121.641 Y118.409 E36.9536
G1 X122.023 Y118.427 E36.97363
G1 X122.178 Y118.449 E36.98183
G1 X122.46 Y118.519 E36.99705
G1 X122.64 Y118.601 E37.00742
G1 X122.776 Y118.7 E37.01623
G1 X122.827 Y118.755 E37.02016
G1 X122.886 Y118.836 E37.02541
G1 X122.933 Y118.917 E37.03031
G1 X122.969 Y119.002 E37.03515
G1 X123.178 Y119.648 E37.07072
G1 X125.175 Y119.297 E37.17693
G1 X125.402 Y119.258 E37.189
G1 X125.329 Y119.039 E37.1965
G1 X125.231 Y118.744 E37.21279
G1 X125.193 Y118.628 E37.21784
G1 X125.086 Y118.308 E37.22803
G1 X125.062 Y118.252 E37.23106
G1 X124.959 Y118.016 E37.24455
G1 X124.806 Y117.744 E37.26089
G1 X124.63 Y117.495 E37.27687
G1 X124.427 Y117.27 E37.29274
G1 X124.197 Y117.071 E37.30867
