;FLAVOR:RepRap
;TIME:2436
;Filament used: 1.95223m
;Layer height: 0.2
;Generated with Cura_SteamEngine 2.4.0
M190 S60
M104 S195
M109 S195
G21 ;metric values
G90 ;absolute positioning
M82 ;set extruder to absolute mode
M107 ;start with the fan off
G28 X0 Y0 ;move X/Y to min endstops
G28 Z0 ;move Z to min endstops
G1 Z15.0 F9000 ;move the platform down 15mm
G92 E0 ;zero the extruded length
G1 F200 E3 ;extrude 3mm of feed stock
G92 E0 ;zero the extruded length again
G1 F9000;Put printing message on LCD screen
M117 Printing...
;LAYER_COUNT:95
;LAYER:0
M107
G1 F2700 E-4
G0 F3000 X94.093 Y103.138 Z0.3
;TYPE:SKIRT
G1 F2700 E0
G1 F1200 X95.395 Y102.042 E0.08915
G1 X95.798 Y101.744 E0.11541
G1 X97.237 Y100.813 E0.20519
G1 X97.634 Y100.587 E0.22912
G1 X98.673 Y100.072 E0.28987
G1 X99.024 Y99.918 E0.30995
G1 X100.582 Y99.324 E0.39729
G1 X101.054 Y99.177 E0.42319
G1 X102.7 Y98.773 E0.51197
G1 X102.94 Y98.722 E0.52483
G1 X108.059 Y97.794 E0.79736
G1 X113.38 Y96.548 E1.08364
G1 X115.95 Y95.83 E1.22342
G1 X121.161 Y94.132 E1.51052
G1 X123.67 Y93.195 E1.65082
G1 X128.699 Y91.068 E1.93686
G1 X132.37 Y89.3 E2.1503
G1 X132.895 Y89.091 E2.1799
G1 X133.445 Y88.959 E2.20953
G1 X134.007 Y88.905 E2.23911
G1 X134.572 Y88.931 E2.26874
G1 X135.128 Y89.037 E2.29839
G1 X135.663 Y89.22 E2.32801
G1 X136.166 Y89.476 E2.35758
G1 X136.629 Y89.801 E2.38721
G1 X137.013 Y90.158 E2.41467
G1 X137.453 Y90.624 E2.44825
G1 X137.811 Y91.061 E2.47784
G1 X138.104 Y91.545 E2.50748
G1 X138.326 Y92.065 E2.5371
G1 X138.472 Y92.611 E2.5667
G1 X138.54 Y93.172 E2.59631
G1 X138.528 Y93.737 E2.62591
G1 X138.369 Y94.545 E2.66905
G1 X137.494 Y97.393 E2.82512
G1 X136.114 Y102.693 E3.11202
G1 X135.543 Y105.338 E3.25377
G1 X135.055 Y107.965 E3.39374
G1 X134.287 Y113.355 E3.67894
G1 X133.821 Y118.815 E3.966
G1 X133.607 Y123.445 E4.2088
G1 X133.541 Y124.006 E4.2384
G1 X133.417 Y124.492 E4.26467
G1 X133.081 Y125.53 E4.32182
G1 X132.76 Y126.261 E4.36365
G1 X132.439 Y126.831 E4.39791
G1 X132.036 Y127.417 E4.43517
G1 X131.448 Y128.128 E4.4835
G1 X131.058 Y128.537 E4.51311
G1 X130.785 Y128.764 E4.53171
G1 X129.887 Y129.446 E4.59078
G1 X129.414 Y129.756 E4.6204
G1 X129.019 Y129.948 E4.64341
G1 X128.011 Y130.372 E4.70069
G1 X127.476 Y130.554 E4.7303
G1 X127.092 Y130.635 E4.75086
G1 X126.161 Y130.784 E4.80025
G1 X125.661 Y130.832 E4.82656
G1 X113.966 Y131.219 E5.43953
G1 X113.834 Y131.221 E5.44645
G1 X91.993 Y131.222 E6.59058
G1 X91.429 Y131.182 E6.6202
G1 X91.091 Y131.119 E6.63821
G1 X90.482 Y130.978 E6.67096
G1 X89.872 Y130.784 E6.70449
G1 X88.775 Y130.336 E6.76656
G1 X88.217 Y130.056 E6.79927
G1 X87.347 Y129.53 E6.85253
G1 X86.683 Y129.027 E6.89616
G1 X85.554 Y127.97 E6.97718
G1 X85.076 Y127.434 E7.0148
G1 X84.534 Y126.704 E7.06243
G1 X84.126 Y126.021 E7.10411
G1 X83.437 Y124.555 E7.18896
G1 X83.233 Y124.028 E7.21856
G1 X83.131 Y123.62 E7.24059
G1 X82.837 Y122.114 E7.32098
G1 X82.764 Y121.424 E7.35732
G1 X82.749 Y120.638 E7.3985
G1 X82.77 Y120.141 E7.42456
G1 X82.859 Y119.301 E7.46881
G1 X82.945 Y118.798 E7.49554
G1 X83.131 Y118.015 E7.5377
G1 X83.278 Y117.532 E7.56415
G1 X83.574 Y116.744 E7.60825
G1 X83.79 Y116.268 E7.63563
G1 X84.229 Y115.445 E7.68449
G1 X84.675 Y114.779 E7.72648
G1 X88.246 Y110.459 E8.02009
G1 X91.966 Y105.513 E8.34429
G1 X92.154 Y105.281 E8.35993
G1 X93.66 Y103.562 E8.47965
G1 X94.093 Y103.138 E8.5114
G0 F3000 X94.351 Y103.444
G1 F1200 X95.653 Y102.348 E8.60055
G1 X96.015 Y102.079 E8.62417
G1 X97.454 Y101.148 E8.71396
G1 X97.811 Y100.945 E8.73547
G1 X98.85 Y100.43 E8.79622
G1 X99.167 Y100.292 E8.81433
G1 X100.725 Y99.698 E8.90167
G1 X101.149 Y99.566 E8.92494
G1 X102.795 Y99.162 E9.01372
G1 X103.011 Y99.116 E9.02529
G1 X108.143 Y98.186 E9.29851
G1 X113.466 Y96.939 E9.5849
G1 X116.063 Y96.214 E9.72615
G1 X121.306 Y94.506 E10.015
G1 X123.797 Y93.575 E10.15431
G1 X128.865 Y91.431 E10.44258
G1 X132.543 Y89.66 E10.65642
G1 X133.042 Y89.464 E10.6845
G1 X133.565 Y89.345 E10.7126
G1 X134.1 Y89.304 E10.74071
G1 X134.635 Y89.343 E10.76881
G1 X135.158 Y89.461 E10.7969
G1 X135.658 Y89.656 E10.82501
G1 X136.123 Y89.923 E10.8531
G1 X136.723 Y90.432 E10.89432
G1 X137.163 Y90.898 E10.92789
G1 X137.501 Y91.315 E10.95601
G1 X137.773 Y91.777 E10.98409
G1 X137.974 Y92.274 E11.01218
G1 X138.099 Y92.795 E11.04024
G1 X138.145 Y93.33 E11.06837
G1 X138.111 Y93.865 E11.09645
G1 X137.986 Y94.427 E11.12661
G1 X137.114 Y97.266 E11.28219
G1 X135.725 Y102.6 E11.57093
G1 X135.145 Y105.286 E11.71488
G1 X134.663 Y107.882 E11.85319
G1 X133.888 Y113.318 E12.14084
G1 X133.422 Y118.788 E12.42842
G1 X133.207 Y123.426 E12.67164
G1 X133.143 Y123.959 E12.69976
G1 X133.036 Y124.369 E12.72196
G1 X132.7 Y125.407 E12.77911
G1 X132.412 Y126.065 E12.81674
G1 X132.091 Y126.635 E12.85101
G1 X131.728 Y127.162 E12.88453
G1 X131.14 Y127.873 E12.93286
G1 X130.769 Y128.26 E12.96094
G1 X130.543 Y128.446 E12.97628
G1 X129.645 Y129.128 E13.03535
G1 X129.195 Y129.42 E13.06345
G1 X128.864 Y129.579 E13.08268
G1 X127.856 Y130.003 E13.13997
G1 X127.347 Y130.174 E13.1681
G1 X127.029 Y130.24 E13.18511
G1 X126.098 Y130.389 E13.2345
G1 X125.648 Y130.432 E13.25818
G1 X113.953 Y130.819 E13.87116
G1 X113.834 Y130.821 E13.87739
G1 X91.993 Y130.822 E15.02153
G1 X91.458 Y130.782 E15.04963
G1 X91.181 Y130.729 E15.0644
G1 X90.572 Y130.588 E15.09715
G1 X90.023 Y130.414 E15.12732
G1 X88.926 Y129.966 E15.18939
G1 X88.424 Y129.714 E15.21882
G1 X87.554 Y129.188 E15.27207
G1 X86.957 Y128.735 E15.31133
G1 X85.828 Y127.678 E15.39235
G1 X85.398 Y127.196 E15.42619
G1 X84.856 Y126.466 E15.47381
G1 X84.488 Y125.851 E15.51136
G1 X83.799 Y124.385 E15.59621
G1 X83.608 Y123.884 E15.6243
G1 X83.524 Y123.544 E15.64265
G1 X83.23 Y122.038 E15.72303
G1 X83.164 Y121.417 E15.75574
G1 X83.149 Y120.631 E15.79692
G1 X83.168 Y120.183 E15.82041
G1 X83.257 Y119.343 E15.86466
G1 X83.334 Y118.89 E15.88873
G1 X83.52 Y118.107 E15.93089
G1 X83.653 Y117.673 E15.95467
G1 X83.949 Y116.885 E15.99877
G1 X84.143 Y116.457 E16.02338
G1 X84.582 Y115.634 E16.07224
G1 X84.983 Y115.034 E16.11005
G1 X88.562 Y110.705 E16.40429
G1 X92.286 Y105.753 E16.72886
G1 X92.455 Y105.545 E16.7429
G1 X93.961 Y103.826 E16.86262
G1 X94.351 Y103.444 E16.89122
G0 F3000 X94.608 Y103.75
G1 F1200 X95.91 Y102.654 E16.98037
G1 X96.233 Y102.415 E17.00142
G1 X97.672 Y101.484 E17.0912
G1 X97.989 Y101.304 E17.1103
G1 X99.028 Y100.789 E17.17105
G1 X99.309 Y100.666 E17.18712
G1 X100.867 Y100.072 E17.27446
G1 X101.244 Y99.954 E17.29516
G1 X102.89 Y99.55 E17.38394
G1 X103.082 Y99.509 E17.39422
G1 X108.227 Y98.576 E17.66814
G1 X113.573 Y97.325 E17.95575
G1 X116.176 Y96.597 E18.09734
G1 X121.429 Y94.886 E18.38675
G1 X123.973 Y93.936 E18.52901
G1 X129.032 Y91.795 E18.81678
G1 X132.717 Y90.021 E19.03102
G1 X133.188 Y89.838 E19.05749
G1 X133.682 Y89.732 E19.08395
G1 X134.187 Y89.705 E19.11045
G1 X134.69 Y89.758 E19.13694
G1 X135.178 Y89.889 E19.16341
G1 X135.64 Y90.096 E19.18993
G1 X136.063 Y90.373 E19.21642
G1 X136.432 Y90.707 E19.24249
G1 X136.872 Y91.173 E19.27606
G1 X137.189 Y91.567 E19.30255
G1 X137.44 Y92.006 E19.32904
G1 X137.618 Y92.479 E19.35552
G1 X137.72 Y92.974 E19.38199
G1 X137.743 Y93.479 E19.40848
G1 X137.686 Y93.981 E19.43494
G1 X137.604 Y94.31 E19.4527
G1 X136.726 Y97.167 E19.60927
G1 X135.335 Y102.511 E19.89855
G1 X134.756 Y105.193 E20.04228
G1 X134.268 Y107.822 E20.18235
G1 X133.49 Y113.282 E20.47126
G1 X133.024 Y118.735 E20.75796
G1 X132.808 Y123.408 E21.00301
G1 X132.744 Y123.909 E21.02947
G1 X132.655 Y124.245 E21.04768
G1 X132.319 Y125.283 E21.10483
G1 X132.063 Y125.868 E21.13828
G1 X131.742 Y126.438 E21.17255
G1 X131.42 Y126.907 E21.20235
G1 X130.832 Y127.618 E21.25068
G1 X130.301 Y128.127 E21.28922
G1 X129.403 Y128.809 E21.34829
G1 X128.978 Y129.082 E21.37475
G1 X128.709 Y129.211 E21.39037
G1 X127.701 Y129.635 E21.44766
G1 X127.221 Y129.793 E21.47413
G1 X126.966 Y129.845 E21.48776
G1 X126.035 Y129.994 E21.53715
G1 X125.635 Y130.032 E21.5582
G1 X113.94 Y130.419 E22.17118
G1 X113.834 Y130.421 E22.17673
G1 X91.993 Y130.422 E23.32087
G1 X91.271 Y130.34 E23.35893
G1 X90.662 Y130.199 E23.39168
G1 X90.174 Y130.043 E23.41852
G1 X89.077 Y129.595 E23.48059
G1 X88.631 Y129.371 E23.50673
G1 X87.761 Y128.845 E23.55999
G1 X87.23 Y128.443 E23.59488
G1 X86.101 Y127.386 E23.6759
G1 X85.719 Y126.958 E23.70595
G1 X85.177 Y126.228 E23.75358
G1 X84.85 Y125.681 E23.78696
G1 X84.161 Y124.215 E23.87182
G1 X83.983 Y123.742 E23.89829
G1 X83.916 Y123.467 E23.91312
G1 X83.622 Y121.961 E23.9935
G1 X83.564 Y121.409 E24.02257
G1 X83.549 Y120.623 E24.06376
G1 X83.566 Y120.225 E24.08462
G1 X83.655 Y119.385 E24.12887
G1 X83.724 Y118.982 E24.15029
G1 X83.91 Y118.199 E24.19245
G1 X84.027 Y117.814 E24.21353
G1 X84.323 Y117.026 E24.25762
G1 X84.496 Y116.645 E24.27954
G1 X84.935 Y115.822 E24.32841
G1 X85.292 Y115.289 E24.36201
G1 X88.876 Y110.953 E24.6567
G1 X92.606 Y105.994 E24.98176
G1 X92.756 Y105.808 E24.99428
G1 X94.262 Y104.089 E25.11399
G1 X94.608 Y103.75 E25.13937
G1 F2700 E21.13937
G0 F3000 X104.27 Y101.864
G0 X106.065 Y101.751
G0 X107.861 Y101.864
G0 X109.617 Y102.198
G0 X111.322 Y102.753
G0 X112.945 Y103.515
G0 X114.459 Y104.476
G0 X117.355 Y106.922
;TYPE:SUPPORT
G1 F2700 E25.13937
G1 F1200 X117.474 Y106.787 E25.1488
G1 X117.921 Y106.801 E25.17222
G1 X119.547 Y104.94 E25.30168
G1 X122.664 Y101.816 E25.53286
G1 X126.002 Y98.88 E25.76573
G1 X129.46 Y96.195 E25.99507
G1 X133.082 Y93.737 E26.22438
G1 X134.086 Y93.139 E26.28559
G1 X134.306 Y93.375 E26.3025
G1 X133.91 Y93.957 E26.33937
G1 X131.21 Y97.437 E26.5701
G1 X128.253 Y100.795 E26.80449
G1 X125.183 Y103.869 E27.03208
G1 X121.08 Y107.486 E27.3186
G1 X120.991 Y107.885 E27.34002
G1 X120.543 Y108.235 E27.3698
G1 X119.934 Y108.198 E27.40176
G1 X118.94 Y108.259 E27.45393
G1 X118.384 Y108.366 E27.48359
G1 X118.326 Y108.26 E27.48992
G1 X117.355 Y106.922 E27.57652
G0 F3000 X118 Y106.954
G1 F1200 X118 Y107.537 E27.60706
G0 F3000 X118.335 Y108
G1 F1200 X120.583 Y108 E27.72482
G0 F3000 X120 Y108.041
G1 F1200 X120 Y104.713 E27.89916
G0 F3000 X120.711 Y104
G1 F1200 X124.79 Y104 E28.11284
G0 F3000 X124 Y104.698
G1 F1200 X124 Y100.853 E28.31426
G0 F3000 X124.97 Y100
G1 F1200 X128.739 Y100 E28.51169
G0 F3000 X128 Y100.822
G1 F1200 X128 Y97.53 E28.68414
G0 F3000 X127.394 Y98
G1 F1200 X130.5 Y98 E28.84685
G0 F3000 X130 Y98.57
G1 F1200 X130 Y96.022 E28.98033
G0 F3000 X130.031 Y96
G1 F1200 X132.122 Y96 E29.08986
G0 F3000 X132 Y96.159
G1 F1200 X132 Y94.665 E29.16813
G0 F3000 X132.98 Y94
G1 F1200 X133.674 Y94 E29.20448
G0 F3000 X134 Y93.54
G1 F1200 X134 Y93.377 E29.21302
G0 F3000 X126 Y99.094
G1 F1200 X126 Y102.824 E29.40842
G0 F3000 X126.821 Y102
G1 F1200 X122.707 Y102 E29.62393
G0 F3000 X122 Y102.708
G1 F1200 X122 Y106.462 E29.82058
G0 F3000 X122.521 Y106
G1 F1200 X118.834 Y106 E30.01372
G1 F2700 E26.01372
G0 F3000 X118.08 Y108.32
G0 X117.042 Y109.075
G0 X117.8 Y110.576
G0 X117.836 Y110.484
;TYPE:WALL-INNER
G1 F2700 E30.01372
G1 F1200 X118.425 Y110.293 E30.04616
G1 X119.184 Y110.142 E30.0867
G1 X119.93 Y110.097 E30.12585
G1 X120.678 Y110.144 E30.16511
G1 X121.409 Y110.284 E30.2041
G1 X122.11 Y110.509 E30.24266
G1 X122.795 Y110.833 E30.28236
G1 X123.424 Y111.233 E30.32141
G1 X123.995 Y111.703 E30.36015
G1 X124.504 Y112.246 E30.39914
G1 X124.945 Y112.855 E30.43852
G1 X125.305 Y113.506 E30.47749
G1 X125.575 Y114.194 E30.51621
G1 X125.763 Y114.924 E30.5557
G1 X125.856 Y115.656 E30.59435
G1 X125.856 Y116.409 E30.6338
G1 X125.763 Y117.141 E30.67245
G1 X125.463 Y118.28 E30.73415
G1 X125.447 Y118.339 E30.73736
G1 X125.432 Y118.399 E30.7406
G1 X125.389 Y118.562 E30.74943
G1 X125.51 Y118.585 E30.75588
G1 X126.212 Y118.718 E30.79331
G1 X126.736 Y118.897 E30.82231
G1 X127.11 Y119.073 E30.84397
G1 X127.518 Y119.331 E30.86925
G1 X127.889 Y119.638 E30.89448
G1 X128.216 Y119.988 E30.91957
G1 X128.524 Y120.421 E30.94741
G1 X128.732 Y120.8 E30.97006
G1 X128.91 Y121.249 E30.99536
G1 X129.03 Y121.716 E31.02062
G1 X129.089 Y122.189 E31.04559
G1 X129.089 Y122.675 E31.07104
G1 X129.03 Y123.148 E31.09601
G1 X128.911 Y123.611 E31.12106
G1 X128.731 Y124.066 E31.14669
G1 X128.462 Y124.541 E31.17528
G1 X128.215 Y124.878 E31.19717
G1 X127.889 Y125.227 E31.22219
G1 X127.518 Y125.534 E31.24742
G1 X127.11 Y125.792 E31.2727
G1 X126.673 Y125.997 E31.29799
G1 X126.217 Y126.146 E31.32312
G1 X125.752 Y126.234 E31.34791
G1 X125.316 Y126.261 E31.37079
G1 X118.868 Y126.413 E31.70866
G1 X113.835 Y126.486 E31.97234
G1 X113.604 Y126.633 E31.98669
G1 X92.052 Y126.633 E33.11568
G1 X91.786 Y126.583 E33.12986
G1 X91.081 Y126.352 E33.16873
G1 X90.402 Y126.033 E33.20802
G1 X89.778 Y125.639 E33.24668
G1 X89.201 Y125.161 E33.28593
G1 X88.695 Y124.619 E33.32478
G1 X88.25 Y124.009 E33.36433
G1 X87.895 Y123.364 E33.4029
G1 X87.621 Y122.671 E33.44193
G1 X87.434 Y121.938 E33.48156
G1 X87.341 Y121.207 E33.52016
G1 X87.34 Y120.456 E33.55951
G1 X87.433 Y119.728 E33.59795
G1 X87.62 Y118.995 E33.63758
G1 X87.895 Y118.302 E33.67664
G1 X88.252 Y117.654 E33.71539
G1 X88.695 Y117.045 E33.75484
G1 X89.204 Y116.501 E33.79387
G1 X89.771 Y116.032 E33.83241
G1 X90.401 Y115.634 E33.87145
G1 X91.084 Y115.311 E33.91103
G1 X91.794 Y115.081 E33.95012
G1 X92.516 Y114.943 E33.98863
G1 X93.112 Y114.901 E34.01993
G1 X93.28 Y113.602 E34.08854
G1 X93.688 Y112.005 E34.17489
G1 X94.288 Y110.49 E34.26025
G1 X95.076 Y109.056 E34.34596
G1 X96.033 Y107.742 E34.43112
G1 X97.159 Y106.542 E34.51732
G1 X98.414 Y105.502 E34.6027
G1 X99.796 Y104.626 E34.68842
G1 X101.276 Y103.93 E34.77409
G1 X102.826 Y103.426 E34.85947
G1 X104.43 Y103.12 E34.94501
G1 X106.065 Y103.018 E35.03083
G1 X107.701 Y103.12 E35.1167
G1 X109.305 Y103.426 E35.20224
G1 X110.854 Y103.93 E35.28757
G1 X112.334 Y104.626 E35.37324
G1 X113.716 Y105.502 E35.45896
G1 X114.971 Y106.542 E35.54434
G1 X116.093 Y107.737 E35.63021
G1 X117.058 Y109.065 E35.7162
G1 X117.836 Y110.484 E35.80098
G0 F3000 X117.8 Y110.576
G0 X117.252 Y116.483
G0 X117.182 Y116.553
G1 F1200 X115.244 Y116.553 E35.9025
G1 X111.484 Y122.105 E36.25376
G1 X111.484 Y123.645 E36.33443
G1 X115.058 Y123.645 E36.52165
G1 X115.058 Y125.433 E36.61532
G1 X117.182 Y125.433 E36.72658
G1 X117.182 Y123.645 E36.82025
G1 X117.966 Y123.645 E36.86131
G1 X118.015 Y123.789 E36.86928
G1 X118.361 Y124.346 E36.90363
G1 X118.83 Y124.804 E36.93797
G1 X119.406 Y125.149 E36.97314
G1 X120.067 Y125.384 E37.00989
G1 X120.809 Y125.518 E37.04939
G1 X121.622 Y125.561 E37.09204
G1 X122.082 Y125.548 E37.11615
G1 X122.481 Y125.512 E37.13713
G1 X122.889 Y125.446 E37.15878
G1 X123.272 Y125.352 E37.17944
G1 X123.636 Y125.229 E37.19957
G1 X123.976 Y125.07 E37.21923
G1 X124.29 Y124.879 E37.23849
G1 X124.606 Y124.623 E37.25979
G1 X124.85 Y124.362 E37.27851
G1 X125.05 Y124.07 E37.29705
G1 X125.205 Y123.755 E37.31544
G1 X125.313 Y123.416 E37.33407
G1 X125.374 Y123.064 E37.35279
G1 X125.393 Y122.717 E37.37099
G1 X125.381 Y122.428 E37.38615
G1 X125.343 Y122.155 E37.40059
G1 X125.277 Y121.893 E37.41474
G1 X125.189 Y121.657 E37.42793
G1 X125.08 Y121.436 E37.44084
G1 X124.948 Y121.229 E37.4537
G1 X124.793 Y121.036 E37.46667
G1 X124.56 Y120.812 E37.4836
G1 X124.366 Y120.663 E37.49641
G1 X124.083 Y120.493 E37.51371
G1 X123.696 Y120.307 E37.5362
G1 X123.393 Y120.192 E37.55318
G1 X123.075 Y120.089 E37.57069
G1 X121.528 Y119.711 E37.65411
G1 X121.096 Y119.597 E37.67752
G1 X120.832 Y119.511 E37.69206
G1 X120.665 Y119.437 E37.70163
G1 X120.553 Y119.371 E37.70844
G1 X120.473 Y119.309 E37.71374
G1 X120.406 Y119.239 E37.71882
G1 X120.38 Y119.187 E37.72186
G1 X120.365 Y119.125 E37.72521
G1 X120.358 Y119.02 E37.73072
G1 X120.363 Y118.93 E37.73544
G1 X120.404 Y118.789 E37.74313
G1 X120.457 Y118.71 E37.74812
G1 X120.56 Y118.624 E37.75515
G1 X120.644 Y118.577 E37.76019
G1 X120.756 Y118.53 E37.76655
G1 X120.893 Y118.488 E37.77406
G1 X121.034 Y118.456 E37.78163
G1 X121.216 Y118.431 E37.79125
G1 X121.415 Y118.415 E37.80171
G1 X121.641 Y118.409 E37.81356
G1 X122.023 Y118.427 E37.83359
G1 X122.178 Y118.449 E37.84179
G1 X122.46 Y118.519 E37.85701
G1 X122.64 Y118.601 E37.86737
G1 X122.776 Y118.7 E37.87618
G1 X122.827 Y118.755 E37.88011
G1 X122.886 Y118.836 E37.88536
G1 X122.933 Y118.917 E37.89027
G1 X122.969 Y119.002 E37.8951
G1 X123.178 Y119.648 E37.93067
G1 X125.175 Y119.297 E38.03689
