;FLAVOR:RepRap
;TIME:1498
;Filament used: 1.31445m
;Layer height: 0.2
;Generated with Cura_SteamEngine 2.4.0
M190 S60
M104 S195
M109 S195
G21 ;metric values
G90 ;absolute positioning
M82 ;set extruder to absolute mode
M107 ;start with the fan off
G28 X0 Y0 ;move X/Y to min endstops
G28 Z0 ;move Z to min endstops
G1 Z15.0 F9000 ;move the platform down 15mm
G92 E0 ;zero the extruded length
G1 F200 E3 ;extrude 3mm of feed stock
G92 E0 ;zero the extruded length again
G1 F9000;Put printing message on LCD screen
M117 Printing...
;LAYER_COUNT:180
;LAYER:0
M107
G1 F2100 E-3
G0 F3600 X102.535 Y85.208 Z0.3
;TYPE:SKIRT
G1 F2100 E0
G1 F1800 X102.932 Y84.805 E0.02822
G1 X103.382 Y84.463 E0.05642
G1 X103.875 Y84.187 E0.08461
G1 X104.403 Y83.984 E0.11283
G1 X104.954 Y83.857 E0.14104
G1 X105.574 Y83.808 E0.17207
G1 X114.426 Y83.806 E0.6137
G1 X114.99 Y83.846 E0.64191
G1 X115.543 Y83.965 E0.67013
G1 X116.073 Y84.16 E0.6983
G1 X116.571 Y84.429 E0.72654
G1 X117.025 Y84.765 E0.75472
G1 X117.428 Y85.161 E0.78291
G1 X117.771 Y85.611 E0.81114
G1 X118.047 Y86.104 E0.83932
G1 X118.251 Y86.632 E0.86756
G1 X118.378 Y87.182 E0.89573
G1 X118.427 Y87.806 E0.92695
G1 X118.425 Y129.657 E3.01491
G1 X118.385 Y130.221 E3.04312
G1 X118.266 Y130.774 E3.07134
G1 X118.07 Y131.304 E3.09953
G1 X117.802 Y131.802 E3.12774
G1 X117.465 Y132.256 E3.15595
G1 X117.069 Y132.659 E3.18414
G1 X116.619 Y133.002 E3.21237
G1 X116.126 Y133.277 E3.24053
G1 X115.598 Y133.481 E3.26877
G1 X115.047 Y133.608 E3.29698
G1 X114.43 Y133.657 E3.32786
G1 X105.579 Y133.668 E3.76944
G1 X105.015 Y133.629 E3.79765
G1 X104.462 Y133.51 E3.82587
G1 X103.932 Y133.315 E3.85404
G1 X103.434 Y133.047 E3.88226
G1 X102.979 Y132.712 E3.91044
G1 X102.576 Y132.316 E3.93863
G1 X102.232 Y131.866 E3.96689
G1 X101.956 Y131.373 E3.99508
G1 X101.751 Y130.846 E4.02329
G1 X101.624 Y130.296 E4.05145
G1 X101.574 Y129.607 E4.08592
G1 X101.622 Y126.454 E4.24324
G1 X101.631 Y126.25 E4.25343
G1 X101.915 Y121.973 E4.46728
G1 X102.001 Y117.895 E4.67077
G1 X101.961 Y97.66 E5.6803
G1 X101.581 Y91.348 E5.99578
G1 X101.574 Y91.106 E6.00786
G1 X101.575 Y87.807 E6.17245
G1 X101.615 Y87.243 E6.20066
G1 X101.734 Y86.69 E6.22888
G1 X101.93 Y86.16 E6.25707
G1 X102.199 Y85.663 E6.28526
G1 X102.535 Y85.208 E6.31348
G0 F3600 X102.931 Y85.365
G1 F1800 X103.323 Y84.999 E6.34024
G1 X103.765 Y84.696 E6.36697
G1 X104.248 Y84.462 E6.39375
G1 X104.759 Y84.302 E6.42046
G1 X105.289 Y84.219 E6.44723
G1 X105.574 Y84.208 E6.46146
G1 X114.426 Y84.206 E6.90309
G1 X114.961 Y84.246 E6.92985
G1 X115.484 Y84.365 E6.95661
G1 X115.983 Y84.56 E6.98334
G1 X116.448 Y84.827 E7.01009
G1 X116.868 Y85.16 E7.03683
G1 X117.234 Y85.552 E7.06359
G1 X117.538 Y85.995 E7.09039
G1 X117.773 Y86.477 E7.11715
G1 X117.933 Y86.989 E7.14391
G1 X118.015 Y87.518 E7.17061
G1 X118.027 Y87.806 E7.185
G1 X118.025 Y129.657 E9.27295
G1 X117.985 Y130.192 E9.29972
G1 X117.866 Y130.715 E9.32648
G1 X117.671 Y131.214 E9.3532
G1 X117.403 Y131.679 E9.37998
G1 X117.07 Y132.099 E9.40672
G1 X116.678 Y132.465 E9.43348
G1 X116.236 Y132.769 E9.46024
G1 X115.753 Y133.003 E9.48702
G1 X115.242 Y133.163 E9.51373
G1 X114.712 Y133.246 E9.5405
G1 X114.429 Y133.257 E9.55463
G1 X105.578 Y133.268 E9.9962
G1 X105.044 Y133.229 E10.02292
G1 X104.521 Y133.11 E10.04968
G1 X104.021 Y132.916 E10.07643
G1 X103.556 Y132.649 E10.10318
G1 X103.135 Y132.316 E10.12996
G1 X102.769 Y131.924 E10.15672
G1 X102.465 Y131.483 E10.18344
G1 X102.23 Y131.001 E10.2102
G1 X102.069 Y130.489 E10.23697
G1 X101.986 Y129.959 E10.26374
G1 X101.974 Y129.613 E10.28101
G1 X102.022 Y126.46 E10.43833
G1 X102.03 Y126.277 E10.44747
G1 X102.315 Y121.987 E10.66197
G1 X102.401 Y117.902 E10.86582
G1 X102.361 Y97.634 E11.87699
G1 X101.981 Y91.323 E12.19242
G1 X101.974 Y91.106 E12.20325
G1 X101.975 Y87.807 E12.36784
G1 X102.015 Y87.272 E12.39461
G1 X102.134 Y86.749 E12.42137
G1 X102.33 Y86.25 E12.44811
G1 X102.597 Y85.785 E12.47486
G1 X102.931 Y85.365 E12.50164
G0 F3600 X103.325 Y85.532
G1 F1800 X103.712 Y85.206 E12.52688
G1 X104.145 Y84.945 E12.5521
G1 X104.613 Y84.756 E12.57728
G1 X105.106 Y84.643 E12.60252
G1 X105.574 Y84.608 E12.62593
G1 X114.426 Y84.606 E13.06756
G1 X114.93 Y84.646 E13.09278
G1 X115.422 Y84.765 E13.11804
G1 X115.888 Y84.959 E13.14322
G1 X116.318 Y85.225 E13.16845
G1 X116.701 Y85.555 E13.19367
G1 X117.028 Y85.941 E13.21891
G1 X117.289 Y86.374 E13.24413
G1 X117.479 Y86.843 E13.26938
G1 X117.592 Y87.335 E13.29456
G1 X117.627 Y87.806 E13.31813
G1 X117.625 Y129.657 E15.40608
G1 X117.585 Y130.161 E15.4313
G1 X117.466 Y130.653 E15.45656
G1 X117.271 Y131.119 E15.48176
G1 X117.006 Y131.549 E15.50696
G1 X116.675 Y131.932 E15.53221
G1 X116.289 Y132.258 E15.55742
G1 X115.856 Y132.519 E15.58264
G1 X115.387 Y132.709 E15.60789
G1 X114.895 Y132.822 E15.63308
G1 X114.429 Y132.857 E15.65639
G1 X105.578 Y132.868 E16.09797
G1 X105.074 Y132.829 E16.12319
G1 X104.582 Y132.71 E16.14844
G1 X104.116 Y132.516 E16.17362
G1 X103.685 Y132.251 E16.19887
G1 X103.302 Y131.921 E16.22409
G1 X102.975 Y131.535 E16.24933
G1 X102.714 Y131.103 E16.27451
G1 X102.523 Y130.634 E16.29977
G1 X102.409 Y130.142 E16.32497
G1 X102.374 Y129.619 E16.35112
G1 X102.422 Y126.466 E16.50844
G1 X102.429 Y126.303 E16.51658
G1 X102.715 Y121.999 E16.73178
G1 X102.801 Y117.91 E16.93583
G1 X102.761 Y97.626 E17.9478
G1 X102.38 Y91.299 E18.26403
G1 X102.374 Y91.106 E18.27366
G1 X102.375 Y87.807 E18.43825
G1 X102.415 Y87.303 E18.46348
G1 X102.534 Y86.812 E18.48868
G1 X102.729 Y86.345 E18.51393
G1 X102.995 Y85.915 E18.53916
G1 X103.325 Y85.532 E18.56438
G0 F3600 X105.92 Y87.992
;TYPE:SUPPORT
G1 F1800 X114.2 Y87.996 E18.97747
G1 X114.236 Y87.996 E18.97926
G1 X114.236 Y91.143 E19.13627
G1 X114.2 Y91.143 E19.13807
G1 X114.2 Y90.616 E19.16436
G1 X105.801 Y90.617 E19.58339
G1 X105.801 Y90.917 E19.59835
G1 X105.765 Y90.917 E19.60015
G1 X105.765 Y87.994 E19.74598
G1 X105.92 Y87.992 E19.75371
G0 F3600 X106.64 Y88.153
G1 F1800 X106.64 Y90.457 E19.86866
G0 F3600 X109.306 Y90.457
G1 F1800 X109.306 Y88.154 E19.98356
G0 F3600 X111.972 Y88.155
G1 F1800 X111.972 Y90.457 E20.0984
G1 F2100 E17.0984
G0 F3600 X105.348 Y90.891
G0 X105.348 Y127.505
G0 X114.201 Y127.516
G0 X114.2 Y127.251
G1 F2100 E20.0984
G1 F1800 X114.236 Y127.251 E20.1002
G1 X114.236 Y129.483 E20.21155
G1 X105.801 Y129.478 E20.63238
G1 X105.765 Y129.478 E20.63417
G1 X105.765 Y127.37 E20.73934
G1 X105.801 Y127.37 E20.74114
G1 X105.801 Y127.67 E20.7561
G1 X114.2 Y127.669 E21.17513
G1 X114.2 Y127.251 E21.19599
G0 F3600 X114.075 Y127.968
G1 F1800 X105.924 Y127.968 E21.60264
G0 F3600 X106.64 Y127.829
G1 F1800 X106.64 Y129.318 E21.67693
G0 F3600 X109.306 Y129.32
G1 F1800 X109.306 Y127.829 E21.75131
G0 F3600 X111.972 Y127.829
G1 F1800 X111.972 Y129.321 E21.82575
G1 F2100 E18.82575
G0 F3600 X111.973 Y127.516
G0 X111.972 Y126.251
G0 X113.33 Y126.181
G0 X113.4 Y126.251
;TYPE:WALL-INNER
G1 F2100 E21.82575
G1 F1800 X106.801 Y126.252 E22.15498
G1 X106.601 Y126.252 E22.16495
G1 X106.601 Y126.052 E22.17142
G1 X106.601 Y92.144 E23.86309
G1 X113.2 Y92.143 E24.19232
G1 X113.4 Y92.143 E24.2023
G1 X113.4 Y92.343 E24.20876
G1 X113.4 Y126.251 E25.90043
G0 F3600 X113.8 Y126.651
;TYPE:WALL-OUTER
G1 F1800 X106.401 Y126.652 E26.26957
G1 X106.201 Y126.652 E26.27955
G1 X106.201 Y126.452 E26.28601
G1 X106.201 Y91.744 E28.0176
G1 X113.6 Y91.743 E28.38674
G1 X113.8 Y91.743 E28.39671
G1 X113.8 Y91.943 E28.40318
G1 X113.8 Y126.651 E30.13476
G0 F3600 X113.6 Y126.651
G0 X113.06 Y126.07
;TYPE:SKIN
G1 F1800 X106.78 Y119.79 E30.57785
G0 X106.71 Y119.72
G0 F3600 X106.78 Y119.225
G1 F1800 X113.219 Y125.664 E31.03216
G0 X113.289 Y125.734
G0 F3600 X113.219 Y125.099
G1 F1800 X106.78 Y118.659 E31.4865
G0 X106.71 Y118.589
G0 F3600 X106.78 Y118.093
G1 F1800 X113.219 Y124.533 E31.94084
G0 X113.289 Y124.603
G0 F3600 X113.219 Y123.967
G1 F1800 X106.78 Y117.528 E32.39515
G0 X106.71 Y117.458
G0 F3600 X106.78 Y116.962
G1 F1800 X113.219 Y123.402 E32.84949
G0 X113.289 Y123.472
G0 F3600 X113.219 Y122.836
G1 F1800 X106.78 Y116.396 E33.30383
G0 X106.71 Y116.326
G0 F3600 X106.78 Y115.831
G1 F1800 X113.219 Y122.27 E33.75814
G0 X113.289 Y122.34
G0 F3600 X113.219 Y121.705
G1 F1800 X106.78 Y115.265 E34.21248
G0 X106.71 Y115.195
G0 F3600 X106.78 Y114.699
G1 F1800 X113.219 Y121.139 E34.66682
G0 X113.289 Y121.209
G0 F3600 X113.219 Y120.573
G1 F1800 X106.78 Y114.134 E35.12113
G0 X106.71 Y114.064
G0 F3600 X106.78 Y113.568
G1 F1800 X113.219 Y120.008 E35.57547
G0 X113.289 Y120.078
G0 F3600 X113.219 Y119.442
G1 F1800 X106.78 Y113.002 E36.02981
G0 X106.71 Y112.932
G0 F3600 X106.78 Y112.437
G1 F1800 X113.219 Y118.876 E36.48412
G0 X113.289 Y118.946
G0 F3600 X113.219 Y118.31
G1 F1800 X106.78 Y111.871 E36.93842
G0 X106.71 Y111.801
G0 F3600 X106.78 Y111.305
G1 F1800 X113.219 Y117.745 E37.39276
G0 X113.289 Y117.815
G0 F3600 X113.219 Y117.179
G1 F1800 X106.78 Y110.739 E37.8471
G0 X106.71 Y110.669
G0 F3600 X106.78 Y110.174
G1 F1800 X113.219 Y116.613 E38.30141
G0 X113.289 Y116.683
G0 F3600 X113.219 Y116.048
G1 F1800 X106.78 Y109.608 E38.75575
G0 X106.71 Y109.538
G0 F3600 X106.78 Y109.042
G1 F1800 X113.219 Y115.482 E39.21009
G0 X113.289 Y115.552
G0 F3600 X113.219 Y114.916
G1 F1800 X106.78 Y108.477 E39.6644
G0 X106.71 Y108.407
G0 F3600 X106.78 Y107.911
G1 F1800 X113.219 Y114.351 E40.11874
G0 X113.289 Y114.421
G0 F3600 X113.219 Y113.785
G1 F1800 X106.78 Y107.345 E40.57308
G0 X106.71 Y107.275
G0 F3600 X106.78 Y106.78
G1 F1800 X113.219 Y113.219 E41.02739
G0 X113.289 Y113.289
G0 F3600 X113.219 Y112.654
G1 F1800 X106.78 Y106.214 E41.48173
G0 X106.71 Y106.144
G0 F3600 X106.78 Y105.648
G1 F1800 X113.219 Y112.088 E41.93607
G0 X113.289 Y112.158
G0 F3600 X113.219 Y111.522
G1 F1800 X106.78 Y105.083 E42.39038
G0 X106.71 Y105.013
G0 F3600 X106.78 Y104.517
G1 F1800 X113.219 Y110.957 E42.84472
G0 X113.289 Y111.027
G0 F3600 X113.219 Y110.391
G1 F1800 X106.78 Y103.951 E43.29906
G0 X106.71 Y103.881
G0 F3600 X106.78 Y103.386
G1 F1800 X113.219 Y109.825 E43.75337
G0 X113.289 Y109.895
G0 F3600 X113.219 Y109.26
G1 F1800 X106.78 Y102.82 E44.20771
G0 X106.71 Y102.75
G0 F3600 X106.78 Y102.254
G1 F1800 X113.219 Y108.694 E44.66205
G0 X113.289 Y108.764
G0 F3600 X113.219 Y108.128
G1 F1800 X106.78 Y101.689 E45.11636
G0 X106.71 Y101.619
G0 F3600 X106.78 Y101.123
G1 F1800 X113.219 Y107.562 E45.57066
G0 X113.289 Y107.632
G0 F3600 X113.219 Y106.997
G1 F1800 X106.78 Y100.557 E46.02501
G0 X106.71 Y100.487
G0 F3600 X106.78 Y99.991
G1 F1800 X113.219 Y106.431 E46.47935
G0 X113.289 Y106.501
G0 F3600 X113.219 Y105.865
G1 F1800 X106.78 Y99.426 E46.93365
G0 X106.71 Y99.356
G0 F3600 X106.78 Y98.86
G1 F1800 X113.219 Y105.3 E47.38799
G0 X113.289 Y105.37
G0 F3600 X113.219 Y104.734
G1 F1800 X106.78 Y98.294 E47.84234
G0 X106.71 Y98.224
G0 F3600 X106.78 Y97.729
G1 F1800 X113.219 Y104.168 E48.29664
G0 X113.289 Y104.238
G0 F3600 X113.219 Y103.603
G1 F1800 X106.78 Y97.163 E48.75098
G0 X106.71 Y97.093
G0 F3600 X106.78 Y96.597
G1 F1800 X113.219 Y103.037 E49.20533
G0 X113.289 Y103.107
G0 F3600 X113.219 Y102.471
G1 F1800 X106.78 Y96.032 E49.65963
G0 X106.71 Y95.962
G0 F3600 X106.78 Y95.466
G1 F1800 X113.219 Y101.906 E50.11397
G0 X113.289 Y101.976
G0 F3600 X113.219 Y101.34
G1 F1800 X106.78 Y94.9 E50.56831
G0 X106.71 Y94.83
G0 F3600 X106.78 Y94.335
G1 F1800 X113.219 Y100.774 E51.02262
G0 X113.289 Y100.844
G0 F3600 X113.219 Y100.209
G1 F1800 X106.78 Y93.769 E51.47696
G0 X106.71 Y93.699
G0 F3600 X106.78 Y93.203
G1 F1800 X113.219 Y99.643 E51.9313
G0 X113.289 Y99.713
G0 F3600 X113.219 Y99.077
G1 F1800 X106.78 Y92.638 E52.38561
G0 X106.71 Y92.568
G0 F3600 X107.031 Y92.324
G1 F1800 X113.219 Y98.511 E52.82217
G0 X113.289 Y98.581
G0 F3600 X113.219 Y97.946
G1 F1800 X107.597 Y92.324 E53.21883
G0 X107.527 Y92.254
G0 F3600 X108.163 Y92.324
G1 F1800 X113.219 Y97.38 E53.57556
G0 X113.289 Y97.45
G0 F3600 X113.219 Y96.814
G1 F1800 X108.728 Y92.324 E53.89239
G0 X108.658 Y92.254
G0 F3600 X109.294 Y92.324
G1 F1800 X113.219 Y96.249 E54.16932
G0 X113.289 Y96.319
G0 F3600 X113.219 Y95.683
G1 F1800 X109.86 Y92.324 E54.40632
G0 X109.79 Y92.254
G0 F3600 X110.425 Y92.323
G1 F1800 X113.219 Y95.117 E54.60345
G0 X113.289 Y95.187
G0 F3600 X113.219 Y94.552
G1 F1800 X110.991 Y92.323 E54.76068
G0 X110.921 Y92.253
G0 F3600 X111.556 Y92.323
G1 F1800 X113.219 Y93.986 E54.87801
G0 X113.289 Y94.056
G0 F3600 X113.219 Y93.42
G1 F1800 X112.122 Y92.323 E54.95541
G0 X112.052 Y92.253
G0 F3600 X112.688 Y92.323
G1 F1800 X113.219 Y92.855 E54.99291
G0 F3600 X106.78 Y120.356
G1 F1800 X112.494 Y126.07 E55.39607
G0 X112.564 Y126.14
G0 F3600 X111.928 Y126.07
G1 F1800 X106.78 Y120.922 E55.75929
G0 X106.71 Y120.852
G0 F3600 X106.78 Y121.488
G1 F1800 X111.362 Y126.07 E56.08257
G0 X111.432 Y126.14
G0 F3600 X110.797 Y126.07
G1 F1800 X106.78 Y122.053 E56.36599
G0 X106.71 Y121.983
G0 F3600 X106.78 Y122.619
M104 S190
G1 F1800 X110.231 Y126.07 E56.60948
G0 X110.301 Y126.14
G0 F3600 X109.665 Y126.07
G1 F1800 X106.78 Y123.185 E56.81303
G0 X106.71 Y123.115
G0 F3600 X106.78 Y123.75
G1 F1800 X109.1 Y126.07 E56.97672
G0 X109.17 Y126.14
G0 F3600 X108.534 Y126.07
G1 F1800 X106.78 Y124.316 E57.10047
G0 X106.71 Y124.246
G0 F3600 X106.78 Y124.882
G1 F1800 X107.968 Y126.07 E57.18429
G0 X108.038 Y126.14
G0 F3600 X107.403 Y126.07
G1 F1800 X106.78 Y125.447 E57.22825
G0 X106.71 Y125.377
G0 F3600 X106.78 Y126.013
G1 F1800 X106.837 Y126.07 E57.23227
G0 F3600 X107.001 Y125.851
;TIME_ELAPSED:50.526512
;LAYER:1
M140 S60
M106 S255
G1 F2100 E54.23227
G0 F5400 X107.001 Y125.851 Z0.5
G0 X106.64 Y126.869
G0 X106.641 Y128.134
G0 X106.64 Y128.141
;TYPE:SUPPORT
G1 F2100 E57.23227
G1 F2700 X106.64 Y129.478 E57.27674
G1 X105.801 Y129.478 E57.30465
G1 X105.765 Y129.478 E57.30584
G1 X105.765 Y127.87 E57.35933
G1 X105.801 Y127.87 E57.36052
G1 X105.801 Y128.142 E57.36957
G1 X106.64 Y128.141 E57.39748
G1 X109.306 Y128.141 E57.48615
G1 X109.306 Y129.48 E57.53068
G1 X111.972 Y129.481 E57.61935
G1 X114.23 Y129.483 E57.69445
G1 X114.236 Y129.483 E57.69465
G1 X114.236 Y127.869 E57.74834
G1 X114.2 Y127.869 E57.74953
G1 X114.2 Y128.141 E57.75858
G1 X111.972 Y128.141 E57.83268
G1 X111.972 Y129.481 E57.87725
G1 F2100 E54.87725
G0 F5400 X114.653 Y128.122
G0 X114.653 Y90.163
G0 X114.199 Y90.152
G0 X114.2 Y90.416
G1 F2100 E57.87725
G1 F2700 X114.236 Y90.416 E57.87845
G1 X114.236 Y87.996 E57.95894
G1 X114.2 Y87.996 E57.96014
G1 X111.972 Y87.995 E58.03424
G1 X111.972 Y90.037 E58.10216
G1 X109.306 Y90.037 E58.19083
G1 X109.306 Y87.994 E58.25878
G1 X106.64 Y87.993 E58.34745
G1 X106.64 Y90.037 E58.41543
G1 X105.801 Y90.037 E58.44334
G1 X105.801 Y90.337 E58.45332
G1 X105.765 Y90.337 E58.45452
G1 X105.765 Y87.994 E58.53244
G1 X105.906 Y87.992 E58.53713
G1 X106.64 Y87.993 E58.56155
G0 F5400 X111.972 Y90.037
G1 F2700 X114.2 Y90.036 E58.63565
G1 X114.2 Y90.416 E58.64829
G0 F5400 X113.2 Y91.416
;TYPE:WALL-INNER
G1 F2700 X113.4 Y91.416 E58.65494
G1 X113.4 Y91.616 E58.65925
G1 X113.4 Y126.869 E59.83177
G1 X106.801 Y126.87 E60.05125
G1 X106.601 Y126.87 E60.0579
G1 X106.601 Y126.67 E60.06221
G1 X106.601 Y91.417 E61.23473
G1 X113.2 Y91.416 E61.45421
G0 F5400 X113.6 Y91.016
;TYPE:WALL-OUTER
G1 F1800 X113.8 Y91.016 E61.46087
G1 X113.8 Y91.216 E61.46517
G1 X113.8 Y127.269 E62.6643
G1 X106.401 Y127.27 E62.91039
G1 X106.201 Y127.27 E62.91704
G1 X106.201 Y127.07 E62.92135
G1 X106.201 Y91.017 E64.12048
G1 X113.6 Y91.016 E64.36657
G0 F5400 X113.8 Y91.016
G0 X113.182 Y91.595
;TYPE:SKIN
G1 F1350 X106.78 Y97.997 E64.6677
G0 X106.71 Y98.067
G0 F5400 X106.78 Y98.562
G1 F1350 X113.219 Y92.124 E64.97055
G0 X113.289 Y92.054
G0 F5400 X113.219 Y92.69
G1 F1350 X106.78 Y99.128 E65.2734
G0 X106.71 Y99.198
G0 F5400 X106.78 Y99.694
G1 F1350 X113.219 Y93.256 E65.57624
G0 X113.289 Y93.186
G0 F5400 X113.219 Y93.821
G1 F1350 X106.78 Y100.259 E65.87909
G0 X106.71 Y100.329
G0 F5400 X106.78 Y100.825
G1 F1350 X113.219 Y94.387 E66.18194
G0 X113.289 Y94.317
G0 F5400 X113.219 Y94.953
G1 F1350 X106.78 Y101.391 E66.48479
G0 X106.71 Y101.461
G0 F5400 X106.78 Y101.957
G1 F1350 X113.219 Y95.518 E66.78766
G0 X113.289 Y95.448
G0 F5400 X113.219 Y96.084
G1 F1350 X106.78 Y102.522 E67.0905
G0 X106.71 Y102.592
G0 F5400 X106.78 Y103.088
G1 F1350 X113.219 Y96.65 E67.39335
G0 X113.289 Y96.58
G0 F5400 X113.219 Y97.215
