;FLAVOR:RepRap
;TIME:2100
;Filament used: 1.40349m
;Layer height: 0.2
;Generated with Cura_SteamEngine 2.4.0
M190 S60
M104 S195
M109 S195
G21 ;metric values
G90 ;absolute positioning
M82 ;set extruder to absolute mode
M107 ;start with the fan off
G28 X0 Y0 ;move X/Y to min endstops
G28 Z0 ;move Z to min endstops
G1 Z15.0 F9000 ;move the platform down 15mm
G92 E0 ;zero the extruded length
G1 F200 E3 ;extrude 3mm of feed stock
G92 E0 ;zero the extruded length again
G1 F9000;Put printing message on LCD screen
M117 Printing...
;LAYER_COUNT:180
;LAYER:0
M107
G1 F2700 E-4
G0 F3000 X85.162 Y102.571 Z0.3
;TYPE:SKIRT
G1 F2700 E0
G1 F1500 X85.612 Y102.229 E0.02933
G1 X86.105 Y101.953 E0.05864
G1 X86.633 Y101.749 E0.08801
G1 X87.183 Y101.622 E0.1173
G1 X87.806 Y101.573 E0.14972
G1 X129.656 Y101.573 E2.32115
G1 X130.22 Y101.613 E2.35048
G1 X130.773 Y101.732 E2.37983
G1 X131.303 Y101.928 E2.40915
G1 X131.8 Y102.196 E2.43845
G1 X132.255 Y102.532 E2.4678
G1 X132.658 Y102.929 E2.49715
G1 X133 Y103.379 E2.52647
G1 X133.276 Y103.872 E2.55579
G1 X133.48 Y104.4 E2.58516
G1 X133.607 Y104.95 E2.61445
G1 X133.656 Y105.567 E2.64656
G1 X133.67 Y114.389 E3.1043
G1 X133.631 Y114.953 E3.13363
G1 X133.513 Y115.505 E3.16292
G1 X133.318 Y116.036 E3.19227
G1 X133.05 Y116.534 E3.22161
G1 X132.715 Y116.989 E3.25093
G1 X132.319 Y117.393 E3.28028
G1 X131.87 Y117.736 E3.3096
G1 X131.377 Y118.013 E3.33894
G1 X130.85 Y118.217 E3.36826
G1 X130.299 Y118.345 E3.39761
G1 X129.72 Y118.395 E3.42777
G1 X127.23 Y118.426 E3.55697
G1 X126.913 Y118.417 E3.57343
G1 X121.943 Y118.085 E3.83187
G1 X117.899 Y118 E4.04175
G1 X97.662 Y118.039 E5.09176
G1 X91.346 Y118.419 E5.42006
G1 X91.102 Y118.426 E5.43273
G1 X87.802 Y118.423 E5.60395
G1 X87.238 Y118.383 E5.63329
G1 X86.686 Y118.263 E5.6626
G1 X86.156 Y118.067 E5.69192
G1 X85.659 Y117.798 E5.72124
G1 X85.204 Y117.461 E5.75062
G1 X84.802 Y117.064 E5.77994
G1 X84.46 Y116.614 E5.80926
G1 X84.184 Y116.121 E5.83858
G1 X83.981 Y115.593 E5.86793
G1 X83.854 Y115.042 E5.89727
G1 X83.806 Y114.423 E5.92948
G1 X83.806 Y105.573 E6.38867
G1 X83.846 Y105.009 E6.41801
G1 X83.965 Y104.456 E6.44736
G1 X84.161 Y103.926 E6.47668
G1 X84.429 Y103.429 E6.50597
G1 X84.765 Y102.974 E6.53532
G1 X85.162 Y102.571 E6.56467
G0 F3000 X85.553 Y102.765
G1 F1500 X85.995 Y102.462 E6.59248
G1 X86.478 Y102.227 E6.62035
G1 X86.989 Y102.067 E6.64813
G1 X87.519 Y101.984 E6.67597
G1 X87.806 Y101.973 E6.69087
G1 X129.656 Y101.973 E8.86229
G1 X130.191 Y102.013 E8.89012
G1 X130.714 Y102.132 E8.91795
G1 X131.213 Y102.327 E8.94575
G1 X131.678 Y102.595 E8.9736
G1 X132.098 Y102.928 E9.00141
G1 X132.464 Y103.32 E9.02924
G1 X132.767 Y103.762 E9.05704
G1 X133.002 Y104.245 E9.08491
G1 X133.162 Y104.756 E9.11269
G1 X133.245 Y105.286 E9.14053
G1 X133.256 Y105.567 E9.15512
G1 X133.27 Y114.389 E9.61286
G1 X133.231 Y114.924 E9.64069
G1 X133.113 Y115.447 E9.66851
G1 X132.918 Y115.947 E9.69635
G1 X132.652 Y116.412 E9.72415
G1 X132.319 Y116.833 E9.752
G1 X131.927 Y117.199 E9.77983
G1 X131.486 Y117.504 E9.80765
G1 X131.004 Y117.739 E9.83547
G1 X130.492 Y117.9 E9.86332
G1 X129.715 Y117.995 E9.90393
G1 X127.225 Y118.026 E10.03314
G1 X126.94 Y118.018 E10.04793
G1 X121.957 Y117.685 E10.30706
G1 X117.907 Y117.6 E10.51724
G1 X97.637 Y117.639 E11.56897
G1 X91.322 Y118.019 E11.89722
G1 X91.103 Y118.026 E11.90859
G1 X87.803 Y118.023 E12.07981
G1 X87.268 Y117.983 E12.10765
G1 X86.745 Y117.863 E12.13549
G1 X86.246 Y117.667 E12.16331
G1 X85.781 Y117.4 E12.19113
G1 X85.361 Y117.066 E12.21897
G1 X84.996 Y116.673 E12.2468
G1 X84.693 Y116.231 E12.2746
G1 X84.459 Y115.748 E12.30245
G1 X84.299 Y115.236 E12.33028
G1 X84.217 Y114.706 E12.35811
G1 X84.206 Y114.423 E12.37281
G1 X84.206 Y105.573 E12.83199
G1 X84.246 Y105.038 E12.85983
G1 X84.365 Y104.515 E12.88766
G1 X84.56 Y104.016 E12.91546
G1 X84.828 Y103.551 E12.94331
G1 X85.161 Y103.131 E12.97112
G1 X85.553 Y102.765 E12.99894
G0 F3000 X85.942 Y102.972
G1 F1500 X86.375 Y102.711 E13.02518
G1 X86.843 Y102.521 E13.05138
G1 X87.336 Y102.408 E13.07763
G1 X87.806 Y102.373 E13.10208
G1 X129.656 Y102.373 E15.2735
G1 X130.16 Y102.413 E15.29973
G1 X130.651 Y102.532 E15.32595
G1 X131.118 Y102.726 E15.35219
G1 X131.548 Y102.992 E15.37842
G1 X131.931 Y103.322 E15.40465
G1 X132.257 Y103.709 E15.43091
G1 X132.518 Y104.142 E15.45714
G1 X132.708 Y104.61 E15.48335
G1 X132.821 Y105.103 E15.50959
G1 X132.856 Y105.568 E15.53378
G1 X132.87 Y114.39 E15.99152
G1 X132.831 Y114.894 E16.01775
G1 X132.713 Y115.386 E16.044
G1 X132.519 Y115.852 E16.07019
G1 X132.254 Y116.283 E16.09644
G1 X131.924 Y116.666 E16.12267
G1 X131.538 Y116.993 E16.14892
G1 X131.106 Y117.255 E16.17514
G1 X130.637 Y117.445 E16.20139
G1 X130.145 Y117.56 E16.22761
G1 X129.71 Y117.595 E16.25025
G1 X127.22 Y117.626 E16.37946
G1 X126.967 Y117.619 E16.39259
G1 X121.97 Y117.285 E16.65244
G1 X117.915 Y117.2 E16.86289
G1 X97.629 Y117.239 E17.91544
G1 X91.298 Y117.62 E18.24453
G1 X91.103 Y117.626 E18.25465
G1 X87.803 Y117.623 E18.42587
G1 X87.299 Y117.583 E18.4521
G1 X86.808 Y117.463 E18.47833
G1 X86.341 Y117.268 E18.50459
G1 X85.912 Y117.002 E18.53078
G1 X85.529 Y116.671 E18.55704
G1 X85.203 Y116.285 E18.58326
G1 X84.943 Y115.852 E18.60947
G1 X84.753 Y115.383 E18.63572
G1 X84.64 Y114.89 E18.66196
G1 X84.606 Y114.423 E18.68626
G1 X84.606 Y105.573 E19.14545
G1 X84.646 Y105.069 E19.17168
G1 X84.765 Y104.578 E19.19789
G1 X84.959 Y104.111 E19.22413
G1 X85.225 Y103.681 E19.25037
G1 X85.555 Y103.298 E19.2766
G1 X85.942 Y102.972 E19.30285
G0 F3000 X87.996 Y105.8
;TYPE:SUPPORT
G1 F1500 X87.996 Y105.764 E19.30472
G1 X91.143 Y105.764 E19.46801
G1 X91.143 Y105.8 E19.46987
G1 X90.616 Y105.8 E19.49722
G1 X90.617 Y114.199 E19.93301
G1 X90.917 Y114.199 E19.94857
G1 X90.917 Y114.235 E19.95044
G1 X87.994 Y114.235 E20.1021
G1 X87.992 Y114.104 E20.1089
G1 X87.996 Y105.8 E20.53976
G1 F2700 E16.53976
G0 F3000 X90.891 Y114.652
G0 X127.505 Y114.653
G0 X127.516 Y105.8
G0 X127.251 Y105.801
G1 F2700 E20.53976
G1 F1500 X127.251 Y105.765 E20.54163
G1 X127.641 Y105.765 E20.56186
G1 X129.483 Y105.764 E20.65744
G1 X129.484 Y114.235 E21.09696
G1 X129.484 Y114.236 E21.09701
G1 X127.37 Y114.236 E21.2067
G1 X127.37 Y114.2 E21.20857
G1 X127.67 Y114.2 E21.22413
G1 X127.669 Y105.801 E21.65992
G1 X127.251 Y105.801 E21.68161
G0 F3000 X127.968 Y105.924
G1 F1500 X127.968 Y114.076 E22.10458
G0 F3000 X127.829 Y111.972
G1 F1500 X129.324 Y111.972 E22.18215
G0 F3000 X129.324 Y109.306
G1 F1500 X127.829 Y109.306 E22.25972
G0 F3000 X127.829 Y106.64
G1 F1500 X129.324 Y106.64 E22.33729
G1 F2700 E18.33729
G0 F3000 X127.504 Y105.348
G0 X90.89 Y105.347
G0 X90.457 Y106.64
G1 F2700 E22.33729
G1 F1500 X88.156 Y106.64 E22.45668
G0 F3000 X88.155 Y109.306
G1 F1500 X90.457 Y109.306 E22.57612
G0 F3000 X90.457 Y111.972
G1 F1500 X88.154 Y111.972 E22.69562
G1 F2700 E18.69562
G0 F3000 X90.879 Y111.973
G0 X92.144 Y111.972
G0 X92.214 Y113.329
G0 X92.144 Y113.399
;TYPE:WALL-INNER
G1 F2700 E22.69562
G1 F1500 X92.143 Y106.8 E23.03801
G1 X92.143 Y106.6 E23.04839
G1 X92.343 Y106.6 E23.05511
G1 X126.251 Y106.601 E24.81445
G1 X126.252 Y113.2 E25.15684
G1 X126.252 Y113.4 E25.16722
G1 X126.052 Y113.4 E25.17394
G1 X92.144 Y113.399 E26.93329
G0 F3000 X91.744 Y113.799
;TYPE:WALL-OUTER
G1 F1500 X91.743 Y106.4 E27.31719
G1 X91.743 Y106.2 E27.32757
G1 X91.943 Y106.2 E27.33428
G1 X126.651 Y106.201 E29.13514
G1 X126.652 Y113.6 E29.51904
G1 X126.652 Y113.8 E29.52942
G1 X126.452 Y113.8 E29.53614
G1 X91.744 Y113.799 E31.33699
G0 F3000 X91.744 Y113.599
G0 X92.323 Y112.688
;TYPE:SKIN
G1 F1500 X92.853 Y113.217 E31.37584
G0 F3000 X93.418 Y113.217
G1 F1500 X92.323 Y112.122 E31.45619
G0 X92.253 Y112.052
G0 F3000 X92.323 Y111.556
G1 F1500 X93.984 Y113.217 E31.57807
G0 X94.054 Y113.287
G0 F3000 X94.55 Y113.217
G1 F1500 X92.323 Y110.991 E31.74145
G0 X92.253 Y110.921
G0 F3000 X92.323 Y110.425
G1 F1500 X95.115 Y113.217 E31.94632
G0 X95.185 Y113.287
G0 F3000 X95.681 Y113.217
G1 F1500 X92.323 Y109.859 E32.19272
G0 X92.253 Y109.789
G0 F3000 X92.323 Y109.293
G1 F1500 X96.247 Y113.217 E32.48065
G0 X96.317 Y113.287
G0 F3000 X96.812 Y113.217
G1 F1500 X92.323 Y108.728 E32.81005
G0 X92.253 Y108.658
G0 F3000 X92.323 Y108.162
G1 F1500 X97.378 Y113.217 E33.18097
G0 X97.448 Y113.287
G0 F3000 X97.944 Y113.217
G1 F1500 X92.323 Y107.596 E33.59342
G0 X92.253 Y107.526
G0 F3000 X92.323 Y107.031
G1 F1500 X98.509 Y113.217 E34.04734
G0 X98.579 Y113.287
G0 F3000 X99.075 Y113.217
G1 F1500 X92.638 Y106.78 E34.51967
G0 X92.568 Y106.71
G0 F3000 X93.203 Y106.78
G1 F1500 X99.641 Y113.217 E34.99204
G0 X99.711 Y113.287
G0 F3000 X100.206 Y113.217
G1 F1500 X93.769 Y106.78 E35.46437
G0 X93.699 Y106.71
G0 F3000 X94.335 Y106.78
G1 F1500 X100.772 Y113.217 E35.9367
G0 X100.842 Y113.287
G0 F3000 X101.338 Y113.217
G1 F1500 X94.9 Y106.78 E36.40907
G0 X94.83 Y106.71
G0 F3000 X95.466 Y106.78
G1 F1500 X101.903 Y113.217 E36.8814
G0 X101.973 Y113.287
G0 F3000 X102.469 Y113.217
G1 F1500 X96.032 Y106.78 E37.35373
G0 X95.962 Y106.71
G0 F3000 X96.597 Y106.78
G1 F1500 X103.035 Y113.217 E37.8261
G0 X103.105 Y113.287
G0 F3000 X103.601 Y113.218
G1 F1500 X97.163 Y106.78 E38.29851
G0 X97.093 Y106.71
G0 F3000 X97.729 Y106.78
G1 F1500 X104.167 Y113.218 E38.77091
G0 X104.237 Y113.288
G0 F3000 X104.733 Y113.218
G1 F1500 X98.294 Y106.78 E39.24335
G0 X98.224 Y106.71
G0 F3000 X98.86 Y106.78
G1 F1500 X105.298 Y113.218 E39.71576
G0 X105.368 Y113.288
G0 F3000 X105.864 Y113.218
G1 F1500 X99.426 Y106.78 E40.18816
G0 X99.356 Y106.71
G0 F3000 X99.991 Y106.78
G1 F1500 X106.43 Y113.218 E40.66061
G0 X106.5 Y113.288
G0 F3000 X106.995 Y113.218
G1 F1500 X100.557 Y106.78 E41.13301
G0 X100.487 Y106.71
G0 F3000 X101.123 Y106.78
G1 F1500 X107.561 Y113.218 E41.60542
G0 X107.631 Y113.288
G0 F3000 X108.127 Y113.218
G1 F1500 X101.689 Y106.78 E42.07782
G0 X101.619 Y106.71
G0 F3000 X102.254 Y106.78
G1 F1500 X108.692 Y113.218 E42.55023
G0 X108.762 Y113.288
G0 F3000 X109.258 Y113.218
G1 F1500 X102.82 Y106.78 E43.02263
G0 X102.75 Y106.71
G0 F3000 X103.386 Y106.78
G1 F1500 X109.824 Y113.218 E43.49504
G0 X109.894 Y113.288
G0 F3000 X110.389 Y113.218
G1 F1500 X103.951 Y106.78 E43.96744
G0 X103.881 Y106.71
G0 F3000 X104.517 Y106.78
G1 F1500 X110.955 Y113.218 E44.43985
G0 X111.025 Y113.288
G0 F3000 X111.521 Y113.218
G1 F1500 X105.083 Y106.78 E44.91225
G0 X105.013 Y106.71
G0 F3000 X105.648 Y106.78
G1 F1500 X112.087 Y113.218 E45.38469
G0 X112.157 Y113.288
G0 F3000 X112.652 Y113.218
G1 F1500 X106.214 Y106.78 E45.8571
G0 X106.144 Y106.71
G0 F3000 X106.78 Y106.78
G1 F1500 X113.218 Y113.218 E46.3295
G0 X113.288 Y113.288
G0 F3000 X113.784 Y113.218
G1 F1500 X107.345 Y106.78 E46.80195
G0 X107.275 Y106.71
G0 F3000 X107.911 Y106.78
G1 F1500 X114.349 Y113.218 E47.27435
G0 X114.419 Y113.288
G0 F3000 X114.916 Y113.219
G1 F1500 X108.477 Y106.78 E47.74683
G0 X108.407 Y106.71
G0 F3000 X109.042 Y106.78
G1 F1500 X115.481 Y113.219 E48.21931
G0 X115.551 Y113.289
G0 F3000 X116.047 Y113.219
G1 F1500 X109.609 Y106.78 E48.69175
G0 X109.539 Y106.71
G0 F3000 X110.175 Y106.78
G1 F1500 X116.613 Y113.219 E49.16419
G0 X116.683 Y113.289
G0 F3000 X117.178 Y113.219
G1 F1500 X110.74 Y106.78 E49.63663
G0 X110.67 Y106.71
G0 F3000 X111.306 Y106.78
G1 F1500 X117.744 Y113.219 E50.10908
G0 X117.814 Y113.289
G0 F3000 X118.31 Y113.219
G1 F1500 X111.872 Y106.78 E50.58152
G0 X111.802 Y106.71
G0 F3000 X112.437 Y106.78
G1 F1500 X118.875 Y113.219 E51.05396
G0 X118.945 Y113.289
G0 F3000 X119.441 Y113.219
G1 F1500 X113.003 Y106.78 E51.5264
G0 X112.933 Y106.71
G0 F3000 X113.569 Y106.78
G1 F1500 X120.007 Y113.219 E51.99884
G0 X120.077 Y113.289
G0 F3000 X120.573 Y113.219
G1 F1500 X114.134 Y106.78 E52.47132
G0 X114.064 Y106.71
G0 F3000 X114.7 Y106.78
G1 F1500 X121.138 Y113.219 E52.94376
G0 X121.208 Y113.289
G0 F3000 X121.704 Y113.219
G1 F1500 X115.266 Y106.78 E53.4162
G0 X115.196 Y106.71
G0 F3000 X115.831 Y106.78
G1 F1500 X122.27 Y113.219 E53.88868
G0 X122.34 Y113.289
G0 F3000 X122.835 Y113.219
G1 F1500 X116.397 Y106.78 E54.36112
G0 X116.327 Y106.71
G0 F3000 X116.963 Y106.78
G1 F1500 X123.401 Y113.219 E54.83357
G0 X123.471 Y113.289
G0 F3000 X123.967 Y113.219
G1 F1500 X117.528 Y106.78 E55.30605
G0 X117.458 Y106.71
G0 F3000 X118.094 Y106.78
G1 F1500 X124.532 Y113.219 E55.77849
G0 X124.602 Y113.289
G0 F3000 X125.098 Y113.219
G1 F1500 X118.66 Y106.78 E56.25093
G0 X118.59 Y106.71
G0 F3000 X119.225 Y106.78
G1 F1500 X125.664 Y113.219 E56.72341
G0 X125.734 Y113.289
G0 F3000 X126.07 Y113.06
G1 F1500 X119.791 Y106.78 E57.18418
G0 X119.721 Y106.71
G0 F3000 X120.357 Y106.78
G1 F1500 X126.07 Y112.494 E57.60342
G0 X126.14 Y112.564
G0 F3000 X126.07 Y111.928
G1 F1500 X120.923 Y106.78 E57.98114
G0 X120.853 Y106.71
G0 F3000 X121.488 Y106.78
G1 F1500 X126.07 Y111.362 E58.31735
G0 X126.14 Y111.432
G0 F3000 X126.07 Y110.797
G1 F1500 X122.054 Y106.78 E58.61207
G0 X121.984 Y106.71
G0 F3000 X122.62 Y106.78
M104 S190
G1 F1500 X126.07 Y110.231 E58.86526
G0 X126.14 Y110.301
G0 F3000 X126.07 Y109.665
G1 F1500 X123.185 Y106.78 E59.07696
G0 X123.115 Y106.71
G0 F3000 X123.751 Y106.78
G1 F1500 X126.07 Y109.1 E59.24716
G0 X126.14 Y109.17
G0 F3000 X126.07 Y108.534
G1 F1500 X124.317 Y106.78 E59.37582
G0 X124.247 Y106.71
G0 F3000 X124.882 Y106.78
G1 F1500 X126.07 Y107.968 E59.463
G0 X126.14 Y108.038
G0 F3000 X126.07 Y107.403
G1 F1500 X125.448 Y106.78 E59.50867
G0 X125.378 Y106.71
G0 F3000 X126.014 Y106.78
G1 F1500 X126.07 Y106.837 E59.51282
G0 F3000 X125.851 Y107
;TIME_ELAPSED:58.959956
;LAYER:1
M140 S60
M106 S255
G1 F2700 E55.51282
G0 F4500 X125.851 Y107 Z0.5
G0 X126.855 Y106.615
G0 X127.869 Y105.801
;TYPE:SUPPORT
G1 F2700 E59.51282
G1 F2250 X127.869 Y105.765 E59.51407
G1 X127.968 Y105.764 E59.51749
G1 X129.483 Y105.764 E59.5699
G1 X129.484 Y114.233 E59.86284
G1 X129.484 Y114.236 E59.86295
G1 X127.968 Y114.236 E59.91539
G1 X127.87 Y114.236 E59.91878
G1 X127.87 Y114.2 E59.92002
G1 X127.968 Y114.2 E59.92341
G1 X128.142 Y114.2 E59.92943
G1 X128.141 Y105.801 E60.21996
G1 X127.968 Y105.801 E60.22594
G1 X127.869 Y105.801 E60.22936
G1 F2700 E56.22936
G0 F4500 X128.134 Y105.8
G0 X128.122 Y105.348
G0 X90.163 Y105.347
G0 X90.152 Y105.801
G0 X90.416 Y105.8
G1 F2700 E60.22936
G1 F2250 X90.416 Y105.764 E60.23061
G1 X87.996 Y105.764 E60.31432
G1 X87.996 Y105.8 E60.31556
G1 X87.992 Y114.121 E60.60339
G1 X87.994 Y114.235 E60.60734
G1 X90.337 Y114.235 E60.68838
G1 X90.337 Y114.199 E60.68963
G1 X90.037 Y114.199 E60.7
G1 X90.036 Y105.8 E60.99053
G1 X90.416 Y105.8 E61.00367
G0 F4500 X91.416 Y106.8
;TYPE:WALL-INNER
G1 F1710 X91.416 Y106.6 E61.01059
G1 X91.616 Y106.6 E61.01507
G1 X126.869 Y106.601 E62.23449
G1 X126.87 Y113.2 E62.46275
G1 X126.87 Y113.4 E62.46967
G1 X126.67 Y113.4 E62.47415
G1 X91.417 Y113.399 E63.69357
G1 X91.416 Y106.8 E63.92184
G0 F4500 X91.016 Y106.4
;TYPE:WALL-OUTER
G1 F1230 X91.016 Y106.2 E63.92875
G1 X91.216 Y106.2 E63.93323
G1 X127.269 Y106.201 E65.18033
G1 X127.27 Y113.6 E65.43626
G1 X127.27 Y113.8 E65.44318
G1 X127.07 Y113.8 E65.44766
G1 X91.017 Y113.799 E66.69475
G1 X91.016 Y106.4 E66.95069
G0 F4500 X91.016 Y106.2
G0 X91.596 Y106.959
;TYPE:SKIN
G1 F1200 X91.776 Y106.779 E66.95949
G0 F4500 X92.341 Y106.779
G1 F1200 X91.596 Y107.524 E66.99594
G0 X91.526 Y107.594
G0 F4500 X91.596 Y108.09
G1 F1200 X92.907 Y106.779 E67.06007
G0 X92.977 Y106.709
G0 F4500 X93.473 Y106.779
G1 F1200 X91.596 Y108.656 E67.15189
G0 X91.526 Y108.726
G0 F4500 X91.596 Y109.221
G1 F1200 X94.038 Y106.779 E67.27135
G0 X94.108 Y106.709
G0 F4500 X94.604 Y106.779
G1 F1200 X91.596 Y109.787 E67.41849
G0 X91.526 Y109.857
G0 F4500 X91.596 Y110.353
G1 F1200 X95.17 Y106.779 E67.59333
G0 X95.24 Y106.709
G0 F4500 X95.735 Y106.779
G1 F1200 X91.596 Y110.918 E67.7958
G0 X91.526 Y110.988
G0 F4500 X91.596 Y111.484
G1 F1200 X96.301 Y106.779 E68.02596
G0 X96.371 Y106.709
G0 F4500 X96.867 Y106.779
G1 F1200 X91.596 Y112.05 E68.28381
G0 X91.526 Y112.12
G0 F4500 X91.596 Y112.615
G1 F1200 X97.432 Y106.779 E68.5693
G0 X97.502 Y106.709
G0 F4500 X97.998 Y106.779
G1 F1200 X91.596 Y113.181 E68.88248
G0 X91.526 Y113.251
G0 F4500 X92.124 Y113.219
G1 F1200 X98.564 Y106.779 E69.19751
G0 X98.634 Y106.709
G0 F4500 X99.13 Y106.779
G1 F1200 X92.69 Y113.219 E69.51254
G0 X92.62 Y113.289
G0 F4500 X93.256 Y113.219
