;FLAVOR:RepRap
;TIME:2449
;Filament used: 1.96198m
;Layer height: 0.2
;Generated with Cura_SteamEngine 2.4.0
M190 S60
M104 S195
M109 S195
G21 ;metric values
G90 ;absolute positioning
M82 ;set extruder to absolute mode
M107 ;start with the fan off
G28 X0 Y0 ;move X/Y to min endstops
G28 Z0 ;move Z to min endstops
G1 Z15.0 F9000 ;move the platform down 15mm
G92 E0 ;zero the extruded length
G1 F200 E3 ;extrude 3mm of feed stock
G92 E0 ;zero the extruded length again
G1 F9000;Put printing message on LCD screen
M117 Printing...
;LAYER_COUNT:95
;LAYER:0
M107
G1 F2700 E-4
G0 F3000 X94.093 Y103.138 Z0.3
;TYPE:SKIRT
G1 F2700 E0
G1 F1200 X95.395 Y102.042 E0.08915
G1 X95.798 Y101.744 E0.11541
G1 X97.237 Y100.813 E0.20519
G1 X97.634 Y100.587 E0.22912
G1 X98.673 Y100.072 E0.28987
G1 X99.024 Y99.918 E0.30995
G1 X100.582 Y99.324 E0.39729
G1 X101.054 Y99.177 E0.42319
G1 X102.7 Y98.773 E0.51197
G1 X102.94 Y98.722 E0.52483
G1 X108.059 Y97.794 E0.79736
G1 X113.38 Y96.548 E1.08364
G1 X115.95 Y95.83 E1.22342
G1 X121.161 Y94.132 E1.51052
G1 X123.67 Y93.195 E1.65082
G1 X128.699 Y91.068 E1.93686
G1 X132.37 Y89.3 E2.1503
G1 X132.895 Y89.091 E2.1799
G1 X133.445 Y88.959 E2.20953
G1 X134.007 Y88.905 E2.23911
G1 X134.572 Y88.931 E2.26874
G1 X135.128 Y89.037 E2.29839
G1 X135.663 Y89.22 E2.32801
G1 X136.166 Y89.476 E2.35758
G1 X136.629 Y89.801 E2.38721
G1 X137.013 Y90.158 E2.41467
G1 X137.453 Y90.624 E2.44825
G1 X137.811 Y91.061 E2.47784
G1 X138.104 Y91.545 E2.50748
G1 X138.326 Y92.065 E2.5371
G1 X138.472 Y92.611 E2.5667
G1 X138.54 Y93.172 E2.59631
G1 X138.528 Y93.737 E2.62591
G1 X138.369 Y94.545 E2.66905
G1 X137.494 Y97.393 E2.82512
G1 X136.114 Y102.693 E3.11202
G1 X135.543 Y105.338 E3.25377
G1 X135.055 Y107.965 E3.39374
G1 X134.287 Y113.355 E3.67894
G1 X133.821 Y118.815 E3.966
G1 X133.607 Y123.445 E4.2088
G1 X133.541 Y124.006 E4.2384
G1 X133.417 Y124.492 E4.26467
G1 X133.081 Y125.53 E4.32182
G1 X132.76 Y126.261 E4.36365
G1 X132.439 Y126.831 E4.39791
G1 X132.036 Y127.417 E4.43517
G1 X131.448 Y128.128 E4.4835
G1 X131.058 Y128.537 E4.51311
G1 X130.785 Y128.764 E4.53171
G1 X129.887 Y129.446 E4.59078
G1 X129.414 Y129.756 E4.6204
G1 X129.019 Y129.948 E4.64341
G1 X128.011 Y130.372 E4.70069
G1 X127.476 Y130.554 E4.7303
G1 X127.092 Y130.635 E4.75086
G1 X126.161 Y130.784 E4.80025
G1 X125.661 Y130.832 E4.82656
G1 X113.966 Y131.219 E5.43953
G1 X113.834 Y131.221 E5.44645
G1 X91.993 Y131.222 E6.59058
G1 X91.429 Y131.182 E6.6202
G1 X91.091 Y131.119 E6.63821
G1 X90.482 Y130.978 E6.67096
G1 X89.872 Y130.784 E6.70449
G1 X88.775 Y130.336 E6.76656
G1 X88.217 Y130.056 E6.79927
G1 X87.347 Y129.53 E6.85253
G1 X86.683 Y129.027 E6.89616
G1 X85.554 Y127.97 E6.97718
G1 X85.076 Y127.434 E7.0148
G1 X84.534 Y126.704 E7.06243
G1 X84.126 Y126.021 E7.10411
G1 X83.437 Y124.555 E7.18896
G1 X83.233 Y124.028 E7.21856
G1 X83.131 Y123.62 E7.24059
G1 X82.837 Y122.114 E7.32098
G1 X82.764 Y121.424 E7.35732
G1 X82.749 Y120.638 E7.3985
G1 X82.77 Y120.141 E7.42456
G1 X82.859 Y119.301 E7.46881
G1 X82.945 Y118.798 E7.49554
G1 X83.131 Y118.015 E7.5377
G1 X83.278 Y117.532 E7.56415
G1 X83.574 Y116.744 E7.60825
G1 X83.79 Y116.268 E7.63563
G1 X84.229 Y115.445 E7.68449
G1 X84.675 Y114.779 E7.72648
G1 X88.246 Y110.459 E8.02009
G1 X91.966 Y105.513 E8.34429
G1 X92.154 Y105.281 E8.35993
G1 X93.66 Y103.562 E8.47965
G1 X94.093 Y103.138 E8.5114
G0 F3000 X94.351 Y103.444
G1 F1200 X95.653 Y102.348 E8.60055
G1 X96.015 Y102.079 E8.62417
G1 X97.454 Y101.148 E8.71396
G1 X97.811 Y100.945 E8.73547
G1 X98.85 Y100.43 E8.79622
G1 X99.167 Y100.292 E8.81433
G1 X100.725 Y99.698 E8.90167
G1 X101.149 Y99.566 E8.92494
G1 X102.795 Y99.162 E9.01372
G1 X103.011 Y99.116 E9.02529
G1 X108.143 Y98.186 E9.29851
G1 X113.466 Y96.939 E9.5849
G1 X116.063 Y96.214 E9.72615
G1 X121.306 Y94.506 E10.015
G1 X123.797 Y93.575 E10.15431
G1 X128.865 Y91.431 E10.44258
G1 X132.543 Y89.66 E10.65642
G1 X133.042 Y89.464 E10.6845
G1 X133.565 Y89.345 E10.7126
G1 X134.1 Y89.304 E10.74071
G1 X134.635 Y89.343 E10.76881
G1 X135.158 Y89.461 E10.7969
G1 X135.658 Y89.656 E10.82501
G1 X136.123 Y89.923 E10.8531
G1 X136.723 Y90.432 E10.89432
G1 X137.163 Y90.898 E10.92789
G1 X137.501 Y91.315 E10.95601
G1 X137.773 Y91.777 E10.98409
G1 X137.974 Y92.274 E11.01218
G1 X138.099 Y92.795 E11.04024
G1 X138.145 Y93.33 E11.06837
G1 X138.111 Y93.865 E11.09645
G1 X137.986 Y94.427 E11.12661
G1 X137.114 Y97.266 E11.28219
G1 X135.725 Y102.6 E11.57093
G1 X135.145 Y105.286 E11.71488
G1 X134.663 Y107.882 E11.85319
G1 X133.888 Y113.318 E12.14084
G1 X133.422 Y118.788 E12.42842
G1 X133.207 Y123.426 E12.67164
G1 X133.143 Y123.959 E12.69976
G1 X133.036 Y124.369 E12.72196
G1 X132.7 Y125.407 E12.77911
G1 X132.412 Y126.065 E12.81674
G1 X132.091 Y126.635 E12.85101
G1 X131.728 Y127.162 E12.88453
G1 X131.14 Y127.873 E12.93286
G1 X130.769 Y128.26 E12.96094
G1 X130.543 Y128.446 E12.97628
G1 X129.645 Y129.128 E13.03535
G1 X129.195 Y129.42 E13.06345
G1 X128.864 Y129.579 E13.08268
G1 X127.856 Y130.003 E13.13997
G1 X127.347 Y130.174 E13.1681
G1 X127.029 Y130.24 E13.18511
G1 X126.098 Y130.389 E13.2345
G1 X125.648 Y130.432 E13.25818
G1 X113.953 Y130.819 E13.87116
G1 X113.834 Y130.821 E13.87739
G1 X91.993 Y130.822 E15.02153
G1 X91.458 Y130.782 E15.04963
G1 X91.181 Y130.729 E15.0644
G1 X90.572 Y130.588 E15.09715
G1 X90.023 Y130.414 E15.12732
G1 X88.926 Y129.966 E15.18939
G1 X88.424 Y129.714 E15.21882
G1 X87.554 Y129.188 E15.27207
G1 X86.957 Y128.735 E15.31133
G1 X85.828 Y127.678 E15.39235
G1 X85.398 Y127.196 E15.42619
G1 X84.856 Y126.466 E15.47381
G1 X84.488 Y125.851 E15.51136
G1 X83.799 Y124.385 E15.59621
G1 X83.608 Y123.884 E15.6243
G1 X83.524 Y123.544 E15.64265
G1 X83.23 Y122.038 E15.72303
G1 X83.164 Y121.417 E15.75574
G1 X83.149 Y120.631 E15.79692
G1 X83.168 Y120.183 E15.82041
G1 X83.257 Y119.343 E15.86466
G1 X83.334 Y118.89 E15.88873
G1 X83.52 Y118.107 E15.93089
G1 X83.653 Y117.673 E15.95467
G1 X83.949 Y116.885 E15.99877
G1 X84.143 Y116.457 E16.02338
G1 X84.582 Y115.634 E16.07224
G1 X84.983 Y115.034 E16.11005
G1 X88.562 Y110.705 E16.40429
G1 X92.286 Y105.753 E16.72886
G1 X92.455 Y105.545 E16.7429
G1 X93.961 Y103.826 E16.86262
G1 X94.351 Y103.444 E16.89122
G0 F3000 X94.608 Y103.75
G1 F1200 X95.91 Y102.654 E16.98037
G1 X96.233 Y102.415 E17.00142
G1 X97.672 Y101.484 E17.0912
G1 X97.989 Y101.304 E17.1103
G1 X99.028 Y100.789 E17.17105
G1 X99.309 Y100.666 E17.18712
G1 X100.867 Y100.072 E17.27446
G1 X101.244 Y99.954 E17.29516
G1 X102.89 Y99.55 E17.38394
G1 X103.082 Y99.509 E17.39422
G1 X108.227 Y98.576 E17.66814
G1 X113.573 Y97.325 E17.95575
G1 X116.176 Y96.597 E18.09734
G1 X121.429 Y94.886 E18.38675
G1 X123.973 Y93.936 E18.52901
G1 X129.032 Y91.795 E18.81678
G1 X132.717 Y90.021 E19.03102
G1 X133.188 Y89.838 E19.05749
G1 X133.682 Y89.732 E19.08395
G1 X134.187 Y89.705 E19.11045
G1 X134.69 Y89.758 E19.13694
G1 X135.178 Y89.889 E19.16341
G1 X135.64 Y90.096 E19.18993
G1 X136.063 Y90.373 E19.21642
G1 X136.432 Y90.707 E19.24249
G1 X136.872 Y91.173 E19.27606
G1 X137.189 Y91.567 E19.30255
G1 X137.44 Y92.006 E19.32904
G1 X137.618 Y92.479 E19.35552
G1 X137.72 Y92.974 E19.38199
G1 X137.743 Y93.479 E19.40848
G1 X137.686 Y93.981 E19.43494
G1 X137.604 Y94.31 E19.4527
G1 X136.726 Y97.167 E19.60927
G1 X135.335 Y102.511 E19.89855
G1 X134.756 Y105.193 E20.04228
G1 X134.268 Y107.822 E20.18235
G1 X133.49 Y113.282 E20.47126
G1 X133.024 Y118.735 E20.75796
G1 X132.808 Y123.408 E21.00301
G1 X132.744 Y123.909 E21.02947
G1 X132.655 Y124.245 E21.04768
G1 X132.319 Y125.283 E21.10483
G1 X132.063 Y125.868 E21.13828
G1 X131.742 Y126.438 E21.17255
G1 X131.42 Y126.907 E21.20235
G1 X130.832 Y127.618 E21.25068
G1 X130.301 Y128.127 E21.28922
G1 X129.403 Y128.809 E21.34829
G1 X128.978 Y129.082 E21.37475
G1 X128.709 Y129.211 E21.39037
G1 X127.701 Y129.635 E21.44766
G1 X127.221 Y129.793 E21.47413
G1 X126.966 Y129.845 E21.48776
G1 X126.035 Y129.994 E21.53715
G1 X125.635 Y130.032 E21.5582
G1 X113.94 Y130.419 E22.17118
G1 X113.834 Y130.421 E22.17673
G1 X91.993 Y130.422 E23.32087
G1 X91.271 Y130.34 E23.35893
G1 X90.662 Y130.199 E23.39168
G1 X90.174 Y130.043 E23.41852
G1 X89.077 Y129.595 E23.48059
G1 X88.631 Y129.371 E23.50673
G1 X87.761 Y128.845 E23.55999
G1 X87.23 Y128.443 E23.59488
G1 X86.101 Y127.386 E23.6759
G1 X85.719 Y126.958 E23.70595
G1 X85.177 Y126.228 E23.75358
G1 X84.85 Y125.681 E23.78696
G1 X84.161 Y124.215 E23.87182
G1 X83.983 Y123.742 E23.89829
G1 X83.916 Y123.467 E23.91312
G1 X83.622 Y121.961 E23.9935
G1 X83.564 Y121.409 E24.02257
G1 X83.549 Y120.623 E24.06376
G1 X83.566 Y120.225 E24.08462
G1 X83.655 Y119.385 E24.12887
G1 X83.724 Y118.982 E24.15029
G1 X83.91 Y118.199 E24.19245
G1 X84.027 Y117.814 E24.21353
G1 X84.323 Y117.026 E24.25762
G1 X84.496 Y116.645 E24.27954
G1 X84.935 Y115.822 E24.32841
G1 X85.292 Y115.289 E24.36201
G1 X88.876 Y110.953 E24.6567
G1 X92.606 Y105.994 E24.98176
G1 X92.756 Y105.808 E24.99428
G1 X94.262 Y104.089 E25.11399
G1 X94.608 Y103.75 E25.13937
G1 F2700 E21.13937
G0 F3000 X92.035 Y113.362
G0 X91.991 Y113.763
G0 X94.816 Y117.601
;TYPE:SUPPORT
G1 F2700 E25.13937
G1 F1200 X92.142 Y117.601 E25.27945
G1 X92.142 Y117.553 E25.28196
G1 X97.74 Y117.553 E25.57521
G1 X97.74 Y117.601 E25.57772
G1 X95.05 Y117.601 E25.71864
G1 X95.05 Y124.433 E26.07653
G1 X94.816 Y124.433 E26.08879
G1 X94.816 Y117.601 E26.44668
G0 F3000 X99.034 Y122.161
G1 F1200 X103.068 Y122.161 E26.658
G1 X101.825 Y118.978 E26.83701
G1 X101.469 Y117.98 E26.89251
G1 X100.623 Y117.98 E26.93683
G1 X100.24 Y119.06 E26.99686
G1 X99.034 Y122.161 E27.17116
G0 F3000 X99.028 Y122.171
G1 F1200 X98.148 Y124.433 E27.2983
G1 X97.94 Y124.433 E27.3092
G1 X100.737 Y117.553 E27.69825
G1 X101.377 Y117.553 E27.73177
G1 X104.134 Y124.433 E28.12004
G1 X103.94 Y124.433 E28.1302
G1 X103.064 Y122.171 E28.25727
G1 X99.028 Y122.171 E28.4687
G0 F3000 X106.129 Y121.415
G1 F1200 X106.129 Y124.433 E28.6268
G1 X105.891 Y124.433 E28.63926
G1 X105.891 Y117.553 E28.99967
G1 X108.695 Y117.553 E29.14656
G1 X109.036 Y117.565 E29.16443
G1 X109.354 Y117.601 E29.1812
G1 X109.605 Y117.65 E29.19459
G1 X109.871 Y117.73 E29.20914
G1 X110.069 Y117.813 E29.22039
G1 X110.272 Y117.929 E29.23264
G1 X110.445 Y118.06 E29.24401
G1 X110.602 Y118.211 E29.25542
G1 X110.716 Y118.357 E29.26512
G1 X110.814 Y118.518 E29.27499
G1 X110.904 Y118.729 E29.28701
G1 X110.961 Y118.931 E29.29801
G1 X110.997 Y119.151 E29.30968
G1 X111.013 Y119.435 E29.32458
G1 X111 Y119.702 E29.33859
G1 X110.968 Y119.936 E29.35096
G1 X110.912 Y120.144 E29.36224
G1 X110.829 Y120.351 E29.37393
G1 X110.725 Y120.538 E29.38514
G1 X110.594 Y120.715 E29.39667
G1 X110.45 Y120.863 E29.40749
G1 X110.24 Y121.03 E29.42154
G1 X110.062 Y121.137 E29.43242
G1 X109.834 Y121.242 E29.44557
G1 X109.622 Y121.311 E29.45725
G1 X109.342 Y121.37 E29.47224
G1 X109.054 Y121.404 E29.48743
G1 X108.605 Y121.415 E29.51096
G1 X106.129 Y121.415 E29.64066
G0 F3000 X106.129 Y121.393
G1 F1200 X108.64 Y121.393 E29.7722
G1 X109.155 Y121.356 E29.79925
G1 X109.625 Y121.244 E29.82456
G1 X110.024 Y121.05 E29.8478
G1 X110.36 Y120.753 E29.87129
G1 X110.595 Y120.378 E29.89448
G1 X110.729 Y119.943 E29.91832
G1 X110.772 Y119.459 E29.94377
G1 X110.728 Y118.989 E29.9685
G1 X110.59 Y118.563 E29.99196
G1 X110.343 Y118.197 E30.01509
G1 X110.007 Y117.914 E30.0381
G1 X109.587 Y117.725 E30.06223
G1 X109.124 Y117.617 E30.08714
G1 X108.594 Y117.585 E30.11495
G1 X106.129 Y117.585 E30.24408
G1 X106.129 Y121.393 E30.44356
G0 F3000 X112.484 Y122.414
G1 F1200 X112.713 Y122.075 E30.46499
G1 X113.001 Y122.645 E30.49844
G1 X112.484 Y122.645 E30.52553
G1 X112.484 Y122.414 E30.53763
G0 F3000 X116.058 Y118.573
G1 F1200 X115.252 Y118.325 E30.5818
G1 X115.774 Y117.553 E30.63062
G1 X116.182 Y117.553 E30.65199
G1 X116.182 Y124.433 E31.0124
G1 X116.058 Y124.433 E31.0189
G1 X116.058 Y118.573 E31.32587
G0 F3000 X119.369 Y118.797
G1 F1200 X119.357 Y119.023 E31.33773
G1 X119.374 Y119.282 E31.35132
G1 X119.436 Y119.531 E31.36477
G1 X119.544 Y119.751 E31.3776
G1 X119.624 Y119.87 E31.38512
G1 X119.8 Y120.051 E31.39834
G1 X119.992 Y120.201 E31.4111
G1 X120.213 Y120.329 E31.42448
G1 X120.468 Y120.444 E31.43914
G1 X120.82 Y120.559 E31.45853
G1 X121.286 Y120.682 E31.48378
G1 X122.796 Y121.048 E31.56517
G1 X123.047 Y121.13 E31.57901
G1 X123.318 Y121.233 E31.59419
G1 X123.604 Y121.37 E31.61081
G1 X123.793 Y121.485 E31.62239
G1 X123.907 Y121.572 E31.62991
G1 X124.047 Y121.707 E31.6401
G1 X124.134 Y121.814 E31.64732
G1 X124.208 Y121.93 E31.65453
G1 X124.281 Y122.08 E31.66327
G1 X124.319 Y122.181 E31.66892
G1 X124.362 Y122.352 E31.67816
G1 X124.382 Y122.498 E31.68588
G1 X124.392 Y122.709 E31.69694
G1 X124.377 Y122.959 E31.71006
G1 X124.339 Y123.186 E31.72212
G1 X124.279 Y123.371 E31.73231
G1 X124.183 Y123.566 E31.74369
G1 X124.066 Y123.737 E31.75455
G1 X123.927 Y123.887 E31.76526
G1 X123.715 Y124.058 E31.77953
G1 X123.499 Y124.189 E31.79276
G1 X123.26 Y124.301 E31.80659
G1 X122.992 Y124.392 E31.82141
G1 X122.69 Y124.466 E31.8377
G1 X122.357 Y124.519 E31.85536
G1 X122.035 Y124.549 E31.8723
G1 X121.642 Y124.561 E31.8929
G1 X120.924 Y124.523 E31.93057
G1 X120.314 Y124.411 E31.96306
G1 X119.847 Y124.245 E31.98902
G1 X119.439 Y124.001 E32.01392
G1 X119.145 Y123.715 E32.03541
G1 X118.923 Y123.356 E32.05752
G1 X118.91 Y123.317 E32.05967
G1 X119.13 Y123.273 E32.07143
G1 X119.165 Y123.356 E32.07614
G1 X119.273 Y123.551 E32.08782
G1 X119.402 Y123.73 E32.09938
G1 X119.563 Y123.902 E32.11172
G1 X119.743 Y124.053 E32.12403
G1 X119.929 Y124.173 E32.13562
G1 X120.126 Y124.275 E32.14725
G1 X120.358 Y124.363 E32.16024
G1 X120.591 Y124.433 E32.17299
G1 X120.845 Y124.485 E32.18657
G1 X121.106 Y124.523 E32.20039
G1 X121.373 Y124.544 E32.21442
G1 X121.667 Y124.551 E32.22982
G1 X121.973 Y124.544 E32.24586
G1 X122.244 Y124.521 E32.2601
G1 X122.52 Y124.481 E32.27471
G1 X122.767 Y124.424 E32.28799
G1 X123.011 Y124.348 E32.30138
G1 X123.228 Y124.256 E32.31373
G1 X123.434 Y124.142 E32.32606
G1 X123.625 Y124.002 E32.33846
G1 X123.79 Y123.839 E32.35061
G1 X123.923 Y123.661 E32.36225
G1 X124.034 Y123.457 E32.37442
G1 X124.111 Y123.233 E32.38683
G1 X124.151 Y123.019 E32.39823
G1 X124.165 Y122.778 E32.41088
G1 X124.159 Y122.633 E32.41848
G1 X124.126 Y122.392 E32.43122
G1 X124.086 Y122.256 E32.43865
G1 X123.986 Y122.033 E32.45145
G1 X123.849 Y121.84 E32.46385
G1 X123.688 Y121.679 E32.47578
G1 X123.494 Y121.53 E32.48859
G1 X123.293 Y121.419 E32.50062
G1 X122.966 Y121.28 E32.51923
G1 X122.717 Y121.196 E32.533
G1 X122.474 Y121.132 E32.54616
G1 X121.043 Y120.79 E32.62324
G1 X121.043 Y120.789 E32.62329
G1 X120.607 Y120.667 E32.64701
G1 X120.607 Y120.668 E32.64706
G1 X120.342 Y120.578 E32.66172
G1 X120.091 Y120.471 E32.67601
G1 X119.882 Y120.361 E32.68839
G1 X119.704 Y120.249 E32.6994
G1 X119.576 Y120.145 E32.70804
G1 X119.459 Y120.024 E32.71686
G1 X119.37 Y119.905 E32.72464
G1 X119.29 Y119.769 E32.73291
G1 X119.222 Y119.613 E32.74182
G1 X119.185 Y119.482 E32.74895
G1 X119.153 Y119.282 E32.75956
G1 X119.145 Y119.093 E32.76947
G1 X119.157 Y118.859 E32.78175
G1 X119.195 Y118.656 E32.79257
G1 X119.256 Y118.467 E32.80297
G1 X119.333 Y118.311 E32.81208
G1 X119.441 Y118.153 E32.82211
G1 X119.569 Y118.015 E32.83197
G1 X119.727 Y117.887 E32.84262
G1 X119.913 Y117.773 E32.85405
G1 X120.129 Y117.67 E32.86659
G1 X120.383 Y117.582 E32.88067
G1 X120.658 Y117.513 E32.89552
G1 X120.716 Y117.503 E32.8986
G1 X120.63 Y117.523 E32.90323
G1 X120.418 Y117.589 E32.91486
G1 X120.207 Y117.677 E32.92683
G1 X120.023 Y117.778 E32.93783
G1 X119.847 Y117.906 E32.94923
G1 X119.699 Y118.053 E32.96016
G1 X119.579 Y118.212 E32.97059
G1 X119.482 Y118.394 E32.9814
G1 X119.413 Y118.592 E32.99238
G1 X119.369 Y118.797 E33.00336
G0 F3000 X122.352 Y117.464
G1 F1200 X122.278 Y117.453 E33.00728
G1 X122.314 Y117.456 E33.00918
G1 X122.586 Y117.492 E33.02355
G1 X122.851 Y117.545 E33.03771
G1 X123.07 Y117.607 E33.04963
G1 X123.27 Y117.682 E33.06082
G1 X123.442 Y117.771 E33.07096
G1 X123.592 Y117.87 E33.08038
G1 X123.725 Y117.984 E33.08955
G1 X123.846 Y118.12 E33.09909
G1 X123.952 Y118.269 E33.10867
G1 X124.068 Y118.476 E33.1211
G1 X123.847 Y118.515 E33.13285
G1 X123.828 Y118.472 E33.13532
G1 X123.726 Y118.291 E33.1462
G1 X123.602 Y118.121 E33.15722
