;FLAVOR:RepRap
;TIME:4554
;Filament used: 4.41912m
;Layer height: 0.2
;Generated with Cura_SteamEngine 2.4.0
M190 S60
M104 S192
M109 S192
G21 ;metric values
G90 ;absolute positioning
M82 ;set extruder to absolute mode
M107 ;start with the fan off
G28 X0 Y0 ;move X/Y to min endstops
G28 Z0 ;move Z to min endstops
G1 Z15.0 F9000 ;move the platform down 15mm
G92 E0 ;zero the extruded length
G1 F200 E3 ;extrude 3mm of feed stock
G92 E0 ;zero the extruded length again
G1 F9000;Put printing message on LCD screen
M117 Printing...
;LAYER_COUNT:180
;LAYER:0
M107
G1 F2100 E-3
G0 F3600 X83.567 Y88.551 Z0.3
;TYPE:SKIRT
G1 F2100 E0
G1 F1800 X84.017 Y88.208 E0.02823
G1 X84.51 Y87.933 E0.05639
G1 X85.038 Y87.729 E0.08463
G1 X85.589 Y87.602 E0.11284
G1 X86.211 Y87.553 E0.14397
G1 X113.99 Y87.553 E1.52987
G1 X114.554 Y87.593 E1.55808
G1 X115.107 Y87.712 E1.5863
G1 X115.637 Y87.908 E1.61449
G1 X116.134 Y88.176 E1.64266
G1 X116.589 Y88.512 E1.67088
G1 X116.992 Y88.909 E1.6991
G1 X117.334 Y89.359 E1.7273
G1 X117.61 Y89.852 E1.75549
G1 X117.814 Y90.38 E1.78373
G1 X117.941 Y90.93 E1.81189
G1 X117.99 Y91.553 E1.84307
G1 X117.991 Y126.842 E3.60364
G1 X117.951 Y127.406 E3.63185
G1 X117.832 Y127.958 E3.66003
G1 X117.636 Y128.489 E3.68826
G1 X117.368 Y128.986 E3.71644
G1 X117.032 Y129.441 E3.74465
G1 X116.635 Y129.844 E3.77288
G1 X116.185 Y130.186 E3.80108
G1 X115.692 Y130.462 E3.82926
G1 X115.165 Y130.666 E3.85746
G1 X114.614 Y130.793 E3.88567
G1 X113.988 Y130.842 E3.91699
G1 X86.207 Y130.822 E5.30299
G1 X85.643 Y130.782 E5.3312
G1 X85.091 Y130.662 E5.35939
G1 X84.56 Y130.466 E5.38762
G1 X84.063 Y130.197 E5.41582
G1 X83.609 Y129.861 E5.444
G1 X83.206 Y129.464 E5.47222
G1 X82.864 Y129.014 E5.50042
G1 X82.588 Y128.52 E5.52865
G1 X82.385 Y127.993 E5.55682
G1 X82.258 Y127.442 E5.58504
G1 X82.21 Y126.822 E5.61606
G1 X82.211 Y91.553 E7.37564
G1 X82.251 Y90.989 E7.40385
G1 X82.37 Y90.436 E7.43207
G1 X82.566 Y89.906 E7.46026
G1 X82.834 Y89.409 E7.48843
G1 X83.17 Y88.954 E7.51665
G1 X83.567 Y88.551 E7.54487
G0 F3600 X83.958 Y88.745
G1 F1800 X84.4 Y88.441 E7.57163
G1 X84.883 Y88.207 E7.59841
G1 X85.394 Y88.047 E7.62513
G1 X85.924 Y87.964 E7.65189
G1 X86.211 Y87.953 E7.66622
G1 X113.99 Y87.953 E9.05212
G1 X114.525 Y87.993 E9.07888
G1 X115.048 Y88.112 E9.10564
G1 X115.547 Y88.307 E9.13237
G1 X116.012 Y88.575 E9.15915
G1 X116.432 Y88.908 E9.18589
G1 X116.798 Y89.3 E9.21265
G1 X117.101 Y89.742 E9.23938
G1 X117.336 Y90.225 E9.26618
G1 X117.496 Y90.736 E9.29289
G1 X117.579 Y91.266 E9.31966
G1 X117.59 Y91.553 E9.33399
G1 X117.591 Y126.842 E11.09456
G1 X117.551 Y127.377 E11.12133
G1 X117.432 Y127.9 E11.14809
G1 X117.237 Y128.399 E11.17482
G1 X116.97 Y128.864 E11.20157
G1 X116.636 Y129.284 E11.22834
G1 X116.244 Y129.65 E11.25509
G1 X115.802 Y129.953 E11.28183
G1 X115.32 Y130.188 E11.30858
G1 X114.808 Y130.348 E11.33534
G1 X114.278 Y130.431 E11.36211
G1 X113.988 Y130.442 E11.37659
G1 X86.207 Y130.422 E12.76259
G1 X85.673 Y130.382 E12.7893
G1 X85.15 Y130.262 E12.81607
G1 X84.65 Y130.067 E12.84285
G1 X84.186 Y129.799 E12.86958
G1 X83.766 Y129.465 E12.89635
G1 X83.4 Y129.073 E12.92311
G1 X83.097 Y128.631 E12.94985
G1 X82.863 Y128.148 E12.97662
G1 X82.703 Y127.636 E13.00338
G1 X82.621 Y127.106 E13.03014
G1 X82.61 Y126.822 E13.04432
G1 X82.611 Y91.553 E14.8039
G1 X82.651 Y91.018 E14.83066
G1 X82.77 Y90.495 E14.85742
G1 X82.965 Y89.996 E14.88415
G1 X83.233 Y89.531 E14.91093
G1 X83.566 Y89.111 E14.93767
G1 X83.958 Y88.745 E14.96442
G0 F3600 X84.347 Y88.952
G1 F1800 X84.78 Y88.691 E14.98965
G1 X85.248 Y88.501 E15.01485
G1 X85.741 Y88.388 E15.04008
G1 X86.211 Y88.353 E15.06359
G1 X113.99 Y88.353 E16.44949
G1 X114.494 Y88.393 E16.47472
G1 X114.985 Y88.512 E16.49992
G1 X115.452 Y88.706 E16.52515
G1 X115.882 Y88.972 E16.55038
G1 X116.265 Y89.302 E16.5756
G1 X116.591 Y89.689 E16.60084
G1 X116.852 Y90.122 E16.62607
G1 X117.042 Y90.59 E16.65127
G1 X117.155 Y91.083 E16.6765
G1 X117.19 Y91.553 E16.70001
G1 X117.191 Y126.842 E18.46059
G1 X117.151 Y127.346 E18.48581
G1 X117.032 Y127.837 E18.51102
G1 X116.838 Y128.304 E18.53625
G1 X116.572 Y128.734 E18.56147
G1 X116.242 Y129.117 E18.5867
G1 X115.855 Y129.443 E18.61194
G1 X115.422 Y129.704 E18.63716
G1 X114.954 Y129.894 E18.66236
G1 X114.461 Y130.007 E18.6876
G1 X113.989 Y130.042 E18.71121
G1 X86.208 Y130.022 E20.09721
G1 X85.704 Y129.982 E20.12243
G1 X85.212 Y129.863 E20.14769
G1 X84.746 Y129.667 E20.17291
G1 X84.316 Y129.401 E20.19814
G1 X83.934 Y129.071 E20.22332
G1 X83.608 Y128.684 E20.24856
G1 X83.347 Y128.251 E20.27379
G1 X83.158 Y127.782 E20.29902
G1 X83.044 Y127.29 E20.32421
G1 X83.01 Y126.822 E20.34762
G1 X83.011 Y91.553 E22.1072
G1 X83.051 Y91.049 E22.13242
G1 X83.17 Y90.558 E22.15763
G1 X83.365 Y90.091 E22.18288
G1 X83.63 Y89.661 E22.20808
G1 X83.961 Y89.278 E22.23333
G1 X84.347 Y88.952 E22.25854
G1 F2100 E19.25854
G0 F3600 X86.814 Y90.879
G0 X86.815 Y92.158
G0 X87.201 Y92.544
;TYPE:WALL-INNER
G1 F2100 E22.25854
G1 F1800 X93.001 Y92.543 E22.5479
G1 X93.201 Y92.543 E22.55788
G1 X93.201 Y92.743 E22.56434
G1 X93.201 Y125.851 E24.2161
G1 X87.401 Y125.852 E24.50547
G1 X87.201 Y125.852 E24.51545
G1 X87.201 Y125.652 E24.52191
G1 X87.201 Y92.544 E26.17367
G0 F3600 X86.801 Y92.144
G1 F1800 X93.401 Y92.143 E26.50295
G1 X93.601 Y92.143 E26.51292
G1 X93.601 Y92.343 E26.51939
G1 X93.601 Y126.251 E28.21106
G1 X87.001 Y126.252 E28.54034
G1 X86.801 Y126.252 E28.55032
G1 X86.801 Y126.052 E28.55678
G1 X86.801 Y92.144 E30.24845
G0 F3600 X86.401 Y91.744
;TYPE:WALL-OUTER
G1 F1800 X93.801 Y91.743 E30.61764
G1 X94.001 Y91.743 E30.62762
G1 X94.001 Y91.943 E30.63408
G1 X94.001 Y126.651 E32.36567
G1 X86.601 Y126.652 E32.73486
G1 X86.401 Y126.652 E32.74483
G1 X86.401 Y126.452 E32.7513
G1 X86.401 Y91.744 E34.48288
G0 F3600 X86.601 Y91.744
G0 X87.632 Y92.723
;TYPE:SKIN
G1 F1800 X93.02 Y98.111 E34.86304
G0 X93.09 Y98.181
G0 F3600 X93.02 Y97.546
G1 F1800 X88.198 Y92.723 E35.20329
G0 X88.128 Y92.653
G0 F3600 X88.763 Y92.723
G1 F1800 X93.02 Y96.98 E35.50365
G0 X93.09 Y97.05
G0 F3600 X93.02 Y96.414
G1 F1800 X89.329 Y92.723 E35.76407
G0 X89.259 Y92.653
G0 F3600 X89.895 Y92.723
G1 F1800 X93.02 Y95.849 E35.98459
G0 X93.09 Y95.919
G0 F3600 X93.02 Y95.283
G1 F1800 X90.46 Y92.723 E36.16521
G0 X90.39 Y92.653
G0 F3600 X91.026 Y92.723
G1 F1800 X93.02 Y94.717 E36.3059
G0 X93.09 Y94.787
G0 F3600 X93.02 Y94.151
G1 F1800 X91.592 Y92.723 E36.40665
G0 X91.522 Y92.653
G0 F3600 X92.157 Y92.723
G1 F1800 X93.02 Y93.586 E36.46754
G0 X93.09 Y93.656
G0 F3600 X93.02 Y93.02
G1 F1800 X92.723 Y92.723 E36.48849
G0 F3600 X87.38 Y93.037
G1 F1800 X93.02 Y98.677 E36.88643
G0 X93.09 Y98.747
G0 F3600 X93.02 Y99.243
G1 F1800 X87.38 Y93.603 E37.28436
G0 X87.31 Y93.533
G0 F3600 X87.38 Y94.168
G1 F1800 X93.02 Y99.808 E37.68229
G0 X93.09 Y99.878
G0 F3600 X93.02 Y100.374
G1 F1800 X87.38 Y94.734 E38.08022
G0 X87.31 Y94.664
G0 F3600 X87.38 Y95.3
G1 F1800 X93.02 Y100.94 E38.47815
G0 X93.09 Y101.01
G0 F3600 X93.02 Y101.505
G1 F1800 X87.38 Y95.866 E38.87605
G0 X87.31 Y95.796
G0 F3600 X87.38 Y96.431
G1 F1800 X93.02 Y102.071 E39.27398
G0 X93.09 Y102.141
G0 F3600 X93.02 Y102.637
G1 F1800 X87.38 Y96.997 E39.67192
G0 X87.31 Y96.927
G0 F3600 X87.38 Y97.563
G1 F1800 X93.02 Y103.202 E40.06981
G0 X93.09 Y103.272
G0 F3600 X93.02 Y103.768
G1 F1800 X87.38 Y98.128 E40.46775
G0 X87.31 Y98.058
G0 F3600 X87.38 Y98.694
G1 F1800 X93.02 Y104.334 E40.86568
G0 X93.09 Y104.404
G0 F3600 X93.02 Y104.899
G1 F1800 X87.38 Y99.26 E41.26358
G0 X87.31 Y99.19
G0 F3600 X87.38 Y99.825
G1 F1800 X93.02 Y105.465 E41.66151
G0 X93.09 Y105.535
G0 F3600 X93.02 Y106.031
G1 F1800 X87.38 Y100.391 E42.05944
G0 X87.31 Y100.321
G0 F3600 X87.38 Y100.957
G1 F1800 X93.02 Y106.597 E42.45737
G0 X93.09 Y106.667
G0 F3600 X93.02 Y107.162
G1 F1800 X87.38 Y101.522 E42.85531
G0 X87.31 Y101.452
G0 F3600 X87.38 Y102.088
G1 F1800 X93.02 Y107.728 E43.25324
G0 X93.09 Y107.798
G0 F3600 X93.02 Y108.294
G1 F1800 X87.38 Y102.654 E43.65117
G0 X87.31 Y102.584
G0 F3600 X87.38 Y103.219
G1 F1800 X93.02 Y108.859 E44.0491
G0 X93.09 Y108.929
G0 F3600 X93.02 Y109.425
G1 F1800 X87.38 Y103.785 E44.44704
G0 X87.31 Y103.715
G0 F3600 X87.38 Y104.351
G1 F1800 X93.02 Y109.991 E44.84497
G0 X93.09 Y110.061
G0 F3600 X93.02 Y110.556
G1 F1800 X87.38 Y104.916 E45.2429
G0 X87.31 Y104.846
G0 F3600 X87.38 Y105.482
G1 F1800 X93.02 Y111.122 E45.64083
G0 X93.09 Y111.192
G0 F3600 X93.02 Y111.688
G1 F1800 X87.38 Y106.048 E46.03877
G0 X87.31 Y105.978
G0 F3600 X87.38 Y106.614
G1 F1800 X93.02 Y112.253 E46.43666
G0 X93.09 Y112.323
G0 F3600 X93.02 Y112.819
G1 F1800 X87.38 Y107.179 E46.8346
G0 X87.31 Y107.109
G0 F3600 X87.38 Y107.745
G1 F1800 X93.02 Y113.385 E47.23253
G0 X93.09 Y113.455
G0 F3600 X93.02 Y113.95
G1 F1800 X87.38 Y108.311 E47.63043
G0 X87.31 Y108.241
G0 F3600 X87.38 Y108.876
G1 F1800 X93.02 Y114.516 E48.02836
G0 X93.09 Y114.586
G0 F3600 X93.02 Y115.082
G1 F1800 X87.38 Y109.442 E48.42629
G0 X87.31 Y109.372
G0 F3600 X87.38 Y110.008
G1 F1800 X93.02 Y115.648 E48.82422
G0 X93.09 Y115.718
G0 F3600 X93.02 Y116.213
G1 F1800 X87.38 Y110.573 E49.22216
G0 X87.31 Y110.503
G0 F3600 X87.38 Y111.139
G1 F1800 X93.02 Y116.779 E49.62009
G0 X93.09 Y116.849
G0 F3600 X93.02 Y117.345
G1 F1800 X87.38 Y111.705 E50.01802
G0 X87.31 Y111.635
G0 F3600 X87.38 Y112.27
G1 F1800 X93.02 Y117.91 E50.41595
G0 X93.09 Y117.98
G0 F3600 X93.02 Y118.476
G1 F1800 X87.38 Y112.836 E50.81388
G0 X87.31 Y112.766
G0 F3600 X87.38 Y113.402
G1 F1800 X93.02 Y119.042 E51.21182
G0 X93.09 Y119.112
G0 F3600 X93.02 Y119.607
G1 F1800 X87.38 Y113.967 E51.60975
G0 X87.31 Y113.897
G0 F3600 X87.38 Y114.533
G1 F1800 X93.02 Y120.173 E52.00768
G0 X93.09 Y120.243
G0 F3600 X93.02 Y120.739
G1 F1800 X87.38 Y115.099 E52.40561
G0 X87.31 Y115.029
G0 F3600 X87.38 Y115.664
G1 F1800 X93.02 Y121.304 E52.80355
G0 X93.09 Y121.374
G0 F3600 X93.02 Y121.87
G1 F1800 X87.38 Y116.23 E53.20148
G0 X87.31 Y116.16
G0 F3600 X87.38 Y116.796
G1 F1800 X93.02 Y122.436 E53.59941
G0 X93.09 Y122.506
G0 F3600 X93.02 Y123.001
G1 F1800 X87.38 Y117.362 E53.99731
G0 X87.31 Y117.292
G0 F3600 X87.38 Y117.927
G1 F1800 X93.02 Y123.567 E54.39524
G0 X93.09 Y123.637
G0 F3600 X93.02 Y124.133
G1 F1800 X87.38 Y118.493 E54.79317
G0 X87.31 Y118.423
G0 F3600 X87.38 Y119.059
G1 F1800 X93.02 Y124.698 E55.19107
G0 X93.09 Y124.768
G0 F3600 X93.02 Y125.264
G1 F1800 X87.38 Y119.624 E55.589
G0 X87.31 Y119.554
G0 F3600 X87.38 Y120.19
G1 F1800 X92.86 Y125.67 E55.97565
G0 X92.93 Y125.74
G0 F3600 X92.295 Y125.67
G1 F1800 X87.38 Y120.756 E56.32239
G0 X87.31 Y120.686
G0 F3600 X87.38 Y121.321
G1 F1800 X91.729 Y125.67 E56.62924
G0 X91.799 Y125.74
G0 F3600 X91.163 Y125.67
G1 F1800 X87.38 Y121.887 E56.89615
G0 X87.31 Y121.817
G0 F3600 X87.38 Y122.453
G1 F1800 X90.598 Y125.67 E57.12316
G0 X90.668 Y125.74
G0 F3600 X90.032 Y125.67
G1 F1800 X87.38 Y123.018 E57.31027
G0 X87.31 Y122.948
G0 F3600 X87.38 Y123.584
G1 F1800 X89.466 Y125.67 E57.45745
G0 X89.536 Y125.74
G0 F3600 X88.901 Y125.67
G1 F1800 X87.38 Y124.15 E57.56473
G0 X87.31 Y124.08
G0 F3600 X87.38 Y124.715
G1 F1800 X88.335 Y125.67 E57.63211
G0 X88.405 Y125.74
G0 F3600 X87.769 Y125.67
G1 F1800 X87.38 Y125.281 E57.65956
G1 F2100 E54.65956
G0 F3600 X93.581 Y125.652
G0 X94.866 Y125.652
G0 X95.448 Y127.505
G0 X104.754 Y127.504
G0 X105.336 Y125.652
G0 X106.621 Y125.652
G0 X107.001 Y125.652
;TYPE:WALL-INNER
G1 F2100 E57.65956
G1 F1800 X107.001 Y92.544 E59.31132
G1 X112.8 Y92.543 E59.60064
G1 X113 Y92.543 E59.61061
G1 X113 Y92.743 E59.61707
G1 X113 Y125.851 E61.26884
G1 X107.201 Y125.852 E61.55815
G1 X107.001 Y125.852 E61.56813
G1 X107.001 Y125.652 E61.57459
G0 F3600 X106.601 Y126.052
G1 F1800 X106.601 Y92.144 E63.26627
G1 X113.2 Y92.143 E63.59549
G1 X113.4 Y92.143 E63.60547
G1 X113.4 Y92.343 E63.61193
G1 X113.4 Y126.251 E65.30361
G1 X106.801 Y126.252 E65.63284
G1 X106.601 Y126.252 E65.64281
G1 X106.601 Y126.052 E65.64927
G0 F3600 X106.201 Y126.452
;TYPE:WALL-OUTER
G1 F1800 X106.201 Y91.744 E67.38086
G1 X113.6 Y91.743 E67.75
G1 X113.8 Y91.743 E67.75998
G1 X113.8 Y91.943 E67.76644
G1 X113.8 Y126.651 E69.49803
G1 X106.401 Y126.652 E69.86717
G1 X106.201 Y126.652 E69.87714
G1 X106.201 Y126.452 E69.88361
G0 F3600 X106.201 Y126.252
G0 X107.18 Y125.282
;TYPE:SKIN
G1 F1800 X107.568 Y125.67 E69.91098
G0 F3600 X108.134 Y125.67
G1 F1800 X107.18 Y124.716 E69.97829
G0 X107.11 Y124.646
G0 F3600 X107.18 Y124.15
G1 F1800 X108.699 Y125.67 E70.0855
G0 X108.769 Y125.74
G0 F3600 X109.265 Y125.67
G1 F1800 X107.18 Y123.585 E70.23261
G0 X107.11 Y123.515
G0 F3600 X107.18 Y123.019
G1 F1800 X109.831 Y125.67 E70.41965
G0 X109.901 Y125.74
G0 F3600 X110.397 Y125.67
G1 F1800 X107.18 Y122.453 E70.64663
G0 X107.11 Y122.383
G0 F3600 X107.18 Y121.888
G1 F1800 X110.962 Y125.67 E70.91347
G0 X111.032 Y125.74
G0 F3600 X111.528 Y125.67
G1 F1800 X107.18 Y121.322 E71.22024
G0 X107.11 Y121.252
G0 F3600 X107.18 Y120.756
G1 F1800 X112.094 Y125.67 E71.56695
G0 X112.164 Y125.74
G0 F3600 X112.659 Y125.67
G1 F1800 X107.18 Y120.191 E71.95352
G0 X107.11 Y120.121
G0 F3600 X107.18 Y119.625
G1 F1800 X112.819 Y125.264 E72.35139
G0 X112.889 Y125.334
G0 F3600 X112.819 Y124.698
G1 F1800 X107.18 Y119.059 E72.74925
G0 X107.11 Y118.989
G0 F3600 X107.18 Y118.494
G1 F1800 X112.819 Y124.133 E73.14711
G0 X112.889 Y124.203
G0 F3600 X112.819 Y123.567
G1 F1800 X107.18 Y117.928 E73.54497
G0 X107.11 Y117.858
G0 F3600 X107.18 Y117.362
G1 F1800 X112.819 Y123.001 E73.94283
G0 X112.889 Y123.071
G0 F3600 X112.819 Y122.436
G1 F1800 X107.18 Y116.797 E74.3407
G0 X107.11 Y116.727
G0 F3600 X107.18 Y116.231
G1 F1800 X112.819 Y121.87 E74.73856
G0 X112.889 Y121.94
G0 F3600 X112.819 Y121.304
G1 F1800 X107.18 Y115.665 E75.13642
G0 X107.11 Y115.595
G0 F3600 X107.18 Y115.1
G1 F1800 X112.819 Y120.739 E75.53428
G0 X112.889 Y120.809
G0 F3600 X112.819 Y120.173
G1 F1800 X107.18 Y114.534 E75.93214
G0 X107.11 Y114.464
G0 F3600 X107.18 Y113.968
G1 F1800 X112.819 Y119.607 E76.33001
G0 X112.889 Y119.677
G0 F3600 X112.819 Y119.042
G1 F1800 X107.18 Y113.402 E76.7279
G0 X107.11 Y113.332
G0 F3600 X107.18 Y112.837
G1 F1800 X112.819 Y118.476 E77.12576
G0 X112.889 Y118.546
G0 F3600 X112.819 Y117.91
G1 F1800 X107.18 Y112.271 E77.52363
G0 X107.11 Y112.201
G0 F3600 X107.18 Y111.705
G1 F1800 X112.819 Y117.345 E77.92152
G0 X112.889 Y117.415
G0 F3600 X112.819 Y116.779
G1 F1800 X107.18 Y111.14 E78.31939
G0 X107.11 Y111.07
G0 F3600 X107.18 Y110.574
G1 F1800 X112.819 Y116.213 E78.71725
G0 X112.889 Y116.283
G0 F3600 X112.819 Y115.648
G1 F1800 X107.18 Y110.008 E79.11514
G0 X107.11 Y109.938
G0 F3600 X107.18 Y109.443
G1 F1800 X112.819 Y115.082 E79.51301
G0 X112.889 Y115.152
G0 F3600 X112.819 Y114.516
G1 F1800 X107.18 Y108.877 E79.91087
G0 X107.11 Y108.807
G0 F3600 X107.18 Y108.311
G1 F1800 X112.819 Y113.95 E80.30873
G0 X112.889 Y114.02
G0 F3600 X112.819 Y113.385
G1 F1800 X107.18 Y107.746 E80.70659
G0 X107.11 Y107.676
G0 F3600 X107.18 Y107.18
G1 F1800 X112.819 Y112.819 E81.10445
G0 X112.889 Y112.889
G0 F3600 X112.819 Y112.253
G1 F1800 X107.18 Y106.614 E81.50232
G0 X107.11 Y106.544
G0 F3600 X107.18 Y106.049
G1 F1800 X112.819 Y111.688 E81.90018
G0 X112.889 Y111.758
G0 F3600 X112.819 Y111.122
G1 F1800 X107.18 Y105.483 E82.29804
G0 X107.11 Y105.413
G0 F3600 X107.18 Y104.917
G1 F1800 X112.819 Y110.556 E82.6959
G0 X112.889 Y110.626
G0 F3600 X112.819 Y109.991
G1 F1800 X107.18 Y104.351 E83.0938
G0 X107.11 Y104.281
G0 F3600 X107.18 Y103.786
G1 F1800 X112.819 Y109.425 E83.49166
G0 X112.889 Y109.495
G0 F3600 X112.819 Y108.859
G1 F1800 X107.18 Y103.22 E83.88952
G0 X107.11 Y103.15
G0 F3600 X107.18 Y102.654
G1 F1800 X112.819 Y108.294 E84.28742
G0 X112.889 Y108.364
G0 F3600 X112.819 Y107.728
G1 F1800 X107.18 Y102.089 E84.68528
G0 X107.11 Y102.019
G0 F3600 X107.18 Y101.523
G1 F1800 X112.819 Y107.162 E85.08314
G0 X112.889 Y107.232
G0 F3600 X112.819 Y106.597
G1 F1800 X107.18 Y100.957 E85.48104
G0 X107.11 Y100.887
G0 F3600 X107.18 Y100.392
G1 F1800 X112.819 Y106.031 E85.8789
G0 X112.889 Y106.101
G0 F3600 X112.819 Y105.465
G1 F1800 X107.18 Y99.826 E86.27676
G0 X107.11 Y99.756
G0 F3600 X107.18 Y99.26
G1 F1800 X112.819 Y104.899 E86.67463
G0 X112.889 Y104.969
G0 F3600 X112.819 Y104.334
G1 F1800 X107.18 Y98.695 E87.07249
G0 X107.11 Y98.625
G0 F3600 X107.18 Y98.129
