;FLAVOR:RepRap
;TIME:1531
;Filament used: 1.44018m
;Layer height: 0.2
;Generated with Cura_SteamEngine 2.4.0
M190 S60
M104 S192
M109 S192
G21 ;metric values
G90 ;absolute positioning
M82 ;set extruder to absolute mode
M107 ;start with the fan off
G28 X0 Y0 ;move X/Y to min endstops
G28 Z0 ;move Z to min endstops
G1 Z15.0 F9000 ;move the platform down 15mm
G92 E0 ;zero the extruded length
G1 F200 E3 ;extrude 3mm of feed stock
G92 E0 ;zero the extruded length again
G1 F9000;Put printing message on LCD screen
M117 Printing...
;LAYER_COUNT:40
;LAYER:0
M107
G1 F2100 E-3
G0 F4500 X102.576 Y94.425 Z0.3
;TYPE:SKIRT
G1 F2100 E0
G1 F1500 X102.84 Y94.144 E0.01924
G1 X104.142 Y92.926 E0.10818
G1 X104.429 Y92.689 E0.12675
G1 X105.863 Y91.648 E0.21516
G1 X106.179 Y91.448 E0.23382
G1 X107.729 Y90.595 E0.32208
G1 X108.07 Y90.434 E0.3409
G1 X109.739 Y89.773 E0.43046
G1 X109.838 Y89.74 E0.43566
G1 X109.925 Y89.472 E0.44972
G1 X110.063 Y89.121 E0.46854
G1 X110.479 Y88.235 E0.51737
G1 X110.663 Y87.901 E0.53639
G1 X111.189 Y87.073 E0.58533
G1 X111.41 Y86.769 E0.60408
G1 X112.035 Y86.014 E0.65298
G1 X112.296 Y85.737 E0.67197
G1 X113.013 Y85.066 E0.72096
G1 X113.3 Y84.829 E0.73953
G1 X114.097 Y84.25 E0.78868
G1 X114.412 Y84.049 E0.80732
G1 X115.256 Y83.584 E0.8554
G1 X115.597 Y83.424 E0.87419
G1 X116.514 Y83.06 E0.92341
G1 X116.878 Y82.942 E0.9425
G1 X117.84 Y82.696 E0.99204
G1 X118.206 Y82.626 E1.01063
G1 X119.16 Y82.505 E1.05861
G1 X119.537 Y82.481 E1.07746
G1 X120.528 Y82.481 E1.1269
G1 X120.905 Y82.505 E1.14574
G1 X121.86 Y82.626 E1.19377
G1 X122.227 Y82.696 E1.21241
G1 X123.188 Y82.942 E1.2619
G1 X123.551 Y83.06 E1.28094
G1 X124.468 Y83.424 E1.33016
G1 X124.809 Y83.584 E1.34896
G1 X125.653 Y84.049 E1.39703
G1 X125.968 Y84.25 E1.41567
G1 X126.765 Y84.829 E1.46482
G1 X127.052 Y85.066 E1.48339
G1 X127.769 Y85.737 E1.53238
G1 X128.03 Y86.014 E1.55137
G1 X128.655 Y86.769 E1.60027
G1 X128.876 Y87.073 E1.61902
G1 X129.402 Y87.901 E1.66796
G1 X129.586 Y88.235 E1.68698
G1 X130.001 Y89.119 E1.73571
G1 X130.139 Y89.469 E1.75448
G1 X130.442 Y90.404 E1.80351
G1 X130.535 Y90.766 E1.82216
G1 X130.716 Y91.713 E1.87026
G1 X130.763 Y92.086 E1.88902
G1 X130.827 Y93.094 E1.93941
G1 X130.833 Y93.284 E1.94889
G1 X130.833 Y125.244 E3.54338
G1 X130.81 Y125.615 E3.56193
G1 X130.616 Y127.172 E3.64021
G1 X130.516 Y127.651 E3.66462
G1 X130.43 Y127.901 E3.67781
G1 X129.859 Y129.35 E3.75551
G1 X129.643 Y129.789 E3.77992
G1 X129.494 Y130.015 E3.79342
G1 X128.582 Y131.268 E3.87074
G1 X128.262 Y131.639 E3.89518
G1 X128.066 Y131.816 E3.90836
G1 X126.854 Y132.817 E3.98678
G1 X126.453 Y133.097 E4.01118
G1 X126.221 Y133.219 E4.02426
G1 X124.826 Y133.875 E4.10117
G1 X124.367 Y134.046 E4.12561
G1 X124.114 Y134.106 E4.13858
G1 X122.592 Y134.398 E4.2159
G1 X122.106 Y134.451 E4.24029
G1 X121.841 Y134.446 E4.25351
G1 X120.296 Y134.35 E4.33074
G1 X119.812 Y134.28 E4.35514
G1 X119.555 Y134.209 E4.36844
G1 X118.059 Y133.723 E4.44692
G1 X117.607 Y133.535 E4.47134
G1 X117.374 Y133.4 E4.48477
G1 X116.068 Y132.568 E4.56203
G1 X115.678 Y132.272 E4.58645
G1 X115.496 Y132.094 E4.59916
G1 X114.435 Y130.967 E4.67638
G1 X114.219 Y130.673 E4.69458
G1 X113.405 Y130.57 E4.73551
G1 X113.04 Y130.501 E4.75405
G1 X112.08 Y130.256 E4.80348
G1 X111.716 Y130.138 E4.82257
G1 X110.798 Y129.774 E4.87183
G1 X110.457 Y129.613 E4.89065
G1 X109.616 Y129.15 E4.93854
G1 X109.297 Y128.947 E4.95741
G1 X108.494 Y128.362 E5.00697
G1 X108.209 Y128.126 E5.02543
G1 X107.496 Y127.458 E5.07418
G1 X107.236 Y127.182 E5.0931
G1 X106.611 Y126.427 E5.14199
G1 X106.39 Y126.123 E5.16075
G1 X106.327 Y126.024 E5.1666
G1 X105.316 Y127.173 E5.24296
G1 X105.183 Y127.314 E5.25263
G1 X102.107 Y130.384 E5.46944
G1 X101.97 Y130.513 E5.47883
G1 X98.603 Y133.477 E5.70263
G1 X98.46 Y133.595 E5.71188
G1 X95.068 Y136.227 E5.92607
G1 X94.658 Y136.495 E5.95051
G1 X94.21 Y136.692 E5.97493
G1 X93.736 Y136.814 E5.99934
G1 X93.249 Y136.857 E6.02374
G1 X92.76 Y136.82 E6.0482
G1 X92.285 Y136.705 E6.07258
G1 X91.834 Y136.513 E6.09704
G1 X91.421 Y136.251 E6.12144
G1 X91.181 Y136.049 E6.13709
G1 X90.681 Y135.582 E6.17122
G1 X90.352 Y135.22 E6.19563
G1 X90.086 Y134.809 E6.22005
G1 X89.89 Y134.361 E6.24445
G1 X89.77 Y133.886 E6.26889
G1 X89.729 Y133.398 E6.29332
G1 X89.768 Y132.91 E6.31775
G1 X89.885 Y132.435 E6.34215
G1 X90.078 Y131.985 E6.36658
G1 X90.247 Y131.705 E6.3829
G1 X92.925 Y127.761 E6.62074
G1 X93.037 Y127.607 E6.63024
G1 X95.712 Y124.159 E6.84796
G1 X95.829 Y124.017 E6.85714
G1 X98.748 Y120.698 E7.07765
G1 X98.885 Y120.552 E7.08764
G1 X102.073 Y117.38 E7.31201
G1 X102.211 Y117.263 E7.32103
G1 X101.425 Y116.311 E7.38263
G1 X101.204 Y116.007 E7.40138
G1 X100.249 Y114.5 E7.49039
G1 X100.066 Y114.167 E7.50934
G1 X99.31 Y112.553 E7.59826
G1 X99.174 Y112.206 E7.61686
G1 X98.624 Y110.512 E7.70571
G1 X98.53 Y110.146 E7.72457
G1 X98.197 Y108.393 E7.81359
G1 X98.15 Y108.021 E7.83229
G1 X98.04 Y106.266 E7.92002
G1 X98.04 Y105.893 E7.93863
G1 X98.15 Y104.113 E8.02761
G1 X98.197 Y103.738 E8.04646
G1 X98.53 Y101.985 E8.13548
G1 X98.623 Y101.62 E8.15427
G1 X99.173 Y99.923 E8.24327
G1 X99.311 Y99.574 E8.262
G1 X100.067 Y97.962 E8.35082
G1 X100.249 Y97.63 E8.36971
G1 X101.204 Y96.123 E8.45872
G1 X101.425 Y95.819 E8.47747
G1 X102.576 Y94.425 E8.56766
G0 F4500 X102.884 Y94.68
G1 F1500 X103.113 Y94.436 E8.58436
G1 X104.415 Y93.218 E8.67331
G1 X104.664 Y93.013 E8.6894
G1 X106.098 Y91.972 E8.77781
G1 X106.371 Y91.798 E8.79396
G1 X107.921 Y90.945 E8.88222
G1 X108.218 Y90.806 E8.89858
G1 X109.887 Y90.145 E8.98814
G1 X110.156 Y90.056 E9.00228
G1 X110.305 Y89.595 E9.02645
G1 X110.426 Y89.291 E9.04277
G1 X110.842 Y88.405 E9.09161
G1 X111 Y88.116 E9.10804
G1 X111.526 Y87.288 E9.15698
G1 X111.718 Y87.024 E9.17326
G1 X112.343 Y86.269 E9.22216
G1 X112.569 Y86.029 E9.23861
G1 X113.286 Y85.358 E9.2876
G1 X113.535 Y85.152 E9.30372
G1 X114.332 Y84.573 E9.35287
G1 X114.605 Y84.4 E9.369
G1 X115.449 Y83.935 E9.41707
G1 X115.745 Y83.795 E9.43341
G1 X116.662 Y83.431 E9.48263
G1 X116.977 Y83.329 E9.49915
G1 X117.939 Y83.083 E9.54869
G1 X118.256 Y83.023 E9.56478
G1 X119.21 Y82.902 E9.61276
G1 X119.537 Y82.881 E9.62911
G1 X120.528 Y82.881 E9.67855
G1 X120.855 Y82.902 E9.6949
G1 X121.81 Y83.023 E9.74292
G1 X122.128 Y83.083 E9.75907
G1 X123.089 Y83.329 E9.80856
G1 X123.403 Y83.431 E9.82503
G1 X124.32 Y83.795 E9.87425
G1 X124.616 Y83.935 E9.89059
G1 X125.46 Y84.4 E9.93866
G1 X125.733 Y84.573 E9.95479
G1 X126.53 Y85.152 E10.00393
G1 X126.779 Y85.358 E10.02006
G1 X127.496 Y86.029 E10.06905
G1 X127.722 Y86.269 E10.0855
G1 X128.347 Y87.024 E10.13439
G1 X128.539 Y87.288 E10.15068
G1 X129.065 Y88.116 E10.19962
G1 X129.224 Y88.405 E10.21608
G1 X129.639 Y89.289 E10.2648
G1 X129.758 Y89.592 E10.28104
G1 X130.061 Y90.527 E10.33007
G1 X130.142 Y90.841 E10.34625
G1 X130.323 Y91.788 E10.39435
G1 X130.364 Y92.111 E10.4106
G1 X130.428 Y93.119 E10.46099
G1 X130.433 Y93.284 E10.46922
G1 X130.433 Y125.244 E12.06371
G1 X130.413 Y125.565 E12.07976
G1 X130.219 Y127.122 E12.15804
G1 X130.058 Y127.754 E12.19058
G1 X129.487 Y129.203 E12.26828
G1 X129.17 Y129.78 E12.30112
G1 X128.258 Y131.033 E12.37844
G1 X127.812 Y131.508 E12.41095
G1 X126.6 Y132.509 E12.48937
G1 X126.05 Y132.857 E12.52184
G1 X124.655 Y133.513 E12.59875
G1 X124.039 Y133.713 E12.63106
G1 X122.517 Y134.005 E12.70838
G1 X121.866 Y134.047 E12.74093
G1 X120.321 Y133.951 E12.81816
G1 X119.679 Y133.829 E12.85076
G1 X118.183 Y133.343 E12.92923
G1 X117.589 Y133.063 E12.962
G1 X116.283 Y132.231 E13.03925
G1 X115.787 Y131.82 E13.07139
G1 X114.726 Y130.693 E13.14861
G1 X114.434 Y130.295 E13.17324
G1 X114.41 Y130.294 E13.17444
G1 X113.455 Y130.173 E13.22246
G1 X113.139 Y130.113 E13.23851
G1 X112.179 Y129.868 E13.28794
G1 X111.864 Y129.766 E13.30446
G1 X110.946 Y129.402 E13.35373
G1 X110.65 Y129.263 E13.37004
G1 X109.809 Y128.8 E13.41794
G1 X109.532 Y128.623 E13.43434
G1 X108.729 Y128.038 E13.4839
G1 X108.482 Y127.834 E13.49989
G1 X107.769 Y127.166 E13.54863
G1 X107.544 Y126.927 E13.56501
G1 X106.919 Y126.172 E13.6139
G1 X106.727 Y125.908 E13.63019
G1 X106.379 Y125.36 E13.66258
G1 X105.016 Y126.909 E13.76552
G1 X104.901 Y127.031 E13.77388
G1 X101.825 Y130.101 E13.9907
G1 X101.706 Y130.213 E13.99885
G1 X98.339 Y133.177 E14.22264
G1 X98.215 Y133.279 E14.23065
G1 X94.823 Y135.911 E14.44485
G1 X94.44 Y136.158 E14.46759
G1 X94.02 Y136.334 E14.49031
G1 X93.575 Y136.434 E14.51306
G1 X93.12 Y136.455 E14.53579
G1 X92.668 Y136.396 E14.55853
G1 X92.234 Y136.259 E14.58123
G1 X91.83 Y136.048 E14.60397
G1 X91.454 Y135.757 E14.62769
G1 X90.954 Y135.29 E14.66183
G1 X90.65 Y134.951 E14.68454
G1 X90.409 Y134.564 E14.70729
G1 X90.24 Y134.141 E14.73002
G1 X90.147 Y133.695 E14.75275
G1 X90.133 Y133.24 E14.77546
G1 X90.199 Y132.789 E14.7982
G1 X90.343 Y132.357 E14.82091
G1 X90.578 Y131.929 E14.84527
G1 X93.256 Y127.985 E15.08311
G1 X93.353 Y127.852 E15.09133
G1 X96.028 Y124.404 E15.30905
G1 X96.13 Y124.281 E15.31702
G1 X99.049 Y120.962 E15.53753
G1 X99.167 Y120.836 E15.54615
G1 X102.355 Y117.664 E15.77051
G1 X102.705 Y117.372 E15.79325
G1 X102.783 Y117.328 E15.79772
G1 X101.733 Y116.056 E15.88001
G1 X101.542 Y115.793 E15.89623
G1 X100.587 Y114.286 E15.98524
G1 X100.428 Y113.997 E16.00169
G1 X99.672 Y112.383 E16.09061
G1 X99.554 Y112.083 E16.10669
G1 X99.004 Y110.389 E16.19555
G1 X98.923 Y110.071 E16.21192
G1 X98.59 Y108.318 E16.30094
G1 X98.549 Y107.996 E16.31714
G1 X98.439 Y106.241 E16.40487
G1 X98.439 Y105.918 E16.42098
G1 X98.549 Y104.138 E16.50996
G1 X98.59 Y103.813 E16.5263
G1 X98.923 Y102.06 E16.61532
G1 X99.004 Y101.743 E16.63164
G1 X99.554 Y100.046 E16.72064
G1 X99.673 Y99.744 E16.73684
G1 X100.429 Y98.132 E16.82566
G1 X100.587 Y97.844 E16.84205
G1 X101.542 Y96.337 E16.93106
G1 X101.733 Y96.074 E16.94728
G1 X102.884 Y94.68 E17.03747
G0 F4500 X103.193 Y94.934
G1 F1500 X103.386 Y94.728 E17.05155
G1 X104.688 Y93.51 E17.1405
G1 X104.899 Y93.337 E17.15411
G1 X106.333 Y92.296 E17.24252
G1 X106.564 Y92.149 E17.25618
G1 X108.114 Y91.296 E17.34445
G1 X108.365 Y91.178 E17.35828
G1 X110.034 Y90.517 E17.44784
G1 X110.286 Y90.434 E17.46108
G1 X110.47 Y90.386 E17.47057
G1 X110.686 Y89.718 E17.50559
G1 X110.788 Y89.461 E17.51939
G1 X111.204 Y88.575 E17.56822
G1 X111.338 Y88.33 E17.58215
G1 X111.864 Y87.502 E17.63109
G1 X112.026 Y87.279 E17.64484
G1 X112.651 Y86.524 E17.69374
G1 X112.843 Y86.321 E17.70768
G1 X113.56 Y85.65 E17.75667
G1 X113.77 Y85.476 E17.77028
G1 X114.567 Y84.897 E17.81943
G1 X114.798 Y84.75 E17.83309
G1 X115.642 Y84.285 E17.88116
G1 X115.892 Y84.167 E17.89496
G1 X116.809 Y83.803 E17.94418
G1 X117.076 Y83.717 E17.95817
G1 X118.038 Y83.471 E18.00771
G1 X118.306 Y83.419 E18.02133
G1 X119.26 Y83.298 E18.06931
G1 X119.537 Y83.281 E18.08315
G1 X120.528 Y83.281 E18.13259
G1 X120.805 Y83.298 E18.14644
G1 X121.76 Y83.419 E18.19447
G1 X122.029 Y83.471 E18.20814
G1 X122.99 Y83.717 E18.25763
G1 X123.256 Y83.803 E18.27157
G1 X124.173 Y84.167 E18.32079
G1 X124.423 Y84.285 E18.33459
G1 X125.267 Y84.75 E18.38266
G1 X125.498 Y84.897 E18.39632
G1 X126.295 Y85.476 E18.44547
G1 X126.505 Y85.65 E18.45908
G1 X127.222 Y86.321 E18.50807
G1 X127.414 Y86.524 E18.52201
G1 X128.039 Y87.279 E18.57091
G1 X128.201 Y87.502 E18.58466
G1 X128.727 Y88.33 E18.6336
G1 X128.861 Y88.575 E18.64753
G1 X129.276 Y89.459 E18.69625
G1 X129.378 Y89.716 E18.71005
G1 X129.681 Y90.651 E18.75908
G1 X129.749 Y90.916 E18.77273
G1 X129.93 Y91.863 E18.82083
G1 X129.965 Y92.137 E18.83461
G1 X130.029 Y93.145 E18.885
G1 X130.033 Y93.284 E18.89194
G1 X130.033 Y125.244 E20.48643
G1 X130.016 Y125.516 E20.50003
G1 X129.822 Y127.073 E20.57831
G1 X129.686 Y127.608 E20.60585
G1 X129.115 Y129.057 E20.68355
G1 X128.847 Y129.545 E20.71133
G1 X127.935 Y130.798 E20.78864
G1 X127.557 Y131.199 E20.81614
G1 X126.345 Y132.2 E20.89456
G1 X125.88 Y132.495 E20.92203
G1 X124.485 Y133.151 E20.99894
G1 X123.964 Y133.321 E21.02628
G1 X122.442 Y133.613 E21.1036
G1 X121.891 Y133.648 E21.13115
G1 X120.346 Y133.552 E21.20838
G1 X119.802 Y133.448 E21.23601
G1 X118.306 Y132.962 E21.31448
G1 X117.804 Y132.725 E21.34218
G1 X116.498 Y131.893 E21.41943
G1 X116.078 Y131.546 E21.44661
G1 X115.017 Y130.419 E21.52384
G1 X114.699 Y129.986 E21.55064
G1 X114.655 Y129.908 E21.55511
G1 X114.46 Y129.898 E21.56485
G1 X113.505 Y129.777 E21.61287
G1 X113.238 Y129.726 E21.62644
G1 X112.278 Y129.481 E21.67587
G1 X112.011 Y129.394 E21.68988
G1 X111.093 Y129.03 E21.73914
G1 X110.843 Y128.912 E21.75294
G1 X110.002 Y128.449 E21.80083
G1 X109.768 Y128.3 E21.81467
G1 X108.965 Y127.715 E21.86424
G1 X108.756 Y127.542 E21.87777
G1 X108.043 Y126.874 E21.92652
G1 X107.852 Y126.672 E21.94039
G1 X107.227 Y125.917 E21.98929
G1 X107.065 Y125.694 E22.00304
G1 X106.539 Y124.866 E22.05198
G1 X106.438 Y124.681 E22.06249
G1 X106.417 Y124.711 E22.06432
G1 X104.716 Y126.644 E22.19278
G1 X104.618 Y126.748 E22.19991
G1 X101.542 Y129.818 E22.41673
G1 X101.442 Y129.912 E22.42357
G1 X98.075 Y132.876 E22.64737
G1 X97.97 Y132.963 E22.65417
G1 X94.578 Y135.595 E22.86837
G1 X94.224 Y135.819 E22.88927
G1 X93.834 Y135.972 E22.91017
G1 X93.421 Y136.049 E22.93113
G1 X93.002 Y136.045 E22.95203
G1 X92.592 Y135.963 E22.97289
G1 X92.204 Y135.804 E22.99381
G1 X91.727 Y135.465 E23.02301
G1 X91.227 Y134.998 E23.05714
G1 X90.95 Y134.684 E23.07803
G1 X90.737 Y134.323 E23.09894
G1 X90.596 Y133.928 E23.11987
G1 X90.533 Y133.514 E23.14076
G1 X90.549 Y133.095 E23.16168
G1 X90.644 Y132.687 E23.18258
G1 X90.909 Y132.154 E23.21228
G1 X93.587 Y128.21 E23.45012
G1 X93.669 Y128.097 E23.45708
G1 X96.344 Y124.649 E23.6748
G1 X96.43 Y124.545 E23.68153
G1 X99.349 Y121.226 E23.90205
G1 X99.449 Y121.119 E23.90936
G1 X102.637 Y117.947 E24.13372
G1 X102.961 Y117.682 E24.1546
G1 X103.33 Y117.482 E24.17554
G1 X103.436 Y117.449 E24.18108
G1 X103.384 Y117.4 E24.18465
G1 X103.193 Y117.196 E24.19859
G1 X102.042 Y115.802 E24.28878
G1 X101.88 Y115.579 E24.30253
G1 X100.925 Y114.072 E24.39154
G1 X100.791 Y113.827 E24.40547
G1 X100.035 Y112.213 E24.49439
G1 X99.935 Y111.959 E24.50801
G1 X99.385 Y110.265 E24.59687
G1 X99.316 Y109.997 E24.61067
G1 X98.983 Y108.244 E24.6997
G1 X98.948 Y107.971 E24.71343
G1 X98.838 Y106.216 E24.80116
G1 X98.838 Y105.942 E24.81483
G1 X98.948 Y104.162 E24.9038
G1 X98.983 Y103.887 E24.91763
G1 X99.316 Y102.134 E25.00665
G1 X99.384 Y101.867 E25.0204
G1 X99.934 Y100.17 E25.1094
G1 X100.035 Y99.914 E25.12313
G1 X100.791 Y98.302 E25.21196
G1 X100.925 Y98.058 E25.22584
G1 X101.88 Y96.551 E25.31485
G1 X102.042 Y96.328 E25.3286
G1 X103.193 Y94.934 E25.41879
G0 F4500 X103.501 Y95.189
G1 F1500 X103.659 Y95.021 E25.4303
G1 X104.961 Y93.803 E25.51925
G1 X105.134 Y93.66 E25.53045
G1 X106.568 Y92.619 E25.61885
G1 X106.757 Y92.499 E25.63002
G1 X108.307 Y91.646 E25.71829
G1 X108.512 Y91.549 E25.7296
G1 X110.181 Y90.888 E25.81916
G1 X110.387 Y90.821 E25.82997
G1 X110.783 Y90.717 E25.8504
G1 X111.066 Y89.842 E25.89628
G1 X111.15 Y89.631 E25.90761
G1 X111.566 Y88.745 E25.95644
G1 X111.676 Y88.545 E25.96783
G1 X112.202 Y87.717 E26.01677
G1 X112.334 Y87.534 E26.02803
G1 X112.959 Y86.779 E26.07692
G1 X113.116 Y86.613 E26.08832
G1 X113.833 Y85.942 E26.13732
G1 X114.005 Y85.8 E26.14844
G1 X114.802 Y85.221 E26.19759
G1 X114.991 Y85.1 E26.20879
G1 X115.835 Y84.635 E26.25686
G1 X116.04 Y84.539 E26.26816
G1 X116.957 Y84.175 E26.31738
G1 X117.175 Y84.104 E26.32882
G1 X118.137 Y83.858 E26.37835
G1 X118.357 Y83.816 E26.38953
G1 X119.311 Y83.695 E26.4375
G1 X119.537 Y83.681 E26.4488
G1 X120.528 Y83.681 E26.49824
G1 X120.754 Y83.695 E26.50954
G1 X121.709 Y83.816 E26.55757
G1 X121.929 Y83.858 E26.56874
G1 X122.89 Y84.104 E26.61823
G1 X123.108 Y84.175 E26.62967
G1 X124.025 Y84.539 E26.67889
G1 X124.23 Y84.635 E26.69018
G1 X125.074 Y85.1 E26.73826
G1 X125.263 Y85.221 E26.74945
G1 X126.06 Y85.8 E26.7986
G1 X126.232 Y85.942 E26.80973
G1 X126.949 Y86.613 E26.85872
G1 X127.106 Y86.779 E26.87012
G1 X127.731 Y87.534 E26.91902
G1 X127.863 Y87.717 E26.93028
G1 X128.389 Y88.545 E26.97922
G1 X128.499 Y88.745 E26.9906
G1 X128.914 Y89.629 E27.03933
G1 X128.997 Y89.839 E27.05059
G1 X129.3 Y90.774 E27.09963
G1 X129.356 Y90.991 E27.11081
G1 X129.537 Y91.938 E27.15891
G1 X129.565 Y92.162 E27.17017
G1 X129.629 Y93.17 E27.22056
