;FLAVOR:RepRap
;TIME:2407
;Filament used: 1.7943m
;Layer height: 0.2
;Generated with Cura_SteamEngine 2.4.0
M190 S60
M104 S192
M109 S192
G21 ;metric values
G90 ;absolute positioning
M82 ;set extruder to absolute mode
M107 ;start with the fan off
G28 X0 Y0 ;move X/Y to min endstops
G28 Z0 ;move Z to min endstops
G1 Z15.0 F9000 ;move the platform down 15mm
G92 E0 ;zero the extruded length
G1 F200 E3 ;extrude 3mm of feed stock
G92 E0 ;zero the extruded length again
G1 F9000;Put printing message on LCD screen
M117 Printing...
;LAYER_COUNT:25
;LAYER:0
M107
G1 F2100 E-3
G0 F3600 X73.296 Y89.418 Z0.3
;TYPE:SKIRT
G1 F2100 E0
G1 F1800 X74.214 Y88.768 E0.05612
G1 X74.636 Y88.518 E0.08059
G1 X74.863 Y88.419 E0.09294
G1 X76.61 Y87.741 E0.18644
G1 X77.079 Y87.602 E0.21084
G1 X77.33 Y87.56 E0.22354
G1 X78.448 Y87.423 E0.27973
G1 X78.814 Y87.401 E0.29802
G1 X141.564 Y87.424 E3.42863
G1 X142.115 Y87.475 E3.45624
G1 X143.221 Y87.682 E3.51238
G1 X143.837 Y87.868 E3.54448
G1 X145.218 Y88.452 E3.61929
G1 X145.783 Y88.766 E3.65153
G1 X146.703 Y89.417 E3.70776
G1 X147.188 Y89.846 E3.74007
G1 X148.197 Y90.954 E3.81483
G1 X148.496 Y91.342 E3.83927
G1 X148.664 Y91.636 E3.85616
G1 X149.5 Y93.313 E3.94965
G1 X149.724 Y93.919 E3.98188
G1 X149.907 Y94.646 E4.01928
G1 X149.992 Y95.192 E4.04685
G1 X150.085 Y96.689 E4.12168
G1 X150.055 Y97.338 E4.15409
G1 X149.881 Y98.453 E4.2104
G1 X149.776 Y98.898 E4.23321
G1 X149.549 Y99.613 E4.27063
G1 X149.333 Y100.125 E4.29836
G1 X148.623 Y101.446 E4.37318
G1 X148.26 Y101.976 E4.40523
G1 X147.529 Y102.831 E4.46135
G1 X147.22 Y103.143 E4.48326
G1 X115.978 Y130.363 E6.55053
G1 X115.675 Y130.594 E6.56954
G1 X114.388 Y131.455 E6.6468
G1 X113.96 Y131.694 E6.67125
G1 X113.72 Y131.791 E6.68417
G1 X112.305 Y132.291 E6.75904
G1 X111.67 Y132.44 E6.79158
G1 X110.552 Y132.577 E6.84777
G1 X109.911 Y132.586 E6.87976
G1 X108.419 Y132.448 E6.95451
G1 X107.782 Y132.319 E6.98694
G1 X106.708 Y131.976 E7.04318
G1 X106.123 Y131.717 E7.0751
G1 X104.825 Y130.969 E7.14984
G1 X104.351 Y130.631 E7.17889
G1 X72.518 Y102.872 E9.28606
G1 X72.042 Y102.345 E9.32149
G1 X71.176 Y101.122 E9.39626
G1 X70.861 Y100.557 E9.42853
G1 X70.422 Y99.519 E9.48476
G1 X70.276 Y99.081 E9.50779
G1 X70.093 Y98.353 E9.54524
G1 X70.008 Y97.808 E9.57276
G1 X69.915 Y96.312 E9.64754
G1 X69.945 Y95.663 E9.67995
G1 X70.119 Y94.548 E9.73625
G1 X70.224 Y94.103 E9.75906
G1 X70.451 Y93.388 E9.79649
G1 X70.667 Y92.876 E9.82421
G1 X71.377 Y91.555 E9.89904
G1 X71.644 Y91.144 E9.92349
G1 X71.802 Y90.955 E9.93578
G1 X72.812 Y89.846 E10.01061
G1 X73.296 Y89.418 E10.04285
G0 F3600 X73.528 Y89.744
G1 F1800 X74.446 Y89.094 E10.09896
G1 X75.007 Y88.792 E10.13075
G1 X76.754 Y88.114 E10.22424
G1 X77.379 Y87.957 E10.25639
G1 X78.497 Y87.82 E10.31259
G1 X78.814 Y87.801 E10.32843
G1 X141.564 Y87.824 E13.45904
G1 X142.041 Y87.868 E13.48294
G1 X143.147 Y88.075 E13.53908
G1 X143.682 Y88.236 E13.56695
G1 X145.063 Y88.82 E13.64175
G1 X145.552 Y89.093 E13.6697
G1 X146.472 Y89.744 E13.72592
G1 X146.892 Y90.115 E13.75388
G1 X147.901 Y91.223 E13.82865
G1 X148.177 Y91.586 E13.8514
G1 X148.306 Y91.814 E13.86447
G1 X149.142 Y93.491 E13.95795
G1 X149.336 Y94.016 E13.98587
G1 X149.519 Y94.743 E14.02328
G1 X149.593 Y95.217 E14.04721
G1 X149.686 Y96.714 E14.12204
G1 X149.66 Y97.276 E14.15011
G1 X149.486 Y98.391 E14.20641
G1 X149.395 Y98.777 E14.2262
G1 X149.168 Y99.492 E14.26362
G1 X148.98 Y99.936 E14.28768
G1 X148.27 Y101.257 E14.3625
G1 X147.956 Y101.716 E14.39024
G1 X147.225 Y102.571 E14.44636
G1 X146.957 Y102.841 E14.46534
G1 X115.715 Y130.061 E16.53262
G1 X115.453 Y130.262 E16.5491
G1 X114.166 Y131.123 E16.62635
G1 X113.586 Y131.413 E16.6587
G1 X112.171 Y131.913 E16.73357
G1 X111.621 Y132.043 E16.76177
G1 X110.503 Y132.18 E16.81796
G1 X109.948 Y132.188 E16.84566
G1 X108.456 Y132.05 E16.92041
G1 X107.904 Y131.938 E16.94851
G1 X106.83 Y131.595 E17.00476
G1 X106.323 Y131.371 E17.03241
G1 X105.025 Y130.623 E17.10715
G1 X104.614 Y130.33 E17.13233
G1 X72.781 Y102.571 E19.23951
G1 X72.368 Y102.114 E19.27024
G1 X71.502 Y100.891 E19.34501
G1 X71.229 Y100.401 E19.37299
G1 X70.79 Y99.363 E19.42922
G1 X70.663 Y98.984 E19.44916
G1 X70.48 Y98.256 E19.48661
G1 X70.407 Y97.783 E19.51049
G1 X70.314 Y96.287 E19.58527
G1 X70.34 Y95.725 E19.61333
G1 X70.514 Y94.61 E19.66963
G1 X70.605 Y94.224 E19.68942
G1 X70.832 Y93.509 E19.72685
G1 X71.02 Y93.065 E19.7509
G1 X71.73 Y91.744 E19.82572
G1 X72.098 Y91.224 E19.8575
G1 X73.108 Y90.115 E19.93234
G1 X73.528 Y89.744 E19.9603
G0 F3600 X73.759 Y90.071
G1 F1800 X74.677 Y89.421 E20.01642
G1 X75.152 Y89.165 E20.04334
G1 X76.899 Y88.487 E20.13683
G1 X77.427 Y88.354 E20.16399
G1 X78.545 Y88.217 E20.22019
G1 X78.814 Y88.201 E20.23363
G1 X141.564 Y88.224 E23.36424
G1 X141.968 Y88.262 E23.38449
G1 X143.074 Y88.469 E23.44062
G1 X143.526 Y88.605 E23.46417
G1 X144.907 Y89.189 E23.53898
G1 X145.321 Y89.419 E23.56261
G1 X146.241 Y90.07 E23.61883
G1 X146.597 Y90.385 E23.64255
G1 X147.606 Y91.493 E23.71731
G1 X147.948 Y91.992 E23.74749
G1 X148.784 Y93.669 E23.84098
G1 X148.948 Y94.114 E23.86464
G1 X149.131 Y94.841 E23.90204
G1 X149.194 Y95.242 E23.92229
G1 X149.287 Y96.739 E23.99712
G1 X149.265 Y97.214 E24.02085
G1 X149.091 Y98.329 E24.07715
G1 X149.014 Y98.656 E24.09391
G1 X148.787 Y99.371 E24.13133
G1 X148.628 Y99.747 E24.1517
G1 X147.918 Y101.068 E24.22652
G1 X147.652 Y101.456 E24.24999
G1 X146.921 Y102.311 E24.30611
G1 X146.694 Y102.54 E24.3222
G1 X115.452 Y129.76 E26.38948
G1 X115.23 Y129.93 E26.40343
G1 X113.943 Y130.791 E26.48068
G1 X113.453 Y131.036 E26.50801
G1 X112.038 Y131.536 E26.58289
G1 X111.573 Y131.646 E26.60672
G1 X110.455 Y131.783 E26.66292
G1 X109.984 Y131.79 E26.68642
G1 X108.492 Y131.652 E26.76117
G1 X108.026 Y131.557 E26.7849
G1 X106.952 Y131.214 E26.84115
G1 X106.523 Y131.024 E26.86456
G1 X105.225 Y130.276 E26.9393
G1 X104.877 Y130.028 E26.96062
G1 X73.044 Y102.269 E29.06779
G1 X72.695 Y101.882 E29.09379
G1 X71.829 Y100.659 E29.16856
G1 X71.598 Y100.245 E29.19221
G1 X71.159 Y99.207 E29.24843
G1 X71.051 Y98.886 E29.26533
G1 X70.868 Y98.158 E29.30278
G1 X70.806 Y97.759 E29.32293
G1 X70.713 Y96.263 E29.39771
G1 X70.735 Y95.787 E29.42148
G1 X70.909 Y94.672 E29.47778
G1 X70.986 Y94.345 E29.49454
G1 X71.213 Y93.63 E29.53197
G1 X71.372 Y93.254 E29.55233
G1 X72.082 Y91.933 E29.62716
G1 X72.393 Y91.494 E29.654
G1 X73.403 Y90.385 E29.72883
G1 X73.759 Y90.071 E29.75251
G0 F3600 X73.99 Y90.397
G1 F1800 X74.908 Y89.747 E29.80863
G1 X75.297 Y89.538 E29.83066
G1 X77.044 Y88.86 E29.92415
G1 X77.476 Y88.751 E29.94638
G1 X78.594 Y88.614 E30.00258
G1 X78.814 Y88.601 E30.01357
G1 X141.564 Y88.624 E33.14418
G1 X141.894 Y88.655 E33.16072
G1 X143 Y88.862 E33.21685
G1 X143.37 Y88.973 E33.23613
G1 X144.751 Y89.557 E33.31093
G1 X145.09 Y89.746 E33.3303
G1 X146.01 Y90.397 E33.38652
G1 X146.301 Y90.654 E33.40589
G1 X147.31 Y91.762 E33.48066
G1 X147.59 Y92.171 E33.50539
G1 X148.426 Y93.848 E33.59887
G1 X148.561 Y94.212 E33.61824
G1 X148.744 Y94.939 E33.65564
G1 X148.795 Y95.266 E33.67215
G1 X148.888 Y96.763 E33.74698
G1 X148.869 Y97.153 E33.76646
G1 X148.695 Y98.268 E33.82276
G1 X148.633 Y98.535 E33.83644
G1 X148.406 Y99.25 E33.87387
G1 X148.276 Y99.557 E33.8905
G1 X147.566 Y100.878 E33.96532
G1 X147.348 Y101.196 E33.98455
G1 X146.617 Y102.051 E34.04068
G1 X146.431 Y102.238 E34.05383
G1 X115.189 Y129.458 E36.12111
G1 X115.008 Y129.597 E36.1325
G1 X113.721 Y130.458 E36.20975
G1 X113.32 Y130.659 E36.23213
G1 X111.905 Y131.159 E36.307
G1 X111.524 Y131.249 E36.32653
G1 X110.406 Y131.386 E36.38273
G1 X110.021 Y131.391 E36.40194
G1 X108.529 Y131.253 E36.47669
G1 X108.147 Y131.176 E36.49613
G1 X107.073 Y130.833 E36.55238
G1 X106.722 Y130.678 E36.57152
G1 X105.424 Y129.93 E36.64627
G1 X105.14 Y129.727 E36.66368
G1 X73.307 Y101.968 E38.77086
G1 X73.021 Y101.651 E38.79216
G1 X72.155 Y100.428 E38.86692
G1 X71.966 Y100.089 E38.88629
G1 X71.527 Y99.051 E38.94251
G1 X71.439 Y98.789 E38.9563
G1 X71.256 Y98.061 E38.99375
G1 X71.205 Y97.734 E39.01026
G1 X71.112 Y96.238 E39.08504
G1 X71.131 Y95.848 E39.10452
G1 X71.305 Y94.733 E39.16082
G1 X71.367 Y94.466 E39.1745
G1 X71.594 Y93.751 E39.21192
G1 X71.724 Y93.444 E39.22856
G1 X72.434 Y92.123 E39.30338
G1 X72.689 Y91.763 E39.32539
G1 X73.699 Y90.654 E39.40022
G1 X73.99 Y90.397 E39.41959
G0 F3600 X74.221 Y90.723
G1 F1800 X75.139 Y90.073 E39.47571
G1 X75.441 Y89.911 E39.49281
G1 X77.188 Y89.233 E39.5863
G1 X77.525 Y89.148 E39.60364
G1 X78.643 Y89.011 E39.65983
G1 X78.814 Y89.001 E39.66838
G1 X141.564 Y89.024 E42.79899
G1 X141.821 Y89.048 E42.81187
G1 X142.927 Y89.255 E42.868
G1 X143.214 Y89.342 E42.88297
G1 X144.595 Y89.926 E42.95777
G1 X144.859 Y90.072 E42.97282
G1 X145.779 Y90.723 E43.02905
G1 X146.005 Y90.923 E43.04411
G1 X147.014 Y92.031 E43.11887
G1 X147.232 Y92.349 E43.13811
G1 X148.068 Y94.026 E43.23159
G1 X148.173 Y94.309 E43.24665
G1 X148.356 Y95.036 E43.28405
G1 X148.395 Y95.291 E43.29692
G1 X148.488 Y96.788 E43.37175
G1 X148.474 Y97.091 E43.38689
G1 X148.3 Y98.206 E43.44319
G1 X148.251 Y98.414 E43.45385
G1 X148.024 Y99.129 E43.49127
G1 X147.923 Y99.368 E43.50422
G1 X147.213 Y100.689 E43.57904
G1 X147.044 Y100.936 E43.59397
G1 X146.313 Y101.791 E43.65009
G1 X146.169 Y101.937 E43.66032
G1 X114.927 Y129.157 E45.7276
G1 X114.785 Y129.265 E45.7365
G1 X113.498 Y130.126 E45.81376
G1 X113.186 Y130.282 E45.83116
G1 X111.771 Y130.782 E45.90603
G1 X111.475 Y130.852 E45.92121
G1 X110.357 Y130.989 E45.9774
G1 X110.058 Y130.993 E45.99232
G1 X108.566 Y130.855 E46.06707
G1 X108.269 Y130.795 E46.08219
G1 X107.195 Y130.452 E46.13844
G1 X106.922 Y130.331 E46.15334
G1 X105.624 Y129.583 E46.22808
G1 X105.403 Y129.425 E46.24163
G1 X73.57 Y101.666 E48.34881
G1 X73.347 Y101.42 E48.36537
G1 X72.481 Y100.197 E48.44013
G1 X72.335 Y99.933 E48.45518
G1 X71.896 Y98.895 E48.51141
G1 X71.827 Y98.691 E48.52216
G1 X71.644 Y97.963 E48.55961
G1 X71.605 Y97.709 E48.57243
G1 X71.512 Y96.213 E48.64721
G1 X71.526 Y95.91 E48.66234
G1 X71.7 Y94.795 E48.71864
G1 X71.749 Y94.587 E48.7293
G1 X71.976 Y93.872 E48.76673
G1 X72.077 Y93.633 E48.77967
G1 X72.787 Y92.312 E48.85449
G1 X72.985 Y92.032 E48.8716
G1 X73.995 Y90.923 E48.94644
G1 X74.221 Y90.723 E48.96149
G0 F3600 X74.452 Y91.05
G1 F1800 X75.37 Y90.4 E49.01761
G1 X75.586 Y90.284 E49.02984
G1 X77.333 Y89.606 E49.12333
G1 X77.573 Y89.545 E49.13569
G1 X78.691 Y89.408 E49.19188
G1 X78.813 Y89.401 E49.19798
G1 X141.563 Y89.424 E52.32859
G1 X141.747 Y89.441 E52.33781
G1 X142.853 Y89.648 E52.39395
G1 X143.058 Y89.71 E52.40463
G1 X144.439 Y90.294 E52.47944
G1 X144.628 Y90.399 E52.49022
G1 X145.548 Y91.05 E52.54645
G1 X145.709 Y91.193 E52.55719
G1 X146.718 Y92.301 E52.63196
G1 X146.874 Y92.528 E52.6457
G1 X147.71 Y94.205 E52.73919
G1 X147.785 Y94.407 E52.74994
G1 X147.968 Y95.134 E52.78734
G1 X147.996 Y95.316 E52.79652
G1 X148.089 Y96.813 E52.87135
G1 X148.079 Y97.029 E52.88214
G1 X147.905 Y98.144 E52.93844
G1 X147.87 Y98.293 E52.94608
G1 X147.643 Y99.008 E52.98351
G1 X147.571 Y99.178 E52.99272
G1 X146.861 Y100.499 E53.06754
G1 X146.74 Y100.676 E53.07823
G1 X146.009 Y101.531 E53.13435
G1 X145.906 Y101.635 E53.14166
G1 X114.664 Y128.855 E55.20894
G1 X114.563 Y128.932 E55.21527
G1 X113.276 Y129.793 E55.29253
G1 X113.053 Y129.905 E55.30498
G1 X111.638 Y130.405 E55.37985
G1 X111.427 Y130.455 E55.39067
G1 X110.309 Y130.592 E55.44686
G1 X110.095 Y130.595 E55.45754
G1 X108.603 Y130.457 E55.53229
G1 X108.391 Y130.414 E55.54308
G1 X107.317 Y130.071 E55.59933
G1 X107.122 Y129.984 E55.60999
G1 X105.824 Y129.236 E55.68473
G1 X105.666 Y129.124 E55.69439
G1 X73.833 Y101.365 E57.80156
G1 X73.674 Y101.189 E57.8134
G1 X72.808 Y99.966 E57.88816
G1 X72.703 Y99.778 E57.8989
G1 X72.264 Y98.74 E57.95513
G1 X72.215 Y98.594 E57.96281
G1 X72.032 Y97.866 E58.00026
G1 X72.004 Y97.684 E58.00945
G1 X71.911 Y96.188 E58.08423
G1 X71.921 Y95.972 E58.09502
G1 X72.095 Y94.857 E58.15132
G1 X72.13 Y94.708 E58.15896
G1 X72.357 Y93.993 E58.19638
G1 X72.429 Y93.823 E58.20559
G1 X73.139 Y92.502 E58.28041
G1 X73.281 Y92.302 E58.29265
G1 X74.291 Y91.193 E58.36749
G1 X74.452 Y91.05 E58.37823
G0 F3600 X74.683 Y91.376
G1 F1800 X75.601 Y90.726 E58.43435
G1 X75.731 Y90.657 E58.44169
G1 X77.478 Y89.979 E58.53518
G1 X77.622 Y89.942 E58.5426
G1 X78.74 Y89.805 E58.59879
G1 X78.813 Y89.801 E58.60244
G1 X141.563 Y89.824 E61.73305
G1 X141.673 Y89.834 E61.73856
G1 X142.779 Y90.041 E61.7947
G1 X142.903 Y90.078 E61.80115
G1 X144.284 Y90.662 E61.87596
G1 X144.397 Y90.725 E61.88241
G1 X145.317 Y91.376 E61.93864
G1 X145.414 Y91.462 E61.94511
G1 X146.423 Y92.57 E62.01987
G1 X146.516 Y92.706 E62.02809
G1 X147.352 Y94.383 E62.12158
G1 X147.397 Y94.505 E62.12807
G1 X147.58 Y95.232 E62.16547
G1 X147.597 Y95.341 E62.17097
G1 X147.69 Y96.838 E62.2458
G1 X147.684 Y96.968 E62.25229
G1 X147.51 Y98.083 E62.3086
G1 X147.489 Y98.172 E62.31316
G1 X147.262 Y98.887 E62.35058
G1 X147.219 Y98.989 E62.35611
G1 X146.509 Y100.31 E62.43093
G1 X146.436 Y100.416 E62.43735
G1 X145.705 Y101.271 E62.49347
G1 X145.643 Y101.333 E62.49784
G1 X114.401 Y128.553 E64.56512
G1 X114.341 Y128.6 E64.56893
G1 X113.054 Y129.461 E64.64618
G1 X112.92 Y129.528 E64.65365
G1 X111.505 Y130.028 E64.72853
G1 X111.378 Y130.058 E64.73504
G1 X110.26 Y130.195 E64.79123
G1 X110.132 Y130.196 E64.79762
G1 X108.64 Y130.058 E64.87237
G1 X108.512 Y130.033 E64.87888
G1 X107.438 Y129.69 E64.93513
G1 X107.321 Y129.638 E64.94151
G1 X106.023 Y128.89 E65.01625
G1 X105.929 Y128.822 E65.02204
G1 X74.096 Y101.063 E67.12922
G1 X74 Y100.958 E67.13632
G1 X73.134 Y99.735 E67.21108
G1 X73.071 Y99.622 E67.21753
G1 X72.632 Y98.584 E67.27376
G1 X72.603 Y98.496 E67.27838
G1 X72.42 Y97.768 E67.31583
G1 X72.403 Y97.659 E67.32134
G1 X72.31 Y96.163 E67.39612
G1 X72.316 Y96.033 E67.40261
G1 X72.49 Y94.918 E67.45891
G1 X72.511 Y94.829 E67.46347
G1 X72.738 Y94.114 E67.5009
G1 X72.781 Y94.012 E67.50642
G1 X73.491 Y92.691 E67.58124
G1 X73.576 Y92.571 E67.58858
G1 X74.586 Y91.462 E67.66341
G1 X74.683 Y91.376 E67.66988
G0 F3600 X74.914 Y91.703
G1 F1800 X75.832 Y91.053 E67.726
G1 X75.876 Y91.03 E67.72848
G1 X77.623 Y90.352 E67.82197
G1 X77.671 Y90.339 E67.82445
G1 X78.789 Y90.202 E67.88064
G1 X78.813 Y90.201 E67.88184
G1 X141.563 Y90.224 E71.01245
G1 X141.6 Y90.227 E71.0143
G1 X142.706 Y90.434 E71.07044
G1 X142.747 Y90.447 E71.07259
G1 X144.128 Y91.031 E71.14739
G1 X144.166 Y91.052 E71.14956
G1 X145.086 Y91.703 E71.20579
G1 X145.118 Y91.731 E71.20791
G1 X146.127 Y92.839 E71.28267
G1 X146.158 Y92.885 E71.28544
G1 X146.994 Y94.562 E71.37892
G1 X147.009 Y94.602 E71.38106
G1 X147.192 Y95.329 E71.41846
G1 X147.198 Y95.366 E71.42033
G1 X147.291 Y96.863 E71.49516
G1 X147.289 Y96.906 E71.4973
G1 X147.115 Y98.021 E71.55361
G1 X147.108 Y98.051 E71.55514
G1 X146.881 Y98.766 E71.59257
G1 X146.866 Y98.8 E71.59442
G1 X146.156 Y100.121 E71.66924
G1 X146.132 Y100.156 E71.67136
G1 X145.401 Y101.011 E71.72748
G1 X145.38 Y101.032 E71.72896
G1 X114.138 Y128.252 E73.79624
G1 X114.118 Y128.267 E73.79749
G1 X112.831 Y129.128 E73.87474
G1 X112.787 Y129.151 E73.87722
G1 X111.372 Y129.651 E73.95209
G1 X111.329 Y129.661 E73.95429
G1 X110.211 Y129.798 E74.01049
G1 X110.169 Y129.798 E74.01258
G1 X108.677 Y129.66 E74.08734
G1 X108.634 Y129.652 E74.08952
G1 X107.56 Y129.309 E74.14577
G1 X107.521 Y129.291 E74.14791
G1 X106.223 Y128.543 E74.22265
G1 X106.192 Y128.521 E74.22455
G1 X74.359 Y100.762 E76.33172
G1 X74.327 Y100.727 E76.33409
G1 X73.461 Y99.504 E76.40885
G1 X73.44 Y99.466 E76.41102
G1 X73.001 Y98.428 E76.46725
G1 X72.991 Y98.399 E76.46878
G1 X72.808 Y97.671 E76.50623
G1 X72.802 Y97.634 E76.5081
G1 X72.709 Y96.138 E76.58288
G1 X72.711 Y96.095 E76.58503
G1 X72.885 Y94.98 E76.64133
G1 X72.892 Y94.95 E76.64286
G1 X73.119 Y94.235 E76.68029
G1 X73.134 Y94.201 E76.68214
G1 X73.844 Y92.88 E76.75696
G1 X73.872 Y92.84 E76.7594
G1 X74.882 Y91.731 E76.83424
G1 X74.914 Y91.703 E76.83636
G0 F3600 X75.429 Y92.314
;TYPE:WALL-INNER
G1 F1800 X75.679 Y92.113 E76.85236
G1 X75.959 Y91.915 E76.86947
G1 X76.257 Y91.73 E76.88697
G1 X76.53 Y91.584 E76.90241
G1 X76.866 Y91.43 E76.92085
G1 X77.178 Y91.308 E76.93757
G1 X77.489 Y91.21 E76.95384
G1 X77.82 Y91.127 E76.97086
G1 X78.164 Y91.061 E76.98834
