;FLAVOR:RepRap
;TIME:6409
;Filament used: 4.91718m
;Layer height: 0.2
;Generated with Cura_SteamEngine 2.4.0
M190 S60
M104 S195
M109 S195
G21 ;metric values
G90 ;absolute positioning
M82 ;set extruder to absolute mode
M107 ;start with the fan off
G28 X0 Y0 ;move X/Y to min endstops
G28 Z0 ;move Z to min endstops
G1 Z15.0 F9000 ;move the platform down 15mm
G92 E0 ;zero the extruded length
G1 F200 E3 ;extrude 3mm of feed stock
G92 E0 ;zero the extruded length again
G1 F9000;Put printing message on LCD screen
M117 Printing...
;LAYER_COUNT:145
;LAYER:0
M107
G1 F2700 E-4
G0 F3000 X74.363 Y89.142 Z0.3
G0 X74.717 Y88.853
;TYPE:SKIRT
G1 F2700 E0
G1 F1200 X75.036 Y88.622 E0.02063
G1 X75.571 Y88.295 E0.05348
G1 X81.887 Y85.089 E0.42452
G1 X86.545 Y82.342 E0.7078
G1 X91.046 Y79.33 E0.99151
G1 X95.396 Y76.051 E1.27687
G1 X99.528 Y72.552 E1.56051
G1 X103.742 Y68.547 E1.86505
G1 X103.955 Y68.358 E1.87997
G1 X104.652 Y67.784 E1.92727
G1 X105.113 Y67.457 E1.95687
G1 X105.377 Y67.309 E1.97273
G1 X106.484 Y66.744 E2.03784
G1 X107.004 Y66.523 E2.06743
G1 X107.287 Y66.438 E2.08291
G1 X108.187 Y66.202 E2.13165
G1 X108.743 Y66.097 E2.16129
G1 X109.079 Y66.073 E2.17894
G1 X110.346 Y66.034 E2.24534
G1 X110.911 Y66.056 E2.27496
G1 X111.278 Y66.115 E2.29443
G1 X112.343 Y66.335 E2.3514
G1 X112.887 Y66.488 E2.38101
G1 X113.282 Y66.654 E2.40345
G1 X114.542 Y67.266 E2.47683
G1 X115.251 Y67.708 E2.5206
G1 X115.779 Y68.119 E2.55565
G1 X116.259 Y68.559 E2.58976
G1 X120.624 Y73.28 E2.92658
G1 X124.536 Y77.073 E3.21201
G1 X128.632 Y80.617 E3.49575
G1 X132.934 Y83.933 E3.78029
G1 X137.421 Y87.004 E4.06512
G1 X141.947 Y89.774 E4.34309
G1 X142.603 Y90.275 E4.38633
G1 X148.916 Y96.226 E4.84081
G1 X153.069 Y99.669 E5.1234
G1 X157.467 Y102.914 E5.40971
G1 X160.914 Y105.213 E5.62676
G1 X161.361 Y105.559 E5.65637
G1 X161.755 Y105.965 E5.68601
G1 X162.088 Y106.422 E5.71563
G1 X162.352 Y106.921 E5.7452
G1 X162.544 Y107.453 E5.77483
G1 X162.659 Y108.007 E5.80447
G1 X162.695 Y108.541 E5.83251
G1 X162.695 Y122.931 E6.58632
G1 X162.655 Y123.495 E6.61594
G1 X162.536 Y124.048 E6.64557
G1 X162.338 Y124.583 E6.67546
G1 X161.066 Y127.388 E6.8368
G1 X159.397 Y131.447 E7.0667
G1 X159.145 Y131.953 E7.09631
G1 X158.825 Y132.419 E7.12593
G1 X158.442 Y132.835 E7.15555
G1 X158.005 Y133.193 E7.18514
G1 X157.521 Y133.486 E7.21478
G1 X157.001 Y133.707 E7.24438
G1 X156.572 Y133.829 E7.26774
G1 X149.707 Y135.369 E7.6363
G1 X147.122 Y136.082 E7.77677
G1 X141.944 Y137.751 E8.06176
G1 X136.862 Y139.713 E8.34713
G1 X131.913 Y141.954 E8.63172
G1 X127.082 Y144.477 E8.91723
G1 X124.79 Y145.802 E9.05591
G1 X120.185 Y148.73 E9.34178
G1 X115.153 Y152.36 E9.66681
G1 X114.694 Y152.646 E9.69514
G1 X113.718 Y153.166 E9.75307
G1 X113.036 Y153.452 E9.79181
G1 X112.371 Y153.661 E9.82833
G1 X111.906 Y153.777 E9.85343
G1 X111.392 Y153.873 E9.88082
G1 X110.8 Y153.938 E9.91202
G1 X109.815 Y153.973 E9.96365
G1 X109.25 Y153.954 E9.99327
G1 X108.944 Y153.909 E10.00947
G1 X107.79 Y153.695 E10.07095
G1 X106.989 Y153.458 E10.11471
G1 X106.139 Y153.106 E10.1629
G1 X105.633 Y152.853 E10.19254
G1 X105.384 Y152.693 E10.20804
G1 X104.4 Y152.008 E10.27085
G1 X103.96 Y151.653 E10.30047
G1 X103.753 Y151.446 E10.3158
G1 X103.085 Y150.726 E10.36725
G1 X102.601 Y150.085 E10.40933
G1 X100.871 Y147.244 E10.58357
G1 X97.855 Y142.658 E10.87111
G1 X94.612 Y138.29 E11.15609
G1 X91.15 Y134.137 E11.43932
G1 X87.403 Y130.126 E11.72686
G1 X85.515 Y128.27 E11.86555
G1 X81.135 Y124.28 E12.17592
G1 X80.675 Y123.783 E12.2114
G1 X80.196 Y123.169 E12.25219
G1 X79.775 Y122.503 E12.29347
G1 X79.238 Y121.433 E12.35618
G1 X79.009 Y120.876 E12.38773
G1 X76.677 Y113.702 E12.78289
G1 X74.679 Y108.665 E13.06675
G1 X73.135 Y105.262 E13.26251
G1 X73.063 Y105.091 E13.27223
G1 X71.692 Y101.655 E13.46602
G1 X71.52 Y101.117 E13.49561
G1 X71.426 Y100.559 E13.52525
G1 X71.407 Y100.226 E13.54273
G1 X71.397 Y99.469 E13.58239
G1 X71.43 Y98.904 E13.61203
G1 X71.479 Y98.612 E13.62754
G1 X72.355 Y94.341 E13.85594
G1 X72.696 Y92.397 E13.95933
G1 X72.833 Y91.848 E13.98897
G1 X72.96 Y91.511 E14.00783
G1 X73.387 Y90.516 E14.06455
G1 X73.646 Y90.013 E14.09419
G1 X73.974 Y89.552 E14.12383
G1 X74.363 Y89.142 E14.15344
G1 X74.717 Y88.853 E14.17737
G0 F3000 X74.952 Y89.177
G1 F1200 X75.271 Y88.946 E14.19801
G1 X75.752 Y88.652 E14.22754
G1 X82.068 Y85.446 E14.59858
G1 X86.757 Y82.68 E14.88377
G1 X91.284 Y79.651 E15.1691
G1 X95.641 Y76.367 E15.45491
G1 X99.806 Y72.84 E15.74082
G1 X104.018 Y68.837 E16.04521
G1 X104.209 Y68.667 E16.0586
G1 X104.906 Y68.093 E16.1059
G1 X105.558 Y67.665 E16.14676
G1 X106.665 Y67.1 E16.21187
G1 X107.389 Y66.825 E16.25244
G1 X108.289 Y66.589 E16.30118
G1 X108.816 Y66.492 E16.32925
G1 X109.091 Y66.473 E16.34369
G1 X110.358 Y66.434 E16.41009
G1 X110.894 Y66.457 E16.4382
G1 X111.197 Y66.506 E16.45427
G1 X112.262 Y66.726 E16.51124
G1 X112.778 Y66.874 E16.53936
G1 X113.107 Y67.014 E16.55809
G1 X114.367 Y67.626 E16.63147
G1 X115.005 Y68.023 E16.67083
G1 X115.533 Y68.434 E16.70589
G1 X115.965 Y68.831 E16.73662
G1 X120.343 Y73.566 E17.07444
G1 X124.25 Y77.354 E17.35951
G1 X128.382 Y80.929 E17.64573
G1 X132.698 Y84.256 E17.9312
G1 X137.204 Y87.34 E18.21724
G1 X141.738 Y90.115 E18.49571
G1 X142.328 Y90.566 E18.53461
G1 X148.645 Y96.52 E18.98934
G1 X152.83 Y99.991 E19.27417
G1 X157.234 Y103.24 E19.56086
G1 X160.692 Y105.546 E19.77859
G1 X161.115 Y105.876 E19.80669
G1 X161.484 Y106.265 E19.83478
G1 X161.791 Y106.705 E19.86288
G1 X162.03 Y107.185 E19.89097
G1 X162.194 Y107.695 E19.91903
G1 X162.281 Y108.225 E19.94717
G1 X162.295 Y108.541 E19.96374
G1 X162.295 Y122.931 E20.71756
G1 X162.255 Y123.466 E20.74566
G1 X162.136 Y123.989 E20.77376
G1 X161.973 Y124.418 E20.7978
G1 X160.704 Y127.215 E20.95869
G1 X159.027 Y131.295 E21.18977
G1 X158.786 Y131.774 E21.21786
G1 X158.478 Y132.213 E21.24595
G1 X158.107 Y132.6 E21.27404
G1 X157.683 Y132.929 E21.30215
G1 X157.215 Y133.19 E21.33022
G1 X156.485 Y133.439 E21.37063
G1 X149.596 Y134.984 E21.74047
G1 X147.006 Y135.699 E21.88122
G1 X141.804 Y137.375 E22.16752
G1 X136.726 Y139.336 E22.45268
G1 X131.741 Y141.592 E22.73931
G1 X126.885 Y144.13 E23.02634
G1 X124.591 Y145.455 E23.16512
G1 X119.954 Y148.404 E23.45298
G1 X114.919 Y152.036 E23.7782
G1 X114.506 Y152.293 E23.80369
G1 X113.53 Y152.813 E23.86162
G1 X112.916 Y153.07 E23.89648
G1 X112.251 Y153.279 E23.933
G1 X111.833 Y153.384 E23.95558
G1 X111.319 Y153.48 E23.98297
G1 X110.786 Y153.539 E24.01106
G1 X109.801 Y153.574 E24.06269
G1 X109.017 Y153.516 E24.10387
G1 X107.863 Y153.302 E24.16536
G1 X107.142 Y153.088 E24.20475
G1 X106.292 Y152.736 E24.25295
G1 X105.612 Y152.365 E24.29353
G1 X104.628 Y151.68 E24.35633
G1 X104.046 Y151.173 E24.39677
G1 X103.378 Y150.453 E24.44822
G1 X102.942 Y149.877 E24.48606
G1 X101.201 Y147.018 E24.66141
G1 X98.186 Y142.434 E24.94883
G1 X94.925 Y138.041 E25.23543
G1 X91.442 Y133.862 E25.52041
G1 X87.705 Y129.863 E25.80713
G1 X85.769 Y127.96 E25.94934
G1 X81.405 Y123.984 E26.2586
G1 X80.991 Y123.537 E26.29051
G1 X80.512 Y122.923 E26.33131
G1 X80.132 Y122.324 E26.36847
G1 X79.595 Y121.254 E26.43118
G1 X79.389 Y120.752 E26.45961
G1 X77.05 Y113.557 E26.85593
G1 X75.043 Y108.497 E27.14109
G1 X73.5 Y105.096 E27.33673
G1 X73.434 Y104.943 E27.34545
G1 X72.063 Y101.507 E27.53925
G1 X71.902 Y100.996 E27.56731
G1 X71.807 Y100.221 E27.60822
G1 X71.797 Y99.464 E27.64787
G1 X71.87 Y98.693 E27.68844
G1 X72.752 Y94.392 E27.91844
G1 X73.09 Y92.466 E28.02087
G1 X73.222 Y91.946 E28.04898
G1 X73.328 Y91.668 E28.06456
G1 X73.755 Y90.673 E28.12128
G1 X74.002 Y90.198 E28.14933
G1 X74.318 Y89.764 E28.17745
G1 X74.694 Y89.382 E28.20553
G1 X74.952 Y89.177 E28.22279
G0 F3000 X75.505 Y89.27
G1 F1200 X75.934 Y89.009 E28.2491
G1 X82.255 Y85.8 E28.62045
G1 X86.965 Y83.022 E28.9069
G1 X91.525 Y79.971 E29.19431
G1 X95.885 Y76.685 E29.48031
G1 X100.067 Y73.143 E29.7674
G1 X104.294 Y69.126 E30.07287
G1 X104.464 Y68.976 E30.08475
G1 X105.161 Y68.402 E30.13205
G1 X105.74 Y68.022 E30.16833
G1 X106.847 Y67.457 E30.23343
G1 X107.49 Y67.212 E30.26948
G1 X108.39 Y66.976 E30.31822
G1 X109.104 Y66.873 E30.35601
G1 X110.371 Y66.834 E30.42241
G1 X111.116 Y66.898 E30.46158
G1 X112.181 Y67.118 E30.51855
G1 X112.667 Y67.259 E30.54506
G1 X112.932 Y67.374 E30.56019
G1 X114.192 Y67.986 E30.63357
G1 X114.76 Y68.339 E30.6686
G1 X115.288 Y68.75 E30.70365
G1 X115.672 Y69.103 E30.73098
G1 X120.054 Y73.842 E31.06909
G1 X123.984 Y77.653 E31.35586
G1 X128.13 Y81.24 E31.64305
G1 X132.462 Y84.579 E31.92957
G1 X136.991 Y87.679 E32.21708
G1 X141.53 Y90.457 E32.49585
G1 X142.054 Y90.857 E32.53038
G1 X148.389 Y96.829 E32.98645
G1 X152.574 Y100.298 E33.2712
G1 X157.011 Y103.572 E33.56006
G1 X160.47 Y105.879 E33.77787
G1 X160.868 Y106.192 E33.80439
G1 X161.21 Y106.563 E33.83082
G1 X161.491 Y106.984 E33.85734
G1 X161.701 Y107.444 E33.88383
G1 X161.836 Y107.931 E33.9103
G1 X161.895 Y108.541 E33.9424
G1 X161.895 Y122.931 E34.69622
G1 X161.855 Y123.435 E34.7227
G1 X161.736 Y123.926 E34.74917
G1 X161.609 Y124.253 E34.76755
G1 X160.333 Y127.065 E34.92931
G1 X158.657 Y131.143 E35.16027
G1 X158.428 Y131.594 E35.18677
G1 X158.131 Y132.003 E35.21325
G1 X157.774 Y132.36 E35.23969
G1 X157.365 Y132.657 E35.26617
G1 X156.914 Y132.886 E35.29267
G1 X156.397 Y133.048 E35.32105
G1 X149.522 Y134.59 E35.69014
G1 X146.896 Y135.315 E35.83285
G1 X141.664 Y137.001 E36.12081
G1 X136.559 Y138.972 E36.40747
G1 X131.57 Y141.23 E36.69434
G1 X126.706 Y143.771 E36.98181
G1 X124.365 Y145.124 E37.12346
G1 X119.731 Y148.071 E37.41114
G1 X114.685 Y151.711 E37.73707
G1 X114.318 Y151.94 E37.75973
G1 X113.342 Y152.46 E37.81766
G1 X112.796 Y152.689 E37.84868
G1 X112.131 Y152.898 E37.88519
G1 X111.76 Y152.991 E37.90523
G1 X111.246 Y153.087 E37.93262
G1 X110.772 Y153.139 E37.9576
G1 X109.787 Y153.174 E38.00923
G1 X109.09 Y153.122 E38.04584
G1 X107.936 Y152.908 E38.10733
G1 X107.295 Y152.719 E38.14233
G1 X106.445 Y152.367 E38.19053
G1 X105.841 Y152.036 E38.22661
G1 X104.857 Y151.351 E38.28941
G1 X104.339 Y150.901 E38.32536
G1 X103.671 Y150.181 E38.37681
G1 X103.284 Y149.669 E38.41043
G1 X101.54 Y146.805 E38.58609
G1 X98.514 Y142.205 E38.87452
G1 X95.245 Y137.8 E39.16187
G1 X91.742 Y133.597 E39.44849
G1 X87.995 Y129.587 E39.73599
G1 X86.049 Y127.675 E39.8789
G1 X81.674 Y123.689 E40.18894
G1 X81.306 Y123.291 E40.21734
G1 X80.827 Y122.677 E40.25813
G1 X80.49 Y122.144 E40.29116
G1 X79.953 Y121.074 E40.35388
G1 X79.77 Y120.628 E40.37913
G1 X77.435 Y113.445 E40.77479
G1 X75.406 Y108.329 E41.0631
G1 X73.864 Y104.931 E41.25858
G1 X73.806 Y104.795 E41.26632
G1 X72.435 Y101.359 E41.46011
G1 X72.285 Y100.876 E41.48661
G1 X72.207 Y100.215 E41.52147
G1 X72.197 Y99.458 E41.56113
G1 X72.262 Y98.773 E41.59718
G1 X73.145 Y94.47 E41.82729
G1 X73.484 Y92.535 E41.93019
G1 X73.695 Y91.826 E41.96895
G1 X74.122 Y90.831 E42.02566
G1 X74.358 Y90.384 E42.05214
G1 X74.661 Y89.979 E42.07864
G1 X75.186 Y89.501 E42.11583
G1 X75.505 Y89.27 E42.13647
G1 F2700 E38.13647
G0 F3000 X75.97 Y103.945
G0 X82.67 Y104.491
;TYPE:SUPPORT
G1 F2700 E42.13647
G1 F1200 X92.67 Y104.49 E42.66031
G1 X92.67 Y117.849 E43.36012
G1 X92.608 Y118.616 E43.40043
G1 X92.425 Y119.383 E43.44174
G1 X92.127 Y120.107 E43.48275
G1 X91.715 Y120.777 E43.52395
G1 X91.208 Y121.372 E43.5649
G1 X90.622 Y121.873 E43.60529
G1 X89.929 Y122.296 E43.64782
G1 X89.204 Y122.597 E43.68894
G1 X88.447 Y122.779 E43.72973
G1 X87.678 Y122.839 E43.77013
G1 X86.866 Y122.773 E43.81281
G1 X86.135 Y122.596 E43.85221
G1 X85.372 Y122.278 E43.89551
G1 X84.745 Y121.89 E43.93414
G1 X84.12 Y121.36 E43.97707
G1 X83.617 Y120.77 E44.01768
G1 X83.214 Y120.103 E44.0585
G1 X82.917 Y119.384 E44.09926
G1 X82.732 Y118.598 E44.14155
G1 X82.67 Y117.849 E44.18093
G1 X82.67 Y104.491 E44.88068
G0 F3000 X82.83 Y106.64
G1 F1200 X92.51 Y106.64 E45.38776
G0 F3000 X92.51 Y109.306
G1 F1200 X82.83 Y109.306 E45.89485
G0 F3000 X82.83 Y111.972
G1 F1200 X92.51 Y111.972 E46.40193
G0 F3000 X92.51 Y114.638
G1 F1200 X82.83 Y114.638 E46.90902
G0 F3000 X82.83 Y117.304
G1 F1200 X92.51 Y117.304 E47.4161
G0 F3000 X92.008 Y119.97
G1 F1200 X83.331 Y119.97 E47.87064
G0 F3000 X85.312 Y122.053
G1 F1200 X85.312 Y104.65 E48.78229
G0 F3000 X87.978 Y104.65
G1 F1200 X87.978 Y122.655 E49.72548
G0 F3000 X88.215 Y122.636
G1 F1200 X87.152 Y122.636 E49.78117
G0 F3000 X90.644 Y121.644
G1 F1200 X90.644 Y104.65 E50.67139
G1 F2700 E46.67139
G0 F3000 X104.863 Y147.381
G0 X105.491 Y148.425
G0 X106.337 Y149.318
G0 X107.344 Y150.001
G0 X108.496 Y150.459
G0 X109.702 Y150.654
G0 X110.926 Y150.586
G0 X112.108 Y150.255
G0 X113.18 Y149.684
G0 X114.117 Y148.886
G0 X114.856 Y147.917
G0 X115.371 Y146.798
G0 X115.631 Y145.608
G0 X118.505 Y108.736
G1 F2700 E50.67139
G1 F1200 X120.948 Y108.736 E50.79937
G1 X121.27 Y108.5 E50.82028
G1 X121.876 Y108.5 E50.85203
G1 X122.198 Y108.736 E50.87294
G1 X130.723 Y108.736 E51.31952
G1 X130.723 Y117.324 E51.7694
G1 X143.123 Y117.324 E52.41897
G1 X143.123 Y108.736 E52.86885
G1 X154.812 Y108.736 E53.48117
G1 X155.134 Y108.5 E53.50209
G1 X155.74 Y108.5 E53.53383
G1 X156.062 Y108.736 E53.55475
G1 X158.505 Y108.736 E53.68272
G1 X158.505 Y122.735 E54.41605
G1 X155.904 Y122.735 E54.55231
G1 X155.505 Y123.134 E54.58187
G1 X155.505 Y129.735 E54.92766
G1 X121.505 Y129.735 E56.70874
G1 X121.505 Y123.134 E57.05453
G1 X121.106 Y122.735 E57.08409
G1 X118.505 Y122.735 E57.22034
G1 X118.505 Y108.736 E57.95367
G0 F3000 X118.665 Y109.306
G1 F1200 X130.563 Y109.306 E58.57695
G0 F3000 X127.968 Y108.896
G1 F1200 X127.968 Y129.575 E59.66021
G0 F3000 X125.302 Y129.575
G1 F1200 X125.302 Y108.896 E60.74348
G0 F3000 X122.636 Y108.896
G1 F1200 X122.636 Y129.575 E61.82674
G0 F3000 X121.664 Y127.968
G1 F1200 X155.345 Y127.968 E63.59111
G0 F3000 X154.628 Y129.575
G1 F1200 X154.628 Y108.896 E64.67437
G0 F3000 X151.962 Y108.896
G1 F1200 X151.962 Y129.575 E65.75764
G0 F3000 X149.296 Y129.575
G1 F1200 X149.296 Y108.896 E66.8409
G0 F3000 X146.63 Y108.896
G1 F1200 X146.63 Y129.575 E67.92416
G0 F3000 X143.964 Y129.575
G1 F1200 X143.964 Y108.896 E69.00743
G0 F3000 X143.283 Y109.306
G1 F1200 X158.345 Y109.306 E69.79644
G0 F3000 X157.294 Y108.896
G1 F1200 X157.294 Y122.575 E70.51301
G0 F3000 X155.775 Y122.636
G1 F1200 X121.234 Y122.636 E72.32243
G0 F3000 X119.97 Y122.575
G1 F1200 X119.97 Y108.896 E73.03901
G0 F3000 X118.665 Y111.972
G1 F1200 X130.563 Y111.972 E73.66228
G0 F3000 X130.563 Y114.638
G1 F1200 X118.665 Y114.638 E74.28555
G0 F3000 X118.665 Y117.304
G1 F1200 X130.563 Y117.304 E74.90883
G0 F3000 X130.634 Y117.484
G1 F1200 X130.634 Y129.575 E75.54221
G0 F3000 X133.3 Y129.575
G1 F1200 X133.3 Y117.484 E76.17559
G0 F3000 X135.966 Y117.484
G1 F1200 X135.966 Y129.575 E76.80898
G0 F3000 X138.632 Y129.575
G1 F1200 X138.632 Y117.484 E77.44236
G0 F3000 X141.298 Y117.484
G1 F1200 X141.298 Y129.575 E78.07574
G0 F3000 X143.283 Y117.304
G1 F1200 X158.345 Y117.304 E78.86476
G0 F3000 X158.345 Y114.638
G1 F1200 X143.283 Y114.638 E79.65378
G0 F3000 X143.283 Y111.972
G1 F1200 X158.345 Y111.972 E80.4428
G0 F3000 X158.345 Y119.97
G1 F1200 X118.664 Y119.97 E82.52148
G0 F3000 X121.664 Y125.302
G1 F1200 X155.345 Y125.302 E84.28585
G1 F2700 E80.28585
G0 F3000 X131.27 Y116.777
G0 X115.142 Y72.621
G0 X114.512 Y71.573
G0 X113.669 Y70.681
G0 X112.66 Y69.996
G0 X111.508 Y69.537
G0 X110.304 Y69.341
G0 X109.081 Y69.407
G0 X107.904 Y69.736
G0 X106.824 Y70.307
G0 X105.891 Y71.098
G0 X105.151 Y72.068
G0 X104.633 Y73.187
G0 X104.37 Y74.374
G0 X99.788 Y102.675
G0 X98.509 Y102.675
G0 X98.453 Y102.619
G0 X98.523 Y102.689
;TYPE:WALL-INNER
G1 F2700 E84.28585
G1 F1200 X77.423 Y102.692 E85.39116
G1 X77.223 Y102.692 E85.40164
G1 X77.223 Y102.492 E85.40842
G1 X77.223 Y93.694 E85.86931
G1 X98.323 Y93.693 E86.97462
G1 X98.523 Y93.693 E86.9851
G1 X98.523 Y93.893 E86.99188
G1 X98.523 Y102.689 E87.45266
G0 F3000 X98.923 Y103.089
;TYPE:WALL-OUTER
G1 F1200 X77.023 Y103.092 E88.59988
G1 X76.823 Y103.092 E88.61036
G1 X76.823 Y102.892 E88.61715
G1 X76.823 Y93.294 E89.11993
G1 X98.723 Y93.293 E90.26716
G1 X98.923 Y93.293 E90.27764
G1 X98.923 Y93.493 E90.28442
G1 X98.923 Y103.089 E90.7871
G0 F3000 X98.723 Y103.089
G0 X98.342 Y102.302
;TYPE:SKIN
G1 F1200 X89.913 Y93.873 E91.41155
G0 X89.843 Y93.803
G0 F3000 X89.347 Y93.873
