;FLAVOR:RepRap
;TIME:24408
;Filament used: 21.3648m
;Layer height: 0.2
;Generated with Cura_SteamEngine 2.4.0
M190 S60
M104 S195
M109 S195
G21 ;metric values
G90 ;absolute positioning
M82 ;set extruder to absolute mode
M107 ;start with the fan off
G28 X0 Y0 ;move X/Y to min endstops
G28 Z0 ;move Z to min endstops
G1 Z15.0 F9000 ;move the platform down 15mm
G92 E0 ;zero the extruded length
G1 F200 E3 ;extrude 3mm of feed stock
G92 E0 ;zero the extruded length again
G1 F9000;Put printing message on LCD screen
M117 Printing...
;LAYER_COUNT:237
;LAYER:0
M107
G1 F2700 E-4
G0 F3000 X89.198 Y50.96 Z0.3
;TYPE:SKIRT
G1 F2700 E0
G1 F1500 X89.625 Y50.589 E0.02935
G1 X90.1 Y50.282 E0.05869
G1 X90.613 Y50.046 E0.08799
G1 X91.277 Y49.859 E0.12379
G1 X200.59 Y29.019 E5.89773
G1 X201.151 Y28.952 E5.92705
G1 X201.717 Y28.966 E5.95642
G1 X202.274 Y29.059 E5.98572
G1 X202.813 Y29.23 E6.01506
G1 X203.323 Y29.474 E6.0444
G1 X203.792 Y29.789 E6.07371
G1 X204.163 Y30.116 E6.09937
G1 X209.875 Y35.812 E6.51792
G1 X210.247 Y36.238 E6.54726
G1 X210.554 Y36.713 E6.57661
G1 X210.791 Y37.226 E6.60593
G1 X210.954 Y37.767 E6.63525
G1 X211.038 Y38.326 E6.66458
G1 X211.043 Y38.891 E6.69389
G1 X210.969 Y39.452 E6.72325
G1 X210.816 Y39.996 E6.75257
G1 X210.587 Y40.513 E6.78191
G1 X210.289 Y40.993 E6.81123
G1 X209.879 Y41.472 E6.84394
G1 X41.471 Y209.877 E19.20121
G1 X41.044 Y210.248 E19.23056
G1 X40.569 Y210.555 E19.2599
G1 X40.056 Y210.791 E19.2892
G1 X39.514 Y210.953 E19.31855
G1 X38.955 Y211.037 E19.34788
G1 X38.39 Y211.041 E19.3772
G1 X37.83 Y210.965 E19.40652
G1 X37.286 Y210.812 E19.43584
G1 X36.769 Y210.583 E19.46518
G1 X36.289 Y210.283 E19.49455
G1 X35.815 Y209.877 E19.52693
G1 X30.119 Y204.181 E19.94489
G1 X29.748 Y203.754 E19.97424
G1 X29.441 Y203.279 E20.00359
G1 X29.205 Y202.766 E20.03289
G1 X29.043 Y202.224 E20.06224
G1 X28.959 Y201.665 E20.09157
G1 X28.955 Y201.1 E20.12088
G1 X29.009 Y200.653 E20.14425
G1 X48.132 Y93.044 E25.8151
G1 X48.27 Y92.496 E25.84442
G1 X48.484 Y91.973 E25.87374
G1 X48.769 Y91.485 E25.90307
G1 X49.242 Y90.916 E25.94146
G1 X89.198 Y50.96 E28.87333
G0 F3000 X89.48 Y51.242
G1 F1500 X89.887 Y50.893 E28.90115
G1 X90.341 Y50.607 E28.92899
G1 X90.832 Y50.392 E28.9568
G1 X91.352 Y50.252 E28.98474
G1 X200.665 Y29.412 E34.75869
G1 X201.198 Y29.351 E34.78653
G1 X201.734 Y29.37 E34.81435
G1 X202.261 Y29.468 E34.84217
G1 X202.768 Y29.644 E34.87001
G1 X203.243 Y29.892 E34.89782
G1 X203.675 Y30.209 E34.92562
G1 X203.881 Y30.399 E34.94016
G1 X209.593 Y36.095 E35.3587
G1 X209.943 Y36.501 E35.38652
G1 X210.23 Y36.954 E35.41434
G1 X210.446 Y37.445 E35.44217
G1 X210.586 Y37.963 E35.47002
G1 X210.648 Y38.495 E35.49781
G1 X210.63 Y39.031 E35.52563
G1 X210.533 Y39.559 E35.55349
G1 X210.358 Y40.066 E35.58132
G1 X210.11 Y40.541 E35.60912
G1 X209.795 Y40.975 E35.63694
G1 X209.597 Y41.19 E35.65211
G1 X41.189 Y209.595 E48.00938
G1 X40.782 Y209.945 E48.03723
G1 X40.328 Y210.23 E48.06504
G1 X39.837 Y210.445 E48.09285
G1 X39.319 Y210.585 E48.12069
G1 X38.786 Y210.646 E48.14853
G1 X38.25 Y210.628 E48.17636
G1 X37.723 Y210.53 E48.20417
G1 X37.216 Y210.354 E48.23201
G1 X36.741 Y210.106 E48.25982
G1 X36.308 Y209.789 E48.28766
G1 X36.097 Y209.595 E48.30253
G1 X30.401 Y203.899 E48.72049
G1 X30.052 Y203.492 E48.74831
G1 X29.766 Y203.038 E48.77615
G1 X29.551 Y202.547 E48.80396
G1 X29.411 Y202.029 E48.8318
G1 X29.35 Y201.496 E48.85964
G1 X29.403 Y200.723 E48.89984
G1 X48.526 Y93.114 E54.5707
G1 X48.658 Y92.595 E54.59848
G1 X48.867 Y92.101 E54.62631
G1 X49.147 Y91.643 E54.65417
G1 X49.524 Y91.198 E54.68443
G1 X89.48 Y51.242 E57.6163
G0 F3000 X89.763 Y51.525
G1 F1500 X90.148 Y51.197 E57.64255
G1 X90.579 Y50.934 E57.66874
G1 X91.047 Y50.741 E57.69501
G1 X91.427 Y50.645 E57.71535
G1 X200.74 Y29.805 E63.48929
G1 X201.242 Y29.749 E63.5155
G1 X201.747 Y29.774 E63.54174
G1 X202.242 Y29.878 E63.56798
G1 X202.714 Y30.059 E63.59421
G1 X203.152 Y30.311 E63.62043
G1 X203.599 Y30.682 E63.65057
G1 X209.311 Y36.378 E64.06911
G1 X209.639 Y36.762 E64.09532
G1 X209.903 Y37.193 E64.12154
G1 X210.096 Y37.661 E64.14781
G1 X210.213 Y38.153 E64.17405
G1 X210.251 Y38.657 E64.20027
G1 X210.209 Y39.161 E64.22651
G1 X210.088 Y39.651 E64.2527
G1 X209.892 Y40.117 E64.27893
G1 X209.624 Y40.546 E64.30518
G1 X209.314 Y40.907 E64.32987
G1 X40.906 Y209.312 E76.68713
G1 X40.521 Y209.64 E76.71338
G1 X40.09 Y209.903 E76.73957
G1 X39.622 Y210.096 E76.76584
G1 X39.13 Y210.212 E76.79207
G1 X38.626 Y210.249 E76.81829
G1 X38.122 Y210.206 E76.84454
G1 X37.631 Y210.085 E76.87077
G1 X37.166 Y209.888 E76.89698
G1 X36.737 Y209.62 E76.92322
G1 X36.38 Y209.312 E76.94769
G1 X30.684 Y203.616 E77.36564
G1 X30.356 Y203.231 E77.39189
G1 X30.093 Y202.8 E77.41808
G1 X29.9 Y202.332 E77.44435
G1 X29.784 Y201.84 E77.47058
G1 X29.747 Y201.336 E77.4968
G1 X29.796 Y200.793 E77.52509
G1 X48.919 Y93.184 E83.19595
G1 X49.047 Y92.695 E83.22217
G1 X49.25 Y92.232 E83.2484
G1 X49.523 Y91.807 E83.27461
G1 X49.807 Y91.481 E83.29704
G1 X89.763 Y51.525 E86.22892
G1 F2700 E82.22892
G0 F3000 X91.421 Y53.439
G0 X92.329 Y54.345
G0 X92.366 Y54.416
G0 X92.32 Y54.328
;TYPE:WALL-INNER
G1 F2700 E86.22892
G1 F1500 X201.156 Y33.585 E91.97761
G1 X206.216 Y38.645 E92.3489
G1 X38.645 Y206.216 E104.64486
G1 X33.582 Y201.153 E105.01638
G1 X52.619 Y94.028 E110.66173
G1 X92.32 Y54.328 E113.57485
G0 F3000 X92.366 Y54.416
G0 X92.179 Y65.75
G0 X92.175 Y65.849
G1 F1500 X91.873 Y65.849 E113.59052
G1 X91.574 Y65.874 E113.60609
G1 X91.277 Y65.924 E113.62172
G1 X90.987 Y65.997 E113.63723
G1 X90.702 Y66.096 E113.65289
G1 X90.428 Y66.217 E113.66843
G1 X90.164 Y66.36 E113.68401
G1 X89.912 Y66.525 E113.69964
G1 X89.675 Y66.71 E113.71524
G1 X89.47 Y66.901 E113.72978
G1 X65.188 Y91.181 E115.51146
G1 X64.997 Y91.389 E115.52611
G1 X64.81 Y91.628 E115.54185
G1 X64.647 Y91.879 E115.55738
G1 X64.504 Y92.143 E115.57296
G1 X64.383 Y92.417 E115.5885
G1 X64.286 Y92.701 E115.60407
G1 X64.21 Y92.993 E115.61973
G1 X64.161 Y93.291 E115.6354
G1 X64.136 Y93.589 E115.65092
G1 X64.136 Y93.889 E115.66648
G1 X64.161 Y94.19 E115.68215
G1 X64.211 Y94.488 E115.69783
G1 X64.285 Y94.776 E115.71326
G1 X64.382 Y95.062 E115.72893
G1 X64.505 Y95.339 E115.74465
G1 X64.648 Y95.6 E115.7601
G1 X64.811 Y95.851 E115.77562
G1 X64.998 Y96.089 E115.79133
G1 X65.188 Y96.295 E115.80587
G1 X93.759 Y124.866 E117.90234
G1 X93.973 Y125.06 E117.91733
G1 X94.21 Y125.243 E117.93286
G1 X94.463 Y125.406 E117.94848
G1 X94.727 Y125.548 E117.96403
G1 X95.002 Y125.668 E117.9796
G1 X95.271 Y125.76 E117.99435
G1 X95.562 Y125.834 E118.00993
G1 X95.86 Y125.884 E118.02561
G1 X96.159 Y125.908 E118.04117
G1 X96.459 Y125.908 E118.05674
G1 X96.759 Y125.884 E118.07236
G1 X97.057 Y125.833 E118.08804
G1 X97.345 Y125.76 E118.10346
G1 X97.631 Y125.662 E118.11914
G1 X97.907 Y125.539 E118.13482
G1 X98.169 Y125.397 E118.15028
G1 X98.42 Y125.233 E118.16584
G1 X98.657 Y125.048 E118.18144
G1 X98.864 Y124.856 E118.19609
G1 X123.144 Y100.577 E119.97766
G1 X123.335 Y100.37 E119.99228
G1 X123.522 Y100.132 E120.00798
G1 X123.685 Y99.879 E120.0236
G1 X123.828 Y99.617 E120.03908
G1 X123.95 Y99.341 E120.05474
G1 X124.047 Y99.056 E120.07036
G1 X124.122 Y98.766 E120.0859
G1 X124.171 Y98.468 E120.10157
G1 X124.196 Y98.168 E120.11719
G1 X124.196 Y97.868 E120.13276
G1 X124.171 Y97.569 E120.14833
G1 X124.121 Y97.272 E120.16395
G1 X124.047 Y96.982 E120.17948
G1 X123.95 Y96.698 E120.19505
G1 X123.828 Y96.42 E120.21081
G1 X123.683 Y96.157 E120.22639
G1 X123.521 Y95.908 E120.2418
G1 X123.335 Y95.67 E120.25747
G1 X123.143 Y95.463 E120.27212
G1 X94.573 Y66.891 E122.36859
G1 X94.36 Y66.699 E122.38347
G1 X94.124 Y66.514 E122.39903
G1 X93.87 Y66.351 E122.41469
G1 X93.606 Y66.209 E122.43025
G1 X93.331 Y66.09 E122.44579
G1 X93.061 Y65.997 E122.46061
G1 X92.77 Y65.923 E122.47619
G1 X92.473 Y65.874 E122.49181
G1 X92.175 Y65.849 E122.50732
G0 F3000 X92.179 Y65.75
G0 X111.033 Y61.405
G0 X111.131 Y61.388
G1 F1500 X111.2 Y61.695 E122.52365
G1 X111.294 Y61.994 E122.53991
G1 X111.415 Y62.286 E122.55631
G1 X111.56 Y62.565 E122.57263
G1 X111.729 Y62.83 E122.58893
G1 X111.92 Y63.081 E122.6053
G1 X112.125 Y63.303 E122.62098
G1 X133.723 Y84.903 E124.20586
G1 X133.936 Y85.095 E124.22074
G1 X134.172 Y85.28 E124.2363
G1 X134.426 Y85.443 E124.25196
G1 X134.69 Y85.585 E124.26751
G1 X134.965 Y85.705 E124.28308
G1 X135.235 Y85.797 E124.29788
G1 X135.526 Y85.871 E124.31346
G1 X135.823 Y85.92 E124.32908
G1 X136.123 Y85.945 E124.3447
G1 X136.423 Y85.945 E124.36026
G1 X136.722 Y85.92 E124.37583
G1 X137.018 Y85.87 E124.39141
G1 X137.309 Y85.797 E124.40697
G1 X137.594 Y85.699 E124.42261
G1 X137.87 Y85.577 E124.43827
G1 X138.134 Y85.434 E124.45385
G1 X138.385 Y85.269 E124.46943
G1 X138.619 Y85.084 E124.48491
G1 X138.826 Y84.895 E124.49945
G1 X170.569 Y53.153 E126.82864
G1 X170.76 Y52.945 E126.84329
G1 X170.948 Y52.702 E126.85924
G1 X171.116 Y52.446 E126.87512
G1 X171.261 Y52.174 E126.89112
G1 X171.383 Y51.892 E126.90706
G1 X171.481 Y51.598 E126.92314
G1 X171.553 Y51.301 E126.93899
G1 X171.6 Y50.996 E126.95501
G1 X171.62 Y50.691 E126.97087
G1 X171.618 Y50.384 E126.98679
G1 X171.586 Y50.074 E127.00296
G1 X171.529 Y49.773 E127.01886
G1 X171.447 Y49.475 E127.0349
G1 X171.338 Y49.187 E127.05087
G1 X171.208 Y48.909 E127.0668
G1 X171.053 Y48.643 E127.08277
G1 X170.876 Y48.391 E127.09875
G1 X170.679 Y48.155 E127.1147
G1 X170.462 Y47.936 E127.1307
G1 X170.227 Y47.735 E127.14674
G1 X169.977 Y47.557 E127.16266
G1 X169.713 Y47.4 E127.1786
G1 X169.435 Y47.265 E127.19464
G1 X169.146 Y47.156 E127.21066
G1 X168.853 Y47.072 E127.22648
G1 X168.549 Y47.01 E127.24258
G1 X168.244 Y46.978 E127.25849
G1 X167.94 Y46.969 E127.27427
G1 X167.632 Y46.984 E127.29027
G1 X167.336 Y47.027 E127.30579
G1 X114.013 Y57.192 E130.12232
G1 X113.724 Y57.258 E130.1377
G1 X113.424 Y57.358 E130.15411
G1 X113.135 Y57.481 E130.1704
G1 X112.86 Y57.629 E130.18661
G1 X112.597 Y57.799 E130.20285
G1 X112.348 Y57.994 E130.21926
G1 X112.118 Y58.208 E130.23557
G1 X111.907 Y58.441 E130.25187
G1 X111.717 Y58.693 E130.26825
G1 X111.551 Y58.959 E130.28452
G1 X111.407 Y59.238 E130.30081
G1 X111.289 Y59.529 E130.3171
G1 X111.195 Y59.83 E130.33346
G1 X111.129 Y60.138 E130.34981
G1 X111.09 Y60.449 E130.36607
G1 X111.077 Y60.761 E130.38227
G1 X111.09 Y61.074 E130.39853
G1 X111.131 Y61.388 E130.41496
G0 F3000 X111.033 Y61.405
G0 X124.16 Y97.264
G0 X124.235 Y98.169
G0 X124.085 Y99.067
G0 X123.719 Y99.899
G0 X123.172 Y100.604
G0 X98.682 Y125.078
G0 X97.924 Y125.574
G0 X97.065 Y125.872
G0 X96.158 Y125.947
G0 X95.26 Y125.798
G0 X61.891 Y113.997
G0 X61.822 Y114.069
G1 F1500 X61.61 Y113.874 E130.4299
G1 X61.37 Y113.687 E130.44569
G1 X61.115 Y113.522 E130.46145
G1 X60.847 Y113.377 E130.47726
G1 X60.565 Y113.255 E130.4932
G1 X60.279 Y113.16 E130.50884
G1 X59.982 Y113.086 E130.52472
G1 X59.681 Y113.038 E130.54053
G1 X59.377 Y113.016 E130.55635
G1 X59.071 Y113.019 E130.57223
G1 X58.77 Y113.048 E130.58792
G1 X58.469 Y113.102 E130.60378
G1 X58.174 Y113.182 E130.61964
G1 X57.889 Y113.287 E130.6354
G1 X57.613 Y113.412 E130.65112
G1 X57.346 Y113.563 E130.66704
G1 X57.095 Y113.735 E130.68282
G1 X56.859 Y113.927 E130.69861
G1 X56.64 Y114.139 E130.71443
G1 X56.439 Y114.368 E130.73024
G1 X56.258 Y114.614 E130.74608
G1 X56.099 Y114.874 E130.76189
G1 X55.963 Y115.143 E130.77753
G1 X55.848 Y115.427 E130.79343
G1 X55.759 Y115.718 E130.80922
G1 X55.697 Y115.995 E130.82395
G1 X46.468 Y167.927 E133.5607
G1 X46.429 Y168.214 E133.57573
G1 X46.414 Y168.52 E133.59163
G1 X46.423 Y168.827 E133.60756
G1 X46.46 Y169.134 E133.62361
G1 X46.523 Y169.434 E133.63951
G1 X46.61 Y169.727 E133.65537
G1 X46.721 Y170.013 E133.67129
G1 X46.857 Y170.288 E133.68721
G1 X47.015 Y170.55 E133.70308
G1 X47.194 Y170.798 E133.71895
G1 X47.394 Y171.031 E133.73488
G1 X47.614 Y171.245 E133.75081
G1 X47.85 Y171.439 E133.76666
G1 X48.1 Y171.614 E133.78249
G1 X48.367 Y171.768 E133.79848
G1 X48.645 Y171.898 E133.81441
G1 X48.931 Y172.003 E133.83022
G1 X49.227 Y172.085 E133.84615
G1 X49.529 Y172.14 E133.86208
G1 X49.832 Y172.172 E133.87789
G1 X50.142 Y172.176 E133.89397
G1 X50.445 Y172.154 E133.90974
G1 X50.747 Y172.108 E133.92559
G1 X51.047 Y172.036 E133.94159
G1 X51.338 Y171.938 E133.95753
G1 X51.619 Y171.816 E133.97342
G1 X51.889 Y171.671 E133.98932
G1 X52.145 Y171.504 E134.00518
G1 X52.386 Y171.318 E134.02098
G1 X52.598 Y171.123 E134.03592
G1 X83.18 Y140.54 E136.27999
G1 X83.373 Y140.332 E136.29472
G1 X83.558 Y140.094 E136.31036
G1 X83.722 Y139.842 E136.32596
G1 X83.865 Y139.58 E136.34144
G1 X83.987 Y139.304 E136.3571
G1 X84.084 Y139.019 E136.37272
G1 X84.159 Y138.729 E136.38826
G1 X84.208 Y138.43 E136.40399
G1 X84.232 Y138.132 E136.4195
G1 X84.232 Y137.832 E136.43506
G1 X84.208 Y137.533 E136.45063
G1 X84.158 Y137.235 E136.4663
G1 X84.084 Y136.944 E136.48188
G1 X83.986 Y136.659 E136.49752
G1 X83.863 Y136.384 E136.51315
G1 X83.721 Y136.122 E136.52861
G1 X83.557 Y135.871 E136.54417
G1 X83.372 Y135.635 E136.55973
G1 X83.181 Y135.427 E136.57438
G1 X61.822 Y114.069 E138.14162
G0 F3000 X61.351 Y114.179
;TYPE:WALL-OUTER
G1 F1500 X61.138 Y114.013 E138.15563
G1 X60.911 Y113.866 E138.16966
G1 X60.672 Y113.737 E138.18375
G1 X60.422 Y113.629 E138.19788
G1 X60.167 Y113.544 E138.21183
G1 X59.902 Y113.478 E138.226
G1 X59.635 Y113.436 E138.24002
G1 X59.364 Y113.416 E138.25412
G1 X59.093 Y113.419 E138.26819
G1 X58.825 Y113.445 E138.28216
G1 X58.557 Y113.493 E138.29628
G1 X58.295 Y113.564 E138.31037
G1 X58.041 Y113.657 E138.3244
G1 X57.795 Y113.769 E138.33843
G1 X57.558 Y113.903 E138.35255
G1 X57.335 Y114.056 E138.36658
G1 X57.125 Y114.227 E138.38064
G1 X56.93 Y114.415 E138.39469
G1 X56.751 Y114.619 E138.40877
G1 X56.59 Y114.837 E138.42283
G1 X56.449 Y115.069 E138.43692
G1 X56.327 Y115.309 E138.45089
G1 X56.225 Y115.561 E138.46499
G1 X56.146 Y115.82 E138.47904
G1 X56.089 Y116.074 E138.49255
G1 X46.863 Y167.988 E141.22836
G1 X46.828 Y168.251 E141.24212
G1 X46.814 Y168.524 E141.25631
G1 X46.822 Y168.797 E141.27048
G1 X46.855 Y169.069 E141.28469
G1 X46.911 Y169.336 E141.29885
G1 X46.989 Y169.597 E141.31298
G1 X47.088 Y169.852 E141.32718
G1 X47.208 Y170.096 E141.34128
G1 X47.349 Y170.329 E141.35541
G1 X47.509 Y170.55 E141.36957
G1 X47.686 Y170.757 E141.3837
G1 X47.881 Y170.947 E141.39783
G1 X48.092 Y171.12 E141.41199
G1 X48.315 Y171.276 E141.42611
G1 X48.552 Y171.413 E141.44031
G1 X48.799 Y171.528 E141.45445
G1 X49.054 Y171.622 E141.46855
G1 X49.317 Y171.695 E141.48271
G1 X49.586 Y171.744 E141.4969
G1 X49.856 Y171.772 E141.51098
G1 X50.13 Y171.776 E141.5252
G1 X50.4 Y171.756 E141.53925
G1 X50.67 Y171.715 E141.55342
G1 X50.936 Y171.651 E141.56761
G1 X51.195 Y171.564 E141.58179
G1 X51.445 Y171.456 E141.59592
G1 X51.685 Y171.327 E141.61006
G1 X51.913 Y171.178 E141.62419
G1 X52.128 Y171.012 E141.63828
G1 X52.321 Y170.834 E141.6519
G1 X82.892 Y140.263 E143.89513
G1 X83.068 Y140.073 E143.90857
G1 X83.232 Y139.862 E143.92244
G1 X83.378 Y139.637 E143.93635
G1 X83.506 Y139.403 E143.95019
G1 X83.614 Y139.159 E143.96404
G1 X83.7 Y138.905 E143.97795
G1 X83.767 Y138.646 E143.99183
G1 X83.811 Y138.381 E144.00577
G1 X83.832 Y138.116 E144.01956
G1 X83.832 Y137.848 E144.03347
G1 X83.811 Y137.582 E144.04731
G1 X83.766 Y137.318 E144.06121
G1 X83.7 Y137.059 E144.07508
G1 X83.613 Y136.806 E144.08896
G1 X83.504 Y136.561 E144.10287
G1 X83.377 Y136.327 E144.11668
G1 X83.231 Y136.104 E144.13051
G1 X83.067 Y135.894 E144.14434
G1 X82.892 Y135.704 E144.15774
G1 X61.545 Y114.358 E145.7241
G1 X61.351 Y114.179 E145.73779
G0 F3000 X61.194 Y114.057
G0 X61.502 Y113.664
G0 X65.123 Y96.37
G0 X65.477 Y96.018
G1 F1500 X94.035 Y124.576 E147.83331
G1 X94.23 Y124.753 E147.84698
G1 X94.441 Y124.916 E147.86081
G1 X94.666 Y125.061 E147.8747
G1 X94.902 Y125.188 E147.8886
G1 X95.147 Y125.295 E147.90247
G1 X95.385 Y125.376 E147.91552
G1 X95.645 Y125.442 E147.92944
G1 X95.909 Y125.487 E147.94333
G1 X96.175 Y125.508 E147.95718
G1 X96.443 Y125.508 E147.97108
G1 X96.709 Y125.487 E147.98493
G1 X96.974 Y125.441 E147.99888
G1 X97.231 Y125.376 E148.01264
G1 X97.485 Y125.289 E148.02657
G1 X97.73 Y125.18 E148.04048
G1 X97.964 Y125.053 E148.0543
G1 X98.187 Y124.907 E148.06813
G1 X98.398 Y124.743 E148.08199
G1 X98.587 Y124.568 E148.09536
