;FLAVOR:RepRap
;TIME:6003
;Filament used: 6.52291m
;Layer height: 0.2
;Generated with Cura_SteamEngine 2.4.0
M190 S60
M104 S192
M109 S192
G21 ;metric values
G90 ;absolute positioning
M82 ;set extruder to absolute mode
M107 ;start with the fan off
G28 X0 Y0 ;move X/Y to min endstops
G28 Z0 ;move Z to min endstops
G1 Z15.0 F9000 ;move the platform down 15mm
G92 E0 ;zero the extruded length
G1 F200 E3 ;extrude 3mm of feed stock
G92 E0 ;zero the extruded length again
G1 F9000;Put printing message on LCD screen
M117 Printing...
;LAYER_COUNT:200
;LAYER:0
M107
G1 F2100 E-3
G0 F3600 X75.493 Y92.402 Z0.3
;TYPE:SKIRT
G1 F2100 E0
G1 F1800 X75.956 Y92.078 E0.02819
G1 X76.461 Y91.823 E0.05642
G1 X76.996 Y91.641 E0.08461
G1 X77.733 Y91.52 E0.12187
G1 X81.036 Y91.29 E0.28706
G1 X86.461 Y90.667 E0.55949
G1 X91.853 Y89.737 E0.83247
G1 X94.405 Y89.186 E0.96273
G1 X99.718 Y87.796 E1.23671
G1 X104.896 Y86.124 E1.50818
G1 X109.95 Y84.171 E1.77849
G1 X114.907 Y81.925 E2.05
G1 X119.699 Y79.418 E2.31982
G1 X124.385 Y76.619 E2.59213
G1 X128.887 Y73.571 E2.86337
G1 X130.634 Y72.287 E2.97154
G1 X131.112 Y71.985 E2.99975
G1 X131.628 Y71.754 E3.02795
G1 X132.172 Y71.597 E3.0562
G1 X133.003 Y71.51 E3.09789
G1 X142.991 Y71.51 E3.59619
G1 X143.555 Y71.55 E3.6244
G1 X144.108 Y71.669 E3.65262
G1 X144.638 Y71.865 E3.68081
G1 X145.135 Y72.133 E3.70898
G1 X145.59 Y72.469 E3.7372
G1 X145.993 Y72.866 E3.76542
G1 X146.335 Y73.316 E3.79362
G1 X146.611 Y73.809 E3.82181
G1 X146.815 Y74.337 E3.85005
G1 X146.942 Y74.887 E3.87821
G1 X146.991 Y75.51 E3.90939
G1 X146.99 Y111.496 E5.70474
G1 X146.95 Y112.06 E5.73295
G1 X146.831 Y112.613 E5.76117
G1 X146.588 Y113.244 E5.7949
G1 X145.343 Y115.807 E5.93706
G1 X143.15 Y120.854 E6.2116
G1 X142.182 Y123.365 E6.34586
G1 X141.295 Y125.887 E6.47924
G1 X139.699 Y131.107 E6.75156
G1 X138.405 Y136.394 E7.02312
G1 X137.877 Y139.026 E7.15705
G1 X136.947 Y145.084 E7.46282
G1 X136.822 Y145.635 E7.49101
G1 X136.62 Y146.163 E7.51921
G1 X136.346 Y146.658 E7.54744
G1 X136.005 Y147.109 E7.57565
G1 X135.604 Y147.507 E7.60384
G1 X135.151 Y147.845 E7.63203
G1 X134.655 Y148.116 E7.66023
G1 X134.125 Y148.313 E7.68844
G1 X133.573 Y148.435 E7.71665
G1 X132.998 Y148.477 E7.74541
G1 X126.986 Y148.484 E8.04535
G1 X126.422 Y148.445 E8.07355
G1 X125.857 Y148.323 E8.10239
G1 X122.834 Y147.438 E8.25954
G1 X117.48 Y146.124 E8.53458
G1 X114.911 Y145.609 E8.6653
G1 X109.498 Y144.76 E8.93865
G1 X104.106 Y144.223 E9.20899
G1 X98.695 Y143.992 E9.47919
G1 X93.245 Y144.069 E9.75112
G1 X87.842 Y144.451 E10.02135
G1 X82.338 Y145.154 E10.29818
G1 X80.245 Y145.458 E10.4037
G1 X79.656 Y145.5 E10.43315
G1 X76.995 Y145.491 E10.56591
G1 X76.432 Y145.449 E10.59408
G1 X75.879 Y145.328 E10.62232
G1 X75.35 Y145.131 E10.65048
G1 X74.853 Y144.86 E10.67873
G1 X74.4 Y144.523 E10.70689
G1 X73.998 Y144.125 E10.73512
G1 X73.657 Y143.674 E10.76333
G1 X73.383 Y143.18 E10.79151
G1 X73.181 Y142.651 E10.81976
G1 X73.056 Y142.1 E10.84795
G1 X73.009 Y141.491 E10.87842
G1 X73.011 Y108.489 E12.5249
G1 X73.033 Y108.07 E12.54583
G1 X73.783 Y100.955 E12.90276
G1 X74.014 Y95.345 E13.18289
G1 X74.078 Y94.784 E13.21106
G1 X74.219 Y94.236 E13.23929
G1 X74.437 Y93.714 E13.26751
G1 X74.725 Y93.229 E13.29565
G1 X75.08 Y92.788 E13.32389
G1 X75.493 Y92.402 E13.3521
G0 F3600 X75.876 Y92.612
G1 F1800 X76.33 Y92.327 E13.37884
G1 X76.821 Y92.112 E13.40558
G1 X77.339 Y91.973 E13.43234
G1 X77.761 Y91.919 E13.45357
G1 X81.065 Y91.689 E13.6188
G1 X86.521 Y91.063 E13.89279
G1 X91.931 Y90.129 E14.16669
G1 X94.505 Y89.574 E14.29806
G1 X99.833 Y88.179 E14.57283
G1 X105.02 Y86.504 E14.84477
G1 X110.116 Y84.535 E15.11733
G1 X115.065 Y82.294 E15.38837
G1 X119.91 Y79.759 E15.66117
G1 X124.588 Y76.964 E15.93304
G1 X129.121 Y73.895 E16.20615
G1 X130.871 Y72.609 E16.3145
G1 X131.326 Y72.325 E16.34126
G1 X131.818 Y72.111 E16.36803
G1 X132.336 Y71.972 E16.39478
G1 X133.003 Y71.91 E16.4282
G1 X142.991 Y71.91 E16.92651
G1 X143.526 Y71.95 E16.95327
G1 X144.049 Y72.069 E16.98003
G1 X144.548 Y72.264 E17.00676
G1 X145.013 Y72.532 E17.03354
G1 X145.433 Y72.865 E17.06028
G1 X145.799 Y73.257 E17.08703
G1 X146.102 Y73.699 E17.11377
G1 X146.337 Y74.182 E17.14057
G1 X146.497 Y74.693 E17.16728
G1 X146.58 Y75.223 E17.19405
G1 X146.591 Y75.51 E17.20837
G1 X146.59 Y111.496 E19.00372
G1 X146.55 Y112.031 E19.03049
G1 X146.431 Y112.554 E19.05725
G1 X146.228 Y113.07 E19.08491
G1 X144.978 Y115.642 E19.22758
G1 X142.781 Y120.699 E19.50266
G1 X141.8 Y123.244 E19.63873
G1 X140.922 Y125.742 E19.77083
G1 X139.314 Y131 E20.04515
G1 X138.012 Y136.317 E20.31825
G1 X137.479 Y138.973 E20.4534
G1 X136.551 Y145.023 E20.75877
G1 X136.431 Y145.546 E20.78554
G1 X136.234 Y146.044 E20.81226
G1 X135.965 Y146.508 E20.83902
G1 X135.63 Y146.927 E20.86578
G1 X135.237 Y147.292 E20.89254
G1 X134.794 Y147.594 E20.91929
G1 X134.311 Y147.827 E20.94604
G1 X133.799 Y147.986 E20.97279
G1 X133.268 Y148.066 E20.99958
G1 X132.997 Y148.077 E21.01311
G1 X126.985 Y148.084 E21.31305
G1 X126.45 Y148.045 E21.33981
G1 X125.969 Y147.939 E21.36439
G1 X122.929 Y147.049 E21.52242
G1 X117.58 Y145.736 E21.7972
G1 X114.959 Y145.211 E21.93056
G1 X109.564 Y144.364 E22.20302
G1 X104.146 Y143.825 E22.47466
G1 X98.689 Y143.592 E22.74716
G1 X93.23 Y143.669 E23.01953
G1 X87.798 Y144.053 E23.29121
G1 X82.345 Y144.75 E23.56548
G1 X80.188 Y145.063 E23.67422
G1 X79.658 Y145.1 E23.70072
G1 X76.997 Y145.091 E23.83348
G1 X76.462 Y145.049 E23.86026
G1 X75.94 Y144.929 E23.88698
G1 X75.441 Y144.732 E23.91374
G1 X74.977 Y144.463 E23.9405
G1 X74.558 Y144.128 E23.96727
G1 X74.193 Y143.734 E23.99406
G1 X73.891 Y143.291 E24.02081
G1 X73.659 Y142.808 E24.04754
G1 X73.5 Y142.296 E24.07429
G1 X73.419 Y141.766 E24.10104
G1 X73.409 Y141.491 E24.11477
G1 X73.411 Y108.489 E25.76124
G1 X73.431 Y108.112 E25.78008
G1 X74.183 Y100.982 E26.13777
G1 X74.414 Y95.362 E26.41839
G1 X74.476 Y94.829 E26.44516
G1 X74.616 Y94.312 E26.47188
G1 X74.832 Y93.821 E26.49864
G1 X75.118 Y93.367 E26.52541
G1 X75.469 Y92.961 E26.55219
G1 X75.876 Y92.612 E26.57894
G0 F3600 X76.255 Y92.835
G1 F1800 X76.699 Y92.591 E26.60421
G1 X77.175 Y92.421 E26.62943
G1 X77.789 Y92.318 E26.66049
G1 X81.114 Y92.086 E26.82678
G1 X86.582 Y91.459 E27.10137
G1 X91.986 Y90.526 E27.37496
G1 X94.599 Y89.963 E27.50832
G1 X99.952 Y88.562 E27.78437
G1 X105.145 Y86.885 E28.05663
G1 X110.268 Y84.905 E28.33064
G1 X115.258 Y82.645 E28.60393
G1 X120.096 Y80.114 E28.87634
G1 X124.796 Y77.305 E29.14951
G1 X129.354 Y74.22 E29.4241
G1 X131.108 Y72.931 E29.53269
G1 X131.538 Y72.665 E29.55792
G1 X132.004 Y72.47 E29.58312
G1 X132.495 Y72.351 E29.60833
G1 X133.003 Y72.31 E29.63375
G1 X142.991 Y72.31 E30.13206
G1 X143.495 Y72.35 E30.15728
G1 X143.986 Y72.469 E30.18249
G1 X144.453 Y72.663 E30.20772
G1 X144.883 Y72.929 E30.23294
G1 X145.266 Y73.259 E30.25816
G1 X145.592 Y73.646 E30.28341
G1 X145.853 Y74.079 E30.30863
G1 X146.043 Y74.547 E30.33383
G1 X146.156 Y75.04 E30.35907
G1 X146.191 Y75.51 E30.38258
G1 X146.19 Y111.496 E32.17793
G1 X146.15 Y112 E32.20315
G1 X146.031 Y112.491 E32.22836
G1 X145.868 Y112.895 E32.25009
G1 X144.613 Y115.476 E32.39327
G1 X142.415 Y120.536 E32.66851
G1 X141.425 Y123.104 E32.80581
G1 X140.536 Y125.633 E32.93956
G1 X138.928 Y130.893 E33.21397
G1 X137.62 Y136.236 E33.4884
G1 X137.089 Y138.883 E33.62309
G1 X136.156 Y144.962 E33.92993
G1 X136.04 Y145.454 E33.95514
G1 X135.848 Y145.922 E33.98038
G1 X135.585 Y146.354 E34.00561
G1 X135.257 Y146.739 E34.03085
G1 X134.872 Y147.067 E34.05608
G1 X134.441 Y147.331 E34.0813
G1 X133.974 Y147.523 E34.10649
G1 X133.482 Y147.639 E34.13171
G1 X132.997 Y147.677 E34.15598
G1 X126.985 Y147.684 E34.45592
G1 X126.481 Y147.645 E34.48114
G1 X126.082 Y147.555 E34.50154
G1 X123.051 Y146.667 E34.65912
G1 X117.662 Y145.345 E34.93595
G1 X115.026 Y144.817 E35.07007
G1 X109.613 Y143.967 E35.34343
G1 X104.166 Y143.425 E35.61653
G1 X98.701 Y143.192 E35.88943
G1 X93.214 Y143.269 E36.1632
G1 X87.756 Y143.655 E36.43618
G1 X82.285 Y144.354 E36.71135
G1 X80.13 Y144.667 E36.81999
G1 X79.659 Y144.7 E36.84355
G1 X76.998 Y144.691 E36.97631
G1 X76.494 Y144.649 E37.00154
G1 X76.003 Y144.529 E37.02675
G1 X75.537 Y144.333 E37.05198
G1 X75.108 Y144.065 E37.07721
G1 X74.727 Y143.734 E37.10239
G1 X74.402 Y143.346 E37.12764
G1 X74.142 Y142.913 E37.15284
G1 X73.954 Y142.443 E37.17809
G1 X73.842 Y141.95 E37.20332
G1 X73.809 Y141.491 E37.22628
G1 X73.811 Y108.489 E38.87275
G1 X73.829 Y108.154 E38.88949
G1 X74.582 Y101.009 E39.24793
G1 X74.814 Y95.378 E39.5291
G1 X74.874 Y94.876 E39.55432
G1 X75.013 Y94.39 E39.57954
G1 X75.227 Y93.932 E39.60476
G1 X75.51 Y93.513 E39.62999
G1 X75.856 Y93.144 E39.65522
G1 X76.255 Y92.835 E39.6804
G1 F2100 E36.6804
G0 F3600 X78.614 Y94.835
G0 X78.614 Y96.114
G0 X78.67 Y96.17
G0 X78.6 Y96.1
;TYPE:WALL-INNER
G1 F2100 E39.6804
G1 F1800 X87.4 Y96.1 E40.11944
G1 X87.4 Y109.1 E40.76801
G1 X100.6 Y109.1 E41.42656
G1 X100.6 Y96.1 E42.07513
G1 X109.4 Y96.1 E42.51417
G1 X109.4 Y97.9 E42.60397
G1 X102.4 Y97.9 E42.9532
G1 X102.4 Y109.1 E43.51197
G1 X140.6 Y109.1 E45.41778
G1 X140.6 Y77.9 E46.97435
G1 X133.6 Y77.9 E47.32358
G1 X133.6 Y76.1 E47.41338
G1 X142.4 Y76.1 E47.85242
G1 X142.4 Y110.9 E49.5886
G1 X132.4 Y110.9 E50.0875
G1 X132.4 Y143.9 E51.73388
G1 X127.6 Y143.9 E51.97335
G1 X127.6 Y142.1 E52.06315
G1 X130.6 Y142.1 E52.21282
G1 X130.6 Y110.9 E53.7694
G1 X79.4 Y110.9 E56.32377
G1 X79.4 Y140.9 E57.82048
G1 X77.6 Y140.9 E57.91028
G1 X77.6 Y109.1 E59.49679
G1 X85.6 Y109.1 E59.89591
G1 X85.6 Y97.9 E60.45468
G1 X78.6 Y97.9 E60.80391
G1 X78.6 Y96.1 E60.89372
G0 F3600 X78.2 Y95.7
;TYPE:WALL-OUTER
G1 F1800 X87.8 Y95.7 E61.37266
G1 X87.8 Y108.7 E62.02123
G1 X100.2 Y108.7 E62.63987
G1 X100.2 Y95.7 E63.28845
G1 X109.8 Y95.7 E63.76739
G1 X109.8 Y98.3 E63.89711
G1 X102.8 Y98.3 E64.24634
G1 X102.8 Y108.7 E64.7652
G1 X140.2 Y108.7 E66.63109
G1 X140.2 Y78.3 E68.14775
G1 X133.2 Y78.3 E68.49698
G1 X133.2 Y75.7 E68.6267
G1 X142.8 Y75.7 E69.10564
G1 X142.8 Y111.3 E70.88173
G1 X132.8 Y111.3 E71.38064
G1 X132.8 Y144.3 E73.02701
G1 X127.2 Y144.3 E73.3064
G1 X127.2 Y141.7 E73.43611
G1 X130.2 Y141.7 E73.58578
G1 X130.2 Y111.3 E75.10245
G1 X79.8 Y111.3 E77.61691
G1 X79.8 Y141.3 E79.11362
G1 X77.2 Y141.3 E79.24333
G1 X77.2 Y108.7 E80.86975
G1 X85.2 Y108.7 E81.26887
G1 X85.2 Y98.3 E81.78773
G1 X78.2 Y98.3 E82.13696
G1 X78.2 Y95.7 E82.26668
G0 F3600 X78.4 Y95.7
G0 X78.78 Y96.316
;TYPE:SKIN
G1 F1800 X80.183 Y97.719 E82.36567
G0 X80.253 Y97.789
G0 F3600 X80.748 Y97.719
G1 F1800 X79.309 Y96.279 E82.46723
G0 X79.239 Y96.209
G0 F3600 X79.874 Y96.279
G1 F1800 X81.314 Y97.719 E82.56883
G0 X81.384 Y97.789
G0 F3600 X81.88 Y97.719
G1 F1800 X80.44 Y96.279 E82.67043
G0 X80.37 Y96.209
G0 F3600 X81.006 Y96.279
G1 F1800 X82.445 Y97.719 E82.772
G0 X82.515 Y97.789
G0 F3600 X83.011 Y97.719
G1 F1800 X81.571 Y96.279 E82.8736
G0 X81.501 Y96.209
G0 F3600 X82.137 Y96.279
G1 F1800 X83.577 Y97.719 E82.9752
G0 X83.647 Y97.789
G0 F3600 X84.142 Y97.719
G1 F1800 X82.703 Y96.279 E83.07676
G0 X82.633 Y96.209
G0 F3600 X83.268 Y96.279
G1 F1800 X84.708 Y97.719 E83.17836
G0 X84.778 Y97.789
G0 F3600 X85.274 Y97.719
G1 F1800 X83.834 Y96.279 E83.27996
G0 X83.764 Y96.209
G0 F3600 X84.4 Y96.279
G1 F1800 X87.22 Y99.099 E83.47893
G0 X87.29 Y99.169
G0 F3600 X87.22 Y98.533
G1 F1800 X84.965 Y96.279 E83.63799
G0 X84.895 Y96.209
G0 F3600 X85.531 Y96.279
G1 F1800 X87.22 Y97.968 E83.75716
G0 X87.29 Y98.038
G0 F3600 X87.22 Y97.402
G1 F1800 X86.097 Y96.279 E83.8364
G0 X86.027 Y96.209
G0 F3600 X86.663 Y96.279
G1 F1800 X87.22 Y96.836 E83.87569
G0 F3600 X85.779 Y98.224
G1 F1800 X87.22 Y99.665 E83.97737
G0 X87.29 Y99.735
G0 F3600 X87.22 Y100.23
G1 F1800 X85.779 Y98.79 E84.079
G0 X85.709 Y98.72
G0 F3600 X85.779 Y99.356
G1 F1800 X87.22 Y100.796 E84.18064
G0 X87.29 Y100.866
G0 F3600 X87.22 Y101.362
G1 F1800 X85.779 Y99.921 E84.28231
G0 X85.709 Y99.851
G0 F3600 X85.779 Y100.487
G1 F1800 X87.22 Y101.928 E84.38398
G0 X87.29 Y101.998
G0 F3600 X87.22 Y102.493
G1 F1800 X85.779 Y101.053 E84.48561
G0 X85.709 Y100.983
G0 F3600 X85.779 Y101.619
G1 F1800 X87.22 Y103.059 E84.58725
G0 X87.29 Y103.129
G0 F3600 X87.22 Y103.625
G1 F1800 X85.779 Y102.184 E84.68892
G0 X85.709 Y102.114
G0 F3600 X85.779 Y102.75
G1 F1800 X87.22 Y104.19 E84.79055
G0 X87.29 Y104.26
G0 F3600 X87.22 Y104.756
G1 F1800 X85.779 Y103.316 E84.89219
G0 X85.709 Y103.246
G0 F3600 X85.779 Y103.881
G1 F1800 X87.22 Y105.322 E84.99386
G0 X87.29 Y105.392
G0 F3600 X87.22 Y105.887
G1 F1800 X85.779 Y104.447 E85.09549
G0 X85.709 Y104.377
G0 F3600 X85.779 Y105.013
G1 F1800 X87.22 Y106.453 E85.19713
G0 X87.29 Y106.523
G0 F3600 X87.22 Y107.019
G1 F1800 X85.779 Y105.578 E85.2988
G0 X85.709 Y105.508
G0 F3600 X85.779 Y106.144
G1 F1800 X87.22 Y107.584 E85.40043
G0 X87.29 Y107.654
G0 F3600 X87.22 Y108.15
G1 F1800 X85.779 Y106.71 E85.50207
G0 X85.709 Y106.64
G0 F3600 X85.779 Y107.275
G1 F1800 X87.22 Y108.716 E85.60374
G0 X87.29 Y108.786
G0 F3600 X87.783 Y109.279
G1 F1800 X89.222 Y110.718 E85.70527
G0 X89.292 Y110.788
G0 F3600 X88.657 Y110.718
G1 F1800 X85.779 Y107.841 E85.90829
G0 X85.709 Y107.771
G0 F3600 X85.779 Y108.407
G1 F1800 X88.091 Y110.718 E86.07138
G0 X88.161 Y110.788
G0 F3600 X87.525 Y110.718
G1 F1800 X85.779 Y108.972 E86.19457
G0 X85.709 Y108.902
G0 F3600 X85.521 Y109.279
G1 F1800 X86.959 Y110.718 E86.29606
G0 X87.029 Y110.788
G0 F3600 X86.394 Y110.718
G1 F1800 X84.955 Y109.279 E86.39759
G0 X84.885 Y109.209
G0 F3600 X84.389 Y109.279
G1 F1800 X85.828 Y110.718 E86.49912
G0 X85.898 Y110.788
G0 F3600 X85.262 Y110.718
G1 F1800 X83.823 Y109.279 E86.60065
G0 X83.753 Y109.209
G0 F3600 X83.258 Y109.279
G1 F1800 X84.697 Y110.718 E86.70218
G0 X84.767 Y110.788
G0 F3600 X84.131 Y110.718
G1 F1800 X82.692 Y109.279 E86.80371
G0 X82.622 Y109.209
G0 F3600 X82.126 Y109.279
G1 F1800 X83.565 Y110.718 E86.90524
G0 X83.635 Y110.788
G0 F3600 X83 Y110.718
G1 F1800 X81.561 Y109.279 E87.00677
G0 X81.491 Y109.209
G0 F3600 X80.995 Y109.279
G1 F1800 X82.434 Y110.718 E87.1083
G0 X82.504 Y110.788
G0 F3600 X81.868 Y110.718
G1 F1800 X80.429 Y109.279 E87.20983
G0 X80.359 Y109.209
G0 F3600 X79.864 Y109.279
G1 F1800 X81.303 Y110.718 E87.31135
G0 X81.373 Y110.788
G0 F3600 X80.737 Y110.718
G1 F1800 X79.298 Y109.279 E87.41288
G0 X79.228 Y109.209
G0 F3600 X78.732 Y109.279
G1 F1800 X80.171 Y110.718 E87.51441
G0 X80.241 Y110.788
G0 F3600 X79.606 Y110.718
G1 F1800 X78.167 Y109.279 E87.61594
G0 X78.097 Y109.209
G0 F3600 X77.779 Y109.458
G1 F1800 X79.22 Y110.898 E87.71758
G0 X79.29 Y110.968
G0 F3600 X79.22 Y111.464
G1 F1800 X77.779 Y110.023 E87.81925
G0 X77.709 Y109.953
G0 F3600 X77.779 Y110.589
G1 F1800 X79.22 Y112.029 E87.92088
G0 X79.29 Y112.099
G0 F3600 X79.22 Y112.595
G1 F1800 X77.779 Y111.155 E88.02252
G0 X77.709 Y111.085
G0 F3600 X77.779 Y111.72
G1 F1800 X79.22 Y113.161 E88.12419
G0 X79.29 Y113.231
G0 F3600 X79.22 Y113.726
G1 F1800 X77.779 Y112.286 E88.22582
G0 X77.709 Y112.216
G0 F3600 X77.779 Y112.852
G1 F1800 X79.22 Y114.292 E88.32746
G0 X79.29 Y114.362
G0 F3600 X79.22 Y114.858
G1 F1800 X77.779 Y113.417 E88.42913
G0 X77.709 Y113.347
G0 F3600 X77.779 Y113.983
G1 F1800 X79.22 Y115.423 E88.53076
G0 X79.29 Y115.493
G0 F3600 X79.22 Y115.989
G1 F1800 X77.779 Y114.549 E88.6324
G0 X77.709 Y114.479
G0 F3600 X77.779 Y115.114
G1 F1800 X79.22 Y116.555 E88.73407
G0 X79.29 Y116.625
G0 F3600 X79.22 Y117.12
G1 F1800 X77.779 Y115.68 E88.8357
G0 X77.709 Y115.61
G0 F3600 X77.779 Y116.246
G1 F1800 X79.22 Y117.686 E88.93734
G0 X79.29 Y117.756
G0 F3600 X79.22 Y118.252
G1 F1800 X77.779 Y116.811 E89.03901
G0 X77.709 Y116.741
G0 F3600 X77.779 Y117.377
G1 F1800 X79.22 Y118.817 E89.14064
G0 X79.29 Y118.887
G0 F3600 X79.22 Y119.383
G1 F1800 X77.779 Y117.943 E89.24228
G0 X77.709 Y117.873
G0 F3600 X77.779 Y118.508
G1 F1800 X79.22 Y119.949 E89.34395
G0 X79.29 Y120.019
G0 F3600 X79.22 Y120.515
G1 F1800 X77.779 Y119.074 E89.44562
G0 X77.709 Y119.004
G0 F3600 X77.779 Y119.64
G1 F1800 X79.22 Y121.08 E89.54726
G0 X79.29 Y121.15
G0 F3600 X79.22 Y121.646
G1 F1800 X77.779 Y120.206 E89.64889
G0 X77.709 Y120.136
G0 F3600 X77.779 Y120.771
G1 F1800 X79.22 Y122.212 E89.75056
G0 X79.29 Y122.282
G0 F3600 X79.22 Y122.777
G1 F1800 X77.779 Y121.337 E89.8522
G0 X77.709 Y121.267
G0 F3600 X77.779 Y121.903
