;FLAVOR:RepRap
;TIME:2880
;Filament used: 1.96079m
;Layer height: 0.2
;Generated with Cura_SteamEngine 2.4.0
M190 S60
M104 S192
M109 S192
G21 ;metric values
G90 ;absolute positioning
M82 ;set extruder to absolute mode
M107 ;start with the fan off
G28 X0 Y0 ;move X/Y to min endstops
G28 Z0 ;move Z to min endstops
G1 Z15.0 F9000 ;move the platform down 15mm
G92 E0 ;zero the extruded length
G1 F200 E3 ;extrude 3mm of feed stock
G92 E0 ;zero the extruded length again
G1 F9000;Put printing message on LCD screen
M117 Printing...
;LAYER_COUNT:168
;LAYER:0
M107
G1 F2100 E-3
G0 F3600 X80.579 Y81.561 Z0.3
;TYPE:SKIRT
G1 F2100 E0
G1 F1800 X80.994 Y81.177 E0.02821
G1 X81.458 Y80.855 E0.05639
G1 X81.964 Y80.601 E0.08463
G1 X82.36 Y80.461 E0.10559
G1 X82.959 Y80.283 E0.13676
G1 X83.511 Y80.16 E0.16498
G1 X84.094 Y80.117 E0.19414
G1 X90.344 Y80.111 E0.50596
G1 X91.004 Y80.165 E0.53899
G1 X94.365 Y80.724 E0.70898
G1 X99.787 Y81.414 E0.98166
G1 X105.193 Y81.794 E1.25204
G1 X110.64 Y81.868 E1.52381
G1 X116.05 Y81.635 E1.79397
G1 X121.444 Y81.096 E2.06442
G1 X128.598 Y79.912 E2.42619
G1 X129.252 Y79.858 E2.45893
G1 X135.345 Y79.859 E2.76291
G1 X135.708 Y79.876 E2.78104
G1 X136.834 Y79.979 E2.83745
G1 X137.392 Y80.07 E2.86565
G1 X137.932 Y80.239 E2.89388
G1 X138.44 Y80.481 E2.92196
G1 X138.622 Y80.584 E2.93239
G1 X139.093 Y80.896 E2.96058
G1 X139.516 Y81.272 E2.98881
G1 X139.881 Y81.704 E3.01703
G1 X140.181 Y82.183 E3.04522
G1 X140.411 Y82.699 E3.07341
G1 X140.567 Y83.243 E3.10164
G1 X140.65 Y83.943 E3.13681
G1 X140.707 Y85.806 E3.2298
G1 X140.708 Y86.011 E3.24003
G1 X140.654 Y88.61 E3.36972
G1 X140.622 Y89.038 E3.39113
G1 X140.272 Y91.753 E3.52771
G1 X140.209 Y92.113 E3.54594
G1 X139.811 Y93.898 E3.63718
G1 X139.735 Y94.187 E3.65209
G1 X139.131 Y96.181 E3.75603
G1 X139.013 Y96.516 E3.77375
G1 X138.024 Y98.97 E3.90575
G1 X137.855 Y99.335 E3.92582
G1 X136.561 Y101.798 E4.06463
G1 X136.32 Y102.199 E4.08797
G1 X134.358 Y105.063 E4.26117
G1 X134.076 Y105.427 E4.28414
G1 X132.291 Y107.479 E4.41983
G1 X132.021 Y107.761 E4.4393
G1 X126.108 Y113.351 E4.84526
G1 X122.369 Y117.306 E5.1168
G1 X118.835 Y121.497 E5.3903
G1 X117.439 Y123.29 E5.50367
G1 X117.062 Y123.71 E5.53183
G1 X116.628 Y124.073 E5.56005
G1 X116.277 Y124.3 E5.58091
G1 X116.004 Y124.457 E5.59662
G1 X115.495 Y124.704 E5.62485
G1 X114.957 Y124.876 E5.65303
G1 X114.4 Y124.971 E5.68122
G1 X114.012 Y124.99 E5.7006
G1 X97.012 Y124.999 E6.54873
G1 X96.448 Y124.959 E6.57694
G1 X95.895 Y124.841 E6.60515
G1 X95.365 Y124.645 E6.63334
G1 X94.906 Y124.401 E6.65928
G1 X94.581 Y124.2 E6.67834
G1 X94.122 Y123.869 E6.70657
G1 X93.715 Y123.477 E6.73476
G1 X93.367 Y123.032 E6.76295
G1 X93.085 Y122.542 E6.79115
G1 X92.936 Y122.193 E6.81009
G1 X90.652 Y116.055 E7.13683
G1 X88.463 Y111.086 E7.40772
G1 X85.991 Y106.234 E7.67939
G1 X82.728 Y100.531 E8.0072
G1 X82.595 Y100.277 E8.0215
G1 X81.966 Y98.968 E8.09396
G1 X81.856 Y98.719 E8.10754
G1 X80.941 Y96.427 E8.23066
G1 X80.802 Y96.016 E8.25231
G1 X79.959 Y92.987 E8.40917
G1 X79.866 Y92.566 E8.43068
G1 X79.467 Y90.146 E8.55304
G1 X79.433 Y89.882 E8.56632
G1 X79.315 Y88.669 E8.62712
G1 X79.298 Y88.409 E8.64012
G1 X79.219 Y85.915 E8.76461
G1 X79.241 Y85.35 E8.79282
G1 X79.286 Y85.046 E8.80815
G1 X79.568 Y83.553 E8.88396
G1 X79.712 Y83.006 E8.91217
G1 X79.932 Y82.485 E8.94039
G1 X80.223 Y82 E8.96861
G1 X80.579 Y81.561 E8.99681
G0 F3600 X80.948 Y81.755
G1 F1800 X81.353 Y81.404 E9.02354
G1 X81.806 Y81.118 E9.05027
G1 X82.474 Y80.844 E9.08629
G1 X83.073 Y80.666 E9.11747
G1 X83.597 Y80.552 E9.14422
G1 X84.095 Y80.517 E9.16913
G1 X90.345 Y80.511 E9.48094
G1 X90.939 Y80.56 E9.51068
G1 X94.305 Y81.12 E9.68092
G1 X99.743 Y81.812 E9.95441
G1 X105.177 Y82.194 E10.22618
G1 X110.633 Y82.268 E10.49841
G1 X116.09 Y82.033 E10.77091
G1 X121.486 Y81.493 E11.04146
G1 X128.663 Y80.306 E11.40439
G1 X129.252 Y80.258 E11.43387
G1 X135.345 Y80.259 E11.73785
G1 X135.672 Y80.274 E11.75418
G1 X136.798 Y80.377 E11.81059
G1 X137.327 Y80.465 E11.83735
G1 X137.837 Y80.632 E11.86412
G1 X138.243 Y80.829 E11.88664
G1 X138.425 Y80.932 E11.89707
G1 X138.871 Y81.23 E11.92383
G1 X139.267 Y81.591 E11.95056
G1 X139.606 Y82.007 E11.97734
G1 X139.879 Y82.469 E12.00411
G1 X140.08 Y82.966 E12.03086
G1 X140.205 Y83.487 E12.05759
G1 X140.25 Y83.955 E12.08104
G1 X140.307 Y85.818 E12.17403
G1 X140.308 Y86.003 E12.18326
G1 X140.254 Y88.602 E12.31295
G1 X140.225 Y88.987 E12.33222
G1 X139.875 Y91.702 E12.46879
G1 X139.819 Y92.025 E12.48514
G1 X139.421 Y93.81 E12.57638
G1 X139.352 Y94.071 E12.58985
G1 X138.748 Y96.065 E12.6938
G1 X138.642 Y96.367 E12.70977
G1 X137.653 Y98.821 E12.84177
G1 X137.501 Y99.149 E12.8598
G1 X136.207 Y101.612 E12.99861
G1 X135.99 Y101.973 E13.01962
G1 X134.028 Y104.837 E13.19282
G1 X133.774 Y105.165 E13.21352
G1 X131.989 Y107.217 E13.3492
G1 X131.746 Y107.47 E13.36671
G1 X125.824 Y113.068 E13.77326
G1 X122.071 Y117.037 E14.04579
G1 X118.533 Y121.234 E14.31965
G1 X117.124 Y123.044 E14.43408
G1 X116.764 Y123.442 E14.46086
G1 X116.349 Y123.781 E14.48759
G1 X116.078 Y123.954 E14.50363
G1 X115.805 Y124.111 E14.51934
G1 X115.321 Y124.343 E14.54612
G1 X114.809 Y124.5 E14.57284
G1 X114.012 Y124.59 E14.61285
G1 X97.012 Y124.599 E15.46099
G1 X96.477 Y124.559 E15.48775
G1 X95.954 Y124.441 E15.5145
G1 X95.455 Y124.246 E15.54123
G1 X95.116 Y124.061 E15.5605
G1 X94.791 Y123.86 E15.57956
G1 X94.358 Y123.544 E15.60631
G1 X93.975 Y123.168 E15.63308
G1 X93.653 Y122.739 E15.65984
G1 X93.311 Y122.053 E15.69809
G1 X91.026 Y115.911 E16.02503
G1 X88.822 Y110.907 E16.29782
G1 X86.35 Y106.058 E16.56936
G1 X83.075 Y100.333 E16.89842
G1 X82.955 Y100.104 E16.91132
G1 X82.326 Y98.795 E16.98377
G1 X82.228 Y98.571 E16.99597
G1 X81.313 Y96.279 E17.11909
G1 X81.188 Y95.909 E17.13858
G1 X80.345 Y92.88 E17.29544
G1 X80.261 Y92.501 E17.3148
G1 X79.862 Y90.081 E17.43717
G1 X79.831 Y89.844 E17.44909
G1 X79.713 Y88.631 E17.5099
G1 X79.698 Y88.396 E17.52164
G1 X79.619 Y85.902 E17.64613
G1 X79.68 Y85.12 E17.68527
G1 X79.962 Y83.627 E17.76107
G1 X80.1 Y83.109 E17.78781
G1 X80.314 Y82.617 E17.81458
G1 X80.599 Y82.162 E17.84137
G1 X80.948 Y81.755 E17.86811
G0 F3600 X81.314 Y81.957
G1 F1800 X81.71 Y81.642 E17.89336
G1 X82.15 Y81.393 E17.91858
G1 X82.587 Y81.228 E17.94189
G1 X83.186 Y81.05 E17.97306
G1 X83.681 Y80.944 E17.99832
G1 X84.095 Y80.917 E18.01902
G1 X90.345 Y80.911 E18.33083
G1 X90.873 Y80.954 E18.35726
G1 X94.264 Y81.518 E18.52876
G1 X99.701 Y82.21 E18.8022
G1 X105.161 Y82.594 E19.07528
G1 X110.646 Y82.668 E19.34895
G1 X116.111 Y82.433 E19.62185
G1 X121.546 Y81.889 E19.89436
G1 X128.729 Y80.701 E20.25759
G1 X129.252 Y80.658 E20.28377
G1 X135.345 Y80.659 E20.58775
G1 X135.636 Y80.672 E20.60228
G1 X136.762 Y80.775 E20.65869
G1 X137.26 Y80.861 E20.68391
G1 X137.738 Y81.024 E20.7091
G1 X138.046 Y81.177 E20.72626
G1 X138.228 Y81.28 E20.73669
G1 X138.647 Y81.563 E20.76192
G1 X139.016 Y81.908 E20.78712
G1 X139.326 Y82.308 E20.81237
G1 X139.57 Y82.751 E20.8376
G1 X139.74 Y83.227 E20.86282
G1 X139.851 Y83.967 E20.90015
G1 X139.908 Y85.83 E20.99314
G1 X139.908 Y85.994 E21.00132
G1 X139.854 Y88.593 E21.13101
G1 X139.829 Y88.936 E21.14817
G1 X139.479 Y91.651 E21.28474
G1 X139.428 Y91.938 E21.29929
G1 X139.03 Y93.723 E21.39053
G1 X138.97 Y93.955 E21.40248
G1 X138.366 Y95.949 E21.50643
G1 X138.271 Y96.217 E21.52061
G1 X137.282 Y98.671 E21.65261
G1 X137.147 Y98.963 E21.66866
G1 X135.853 Y101.426 E21.80747
G1 X135.66 Y101.747 E21.82615
G1 X133.698 Y104.611 E21.99935
G1 X133.472 Y104.902 E22.01773
G1 X131.687 Y106.954 E22.15342
G1 X131.471 Y107.179 E22.16898
G1 X125.541 Y112.784 E22.57607
G1 X121.774 Y116.769 E22.84965
G1 X118.228 Y120.974 E23.12408
G1 X116.808 Y122.799 E23.23944
G1 X116.467 Y123.172 E23.26466
G1 X115.878 Y123.607 E23.30119
G1 X115.605 Y123.764 E23.3169
G1 X115.148 Y123.981 E23.34214
G1 X114.663 Y124.123 E23.36735
G1 X114.012 Y124.19 E23.4
G1 X97.012 Y124.199 E24.24813
G1 X96.508 Y124.159 E24.27336
G1 X96.016 Y124.041 E24.2986
G1 X95.55 Y123.846 E24.3238
G1 X95.327 Y123.721 E24.33656
G1 X95.002 Y123.52 E24.35562
G1 X94.594 Y123.221 E24.38086
G1 X94.239 Y122.861 E24.40608
G1 X93.944 Y122.45 E24.43132
G1 X93.686 Y121.914 E24.461
G1 X91.392 Y115.748 E24.78922
G1 X89.191 Y110.751 E25.06163
G1 X86.7 Y105.864 E25.33529
G1 X83.422 Y100.134 E25.66464
G1 X83.316 Y99.931 E25.67606
G1 X82.687 Y98.622 E25.74852
G1 X82.599 Y98.422 E25.75942
G1 X81.684 Y96.13 E25.88254
G1 X81.573 Y95.802 E25.89982
G1 X80.73 Y92.773 E26.05668
G1 X80.656 Y92.436 E26.07389
G1 X80.257 Y90.016 E26.19626
G1 X80.229 Y89.805 E26.20688
G1 X80.111 Y88.592 E26.26768
G1 X80.098 Y88.383 E26.27813
G1 X80.019 Y85.889 E26.40261
G1 X80.073 Y85.194 E26.43739
G1 X80.355 Y83.701 E26.5132
G1 X80.487 Y83.213 E26.53842
G1 X80.695 Y82.752 E26.56365
G1 X80.973 Y82.33 E26.58886
G1 X81.314 Y81.957 E26.61407
G1 F2100 E23.61407
G0 F3600 X83.656 Y83.545
G0 X84.02 Y84.774
G0 X84.024 Y85.28
G0 X83.926 Y85.263
;TYPE:WALL-INNER
G1 F2100 E26.61407
G1 F1800 X84.005 Y84.761 E26.63943
G1 X84.199 Y84.703 E26.64953
G1 X87.242 Y84.703 E26.80135
G1 X87.485 Y84.703 E26.81347
G1 X87.858 Y84.703 E26.83208
G1 X88.178 Y84.702 E26.84804
G0 X87.859 Y84.818
G1 X87.485 Y84.971 E26.85652
G1 X87.276 Y85.093 E26.86666
G1 X87.101 Y85.196 E26.87679
G1 X86.656 Y85.6 E26.90678
G1 X86.395 Y86.26 E26.94219
G1 X86.623 Y86.898 E26.97599
G1 X87.132 Y87.373 E27.01072
G1 X87.886 Y87.751 E27.0528
G1 X88.423 Y87.933 E27.08109
G1 X88.632 Y87.981 E27.09179
G1 X89.331 Y88.173 E27.12795
G1 X90.413 Y88.306 E27.18234
G1 X90.731 Y88.334 E27.19827
G1 X91.035 Y90.258 E27.29545
G1 X90.29 Y90.612 E27.3366
G1 X89.378 Y91.093 E27.38804
G1 X88.952 Y91.366 E27.41328
G1 X88.492 Y91.731 E27.44258
G1 X88.185 Y91.99 E27.46262
G1 X87.889 Y92.325 E27.48492
G1 X87.59 Y92.845 E27.51485
G1 X87.548 Y93.555 E27.55033
G1 X87.96 Y94.091 E27.58406
G1 X88.591 Y94.384 E27.61877
G1 X89.424 Y94.513 E27.66082
G1 X89.992 Y94.519 E27.68916
G1 X90.203 Y94.5 E27.69973
G1 X90.93 Y94.465 E27.73604
G1 X91.999 Y94.259 E27.79036
G1 X92.315 Y94.188 E27.80651
G0 X92.312 Y94.188
G1 X93.197 Y95.922 E27.90364
G1 X92.597 Y96.49 E27.94486
G1 X91.934 Y97.171 E27.99228
G1 X91.558 Y97.618 E28.02142
G1 X91.232 Y98.109 E28.05082
G1 X91.021 Y98.45 E28.07083
G1 X90.841 Y98.859 E28.09312
G1 X90.721 Y99.448 E28.12311
G1 X90.896 Y100.136 E28.15853
G1 X91.455 Y100.517 E28.19228
G1 X92.146 Y100.601 E28.22701
G1 X92.977 Y100.465 E28.26902
G1 X93.518 Y100.297 E28.29728
G1 X93.728 Y100.209 E28.30864
G1 X94.395 Y99.956 E28.34423
G1 X95.349 Y99.429 E28.3986
G1 X95.623 Y99.266 E28.41451
G1 X97.001 Y100.641 E28.51163
G1 X96.606 Y101.367 E28.55286
G1 X96.152 Y102.29 E28.60418
G1 X95.966 Y102.763 E28.62954
G1 X95.809 Y103.328 E28.65879
G1 X95.712 Y103.718 E28.67884
G1 X95.669 Y104.163 E28.70115
G1 X95.734 Y104.76 E28.73111
G1 X96.114 Y105.36 E28.76654
G1 X96.772 Y105.552 E28.80074
G1 X97.078 Y105.485 E28.81637
G1 X97.444 Y105.419 E28.83492
G1 X98.197 Y105.03 E28.8772
G1 X98.66 Y104.703 E28.90548
G1 X98.821 Y104.563 E28.91613
G1 X99.388 Y104.107 E28.95243
G1 X100.132 Y103.311 E29.00679
G1 X100.331 Y103.082 E29.02192
G1 X100.969 Y103.451 E29.05869
G1 X102.063 Y104.006 E29.1199
G1 X101.932 Y104.726 E29.15641
G1 X101.802 Y105.334 E29.18743
G1 X101.768 Y106.065 E29.22393
G1 X101.749 Y106.275 E29.23445
G1 X101.755 Y106.843 E29.26279
G1 X101.884 Y107.677 E29.3049
G1 X102.178 Y108.308 E29.33963
G1 X102.639 Y108.663 E29.36866
G1 X102.956 Y108.736 E29.38488
G1 X103.505 Y108.638 E29.41271
G1 X103.884 Y108.425 E29.4344
G1 X104.47 Y107.879 E29.47436
G1 X104.903 Y107.313 E29.50991
G1 X105.139 Y106.948 E29.53159
G1 X105.741 Y105.826 E29.59512
G1 X106.007 Y105.232 E29.62759
G1 X107.93 Y105.534 E29.7247
G1 X108.225 Y107.43 E29.82043
G1 X108.338 Y107.859 E29.84257
G1 X108.576 Y108.53 E29.87809
G1 X108.966 Y109.23 E29.91807
G1 X109.261 Y109.55 E29.93978
G1 X109.75 Y109.813 E29.96748
G1 X110.077 Y109.84 E29.98385
G1 X110.622 Y109.645 E30.01273
G1 X111.097 Y109.136 E30.04746
G1 X111.476 Y108.381 E30.08961
G1 X111.658 Y107.845 E30.11785
G1 X111.705 Y107.64 E30.12834
G1 X111.897 Y106.937 E30.1647
G1 X112.031 Y105.858 E30.21894
G1 X112.06 Y105.552 E30.23428
G1 X113.983 Y105.233 E30.33153
G1 X114.337 Y105.977 E30.37263
G1 X114.818 Y106.888 E30.42403
G1 X115.091 Y107.315 E30.44932
G1 X115.455 Y107.776 E30.47862
G1 X115.715 Y108.083 E30.49869
G1 X116.049 Y108.379 E30.52096
G1 X116.569 Y108.676 E30.55083
G1 X117.281 Y108.721 E30.58643
G1 X117.815 Y108.307 E30.62014
G1 X118.108 Y107.677 E30.6548
G1 X118.237 Y106.843 E30.6969
G1 X118.243 Y106.278 E30.72509
G1 X118.225 Y106.051 E30.73645
G1 X118.19 Y105.338 E30.77207
G1 X117.983 Y104.268 E30.82644
G1 X117.912 Y103.956 E30.8424
G1 X119.646 Y103.07 E30.93955
G1 X120.999 Y104.428 E31.03519
G1 X121.342 Y104.711 E31.05737
G1 X121.93 Y105.114 E31.09294
G1 X122.654 Y105.451 E31.13278
G1 X123.082 Y105.537 E31.15456
G1 X123.635 Y105.462 E31.1824
G1 X123.914 Y105.294 E31.19865
G1 X124.242 Y104.814 E31.22765
G1 X124.326 Y104.122 E31.26243
G1 X124.19 Y103.291 E31.30444
G1 X124.021 Y102.749 E31.33277
G1 X123.93 Y102.532 E31.34451
G1 X123.681 Y101.873 E31.37965
G1 X123.154 Y100.921 E31.43394
G1 X122.997 Y100.652 E31.44948
G1 X124.366 Y99.267 E31.54664
G1 X125.091 Y99.662 E31.58783
G1 X126.015 Y100.116 E31.63919
G1 X126.488 Y100.302 E31.66455
G1 X127.054 Y100.46 E31.69386
G1 X127.444 Y100.555 E31.71389
G1 X127.887 Y100.598 E31.73609
G1 X128.484 Y100.534 E31.76605
G1 X129.083 Y100.154 E31.80144
G1 X129.274 Y99.504 E31.83524
G1 X129.141 Y98.819 E31.87005
G1 X128.754 Y98.071 E31.91207
G1 X128.428 Y97.609 E31.94028
G1 X128.283 Y97.441 E31.95135
G1 X127.832 Y96.88 E31.98726
G1 X127.036 Y96.136 E32.04162
G1 X126.796 Y95.925 E32.05756
G1 X127.678 Y94.19 E32.15467
G1 X128.49 Y94.341 E32.19587
G1 X129.509 Y94.488 E32.24724
G1 X130.015 Y94.52 E32.27253
G1 X130.605 Y94.494 E32.30199
G1 X131.004 Y94.464 E32.32196
G1 X131.439 Y94.369 E32.34417
G1 X131.986 Y94.121 E32.37413
G1 X132.439 Y93.576 E32.40949
G1 X132.419 Y92.895 E32.44348
G1 X132.081 Y92.29 E32.47806
G1 X131.483 Y91.696 E32.52011
G1 X131.027 Y91.357 E32.54845
G1 X130.825 Y91.236 E32.5602
G1 X130.238 Y90.849 E32.59528
G1 X129.252 Y90.389 E32.64956
G1 X128.957 Y90.261 E32.6656
G1 X129.259 Y88.338 E32.76272
G1 X130.079 Y88.232 E32.80397
G1 X131.015 Y88.07 E32.85136
G1 X131.581 Y87.93 E32.88045
G1 X132.135 Y87.723 E32.90996
G1 X132.506 Y87.572 E32.92994
G1 X132.892 Y87.347 E32.95223
G1 X133.337 Y86.941 E32.98228
G1 X133.596 Y86.282 E33.01761
G1 X133.37 Y85.644 E33.05138
G1 X132.859 Y85.17 E33.08615
G1 X132.218 Y84.847 E33.12196
G1 X132.106 Y84.791 E33.12821
G1 X131.57 Y84.609 E33.15645
G1 X131.359 Y84.56 E33.16725
G1 X130.953 Y84.449 E33.18825
G1 X131.359 Y84.449 E33.19091
G0 X131.57 Y84.45
G1 X132.106 Y84.451 E33.20835
G1 X132.232 Y84.451 E33.21418
G1 X135.989 Y84.46 E33.40162
G1 X136.107 Y84.485 E33.40764
G1 X136.116 Y84.573 E33.41205
G1 X136.125 Y85 E33.43336
G1 X136.071 Y88.138 E33.58994
G1 X136.033 Y89.073 E33.63662
G1 X135.845 Y90.455 E33.70621
G1 X135.533 Y92.079 E33.78871
G1 X135.178 Y93.453 E33.85951
G1 X134.681 Y95.021 E33.94157
G1 X134.169 Y96.339 E34.01212
G1 X133.483 Y97.857 E34.09522
G1 X132.819 Y99.107 E34.16584
G1 X131.974 Y100.516 E34.24781
G1 X131.166 Y101.681 E34.31854
G1 X130.153 Y102.992 E34.4012
G1 X129.208 Y104.061 E34.47238
G1 X128.051 Y105.244 E34.55494
G1 X126.989 Y106.191 E34.62592
G1 X125.713 Y107.221 E34.70774
G1 X124.532 Y108.047 E34.77964
G1 X123.152 Y108.918 E34.86105
G1 X121.902 Y109.59 E34.93186
G1 X120.421 Y110.297 E35.01373
G1 X119.092 Y110.822 E35.08502
G1 X117.527 Y111.354 E35.16749
G1 X116.152 Y111.718 E35.23845
G1 X114.795 Y112.03 E35.30792
G1 X114.602 Y112.141 E35.31902
G1 X114.216 Y112.303 E35.33991
G1 X113.973 Y112.827 E35.36873
G1 X113.993 Y112.951 E35.37499
G1 X113.97 Y113.123 E35.38365
G1 X113.965 Y118.08 E35.63096
G1 X113.983 Y119.614 E35.70749
G1 X113.829 Y120.408 E35.74784
G1 X97.165 Y120.409 E36.57921
G1 X97.038 Y119.8 E36.61025
G1 X97.01 Y119.621 E36.61929
G1 X97.026 Y115.302 E36.83477
G1 X97.027 Y112.239 E36.98758
G1 X96.996 Y111.979 E37.00064
G1 X96.997 Y109.581 E37.12028
G1 X96.945 Y109.168 E37.14105
G1 X96.671 Y108.848 E37.16207
