;FLAVOR:RepRap
;TIME:3556
;Filament used: 2.98839m
;Layer height: 0.2
;Generated with Cura_SteamEngine 2.4.0
M190 S60
M104 S192
M109 S192
G21 ;metric values
G90 ;absolute positioning
M82 ;set extruder to absolute mode
M107 ;start with the fan off
G28 X0 Y0 ;move X/Y to min endstops
G28 Z0 ;move Z to min endstops
G1 Z15.0 F9000 ;move the platform down 15mm
G92 E0 ;zero the extruded length
G1 F200 E3 ;extrude 3mm of feed stock
G92 E0 ;zero the extruded length again
G1 F9000;Put printing message on LCD screen
M117 Printing...
;LAYER_COUNT:260
;LAYER:0
M107
G1 F2100 E-3
G0 F3600 X87.091 Y75.725 Z0.3
G0 X86.779 Y76.196
;TYPE:SKIRT
G1 F2100 E0
G1 F1800 X87.091 Y75.725 E0.02819
G1 X87.669 Y75.117 E0.07004
G1 X88.436 Y74.464 E0.12029
G1 X88.891 Y74.129 E0.14848
G1 X89.625 Y73.764 E0.18938
G1 X90.551 Y73.417 E0.23872
G1 X91.093 Y73.257 E0.26691
G1 X91.929 Y73.163 E0.30888
G1 X96.733 Y73.132 E0.54856
G1 X97.537 Y73.208 E0.58885
G1 X98.137 Y73.327 E0.61937
G1 X98.683 Y73.476 E0.6476
G1 X99.272 Y73.738 E0.67976
G1 X104.945 Y76.828 E1.00205
G1 X109.856 Y79.203 E1.27421
G1 X114.924 Y81.312 E1.54807
G1 X117.382 Y82.212 E1.67867
G1 X122.625 Y83.888 E1.95328
G1 X127.55 Y85.286 E2.2087
G1 X128.081 Y85.479 E2.23688
G1 X128.669 Y85.801 E2.27033
G1 X129.653 Y86.454 E2.32925
G1 X130.101 Y86.799 E2.35746
G1 X130.416 Y87.113 E2.37965
G1 X131.26 Y88.052 E2.44264
G1 X131.607 Y88.498 E2.47083
G1 X131.797 Y88.811 E2.4891
G1 X132.213 Y89.574 E2.53245
G1 X132.473 Y90.157 E2.5643
G1 X132.769 Y90.995 E2.60864
G1 X132.919 Y91.54 E2.63684
G1 X132.966 Y91.829 E2.65145
G1 X133.098 Y92.881 E2.70434
G1 X133.129 Y93.38 E2.72929
G1 X133.117 Y126.894 E4.40131
G1 X133.077 Y127.458 E4.42952
G1 X133.016 Y127.784 E4.44606
G1 X132.721 Y129.075 E4.51213
G1 X132.557 Y129.616 E4.54034
G1 X132.387 Y129.998 E4.5612
G1 X131.878 Y130.998 E4.61718
G1 X131.586 Y131.483 E4.64542
G1 X131.327 Y131.814 E4.66639
G1 X130.39 Y132.888 E4.7375
G1 X129.989 Y133.286 E4.76568
G1 X129.626 Y133.565 E4.78852
G1 X128.885 Y134.069 E4.83323
G1 X128.198 Y134.444 E4.87228
G1 X125.793 Y135.465 E5.00263
G1 X120.823 Y137.8 E5.27659
G1 X118.475 Y139.027 E5.40876
G1 X113.708 Y141.752 E5.6827
G1 X113.199 Y141.997 E5.71089
G1 X112.918 Y142.096 E5.72575
G1 X106.6 Y144.074 E6.05604
G1 X99.868 Y146.627 E6.41524
G1 X99.327 Y146.79 E6.44343
G1 X98.768 Y146.874 E6.47164
G1 X98.451 Y146.887 E6.48746
G1 X90.538 Y146.889 E6.88225
G1 X89.974 Y146.849 E6.91045
G1 X89.421 Y146.73 E6.93867
G1 X88.891 Y146.535 E6.96685
G1 X88.393 Y146.266 E6.99509
G1 X87.755 Y145.763 E7.03562
G1 X87.289 Y145.312 E7.06797
G1 X87.199 Y145.222 E7.07432
G1 X86.728 Y144.736 E7.10809
G1 X86.364 Y144.303 E7.13631
G1 X86.065 Y143.823 E7.16452
G1 X85.836 Y143.306 E7.19273
G1 X85.683 Y142.762 E7.22093
G1 X85.6 Y141.952 E7.26155
G1 X85.601 Y80.008 E10.35195
G1 X85.658 Y79.338 E10.3855
G1 X85.822 Y78.373 E10.43433
G1 X85.955 Y77.824 E10.46251
G1 X86.282 Y77.076 E10.50324
G1 X86.779 Y76.196 E10.55366
G0 F3600 X87.127 Y76.393
G1 F1800 X87.425 Y75.947 E10.58042
G1 X87.928 Y75.422 E10.6167
G1 X88.695 Y74.769 E10.66695
G1 X89.128 Y74.453 E10.6937
G1 X89.766 Y74.139 E10.72917
G1 X90.692 Y73.792 E10.77851
G1 X91.207 Y73.642 E10.80527
G1 X91.932 Y73.563 E10.84165
G1 X96.736 Y73.532 E11.08133
G1 X97.459 Y73.601 E11.11756
G1 X98.059 Y73.72 E11.14808
G1 X98.576 Y73.863 E11.17484
G1 X99.081 Y74.089 E11.20245
G1 X104.767 Y77.186 E11.52547
G1 X109.692 Y79.568 E11.79841
G1 X114.766 Y81.679 E12.07259
G1 X117.271 Y82.596 E12.20567
G1 X122.519 Y84.274 E12.48055
G1 X127.44 Y85.671 E12.73577
G1 X127.944 Y85.855 E12.76253
G1 X128.448 Y86.134 E12.79127
G1 X129.432 Y86.787 E12.85019
G1 X129.855 Y87.116 E12.87693
G1 X130.118 Y87.38 E12.89552
G1 X130.962 Y88.319 E12.95851
G1 X131.29 Y88.744 E12.98529
G1 X131.446 Y89.003 E13.00038
G1 X131.862 Y89.766 E13.04373
G1 X132.095 Y90.29 E13.07234
G1 X132.391 Y91.128 E13.11668
G1 X132.569 Y91.879 E13.15519
G1 X132.701 Y92.931 E13.20808
G1 X132.729 Y93.38 E13.23053
G1 X132.717 Y126.894 E14.90255
G1 X132.677 Y127.429 E14.92931
G1 X132.627 Y127.695 E14.94282
G1 X132.332 Y128.986 E15.00889
G1 X132.173 Y129.498 E15.03563
G1 X132.03 Y129.817 E15.05307
G1 X131.521 Y130.817 E15.10906
G1 X131.243 Y131.276 E15.13583
G1 X131.026 Y131.551 E15.1533
G1 X130.089 Y132.625 E15.22441
G1 X129.707 Y133.001 E15.25115
G1 X129.401 Y133.235 E15.27037
G1 X128.66 Y133.739 E15.31508
G1 X128.042 Y134.076 E15.3502
G1 X125.624 Y135.103 E15.48126
G1 X120.656 Y137.437 E15.75511
G1 X118.261 Y138.688 E15.88991
G1 X113.51 Y141.404 E16.16294
G1 X112.799 Y141.715 E16.20166
G1 X106.455 Y143.701 E16.53331
G1 X99.726 Y146.253 E16.89235
G1 X99.212 Y146.405 E16.91909
G1 X98.451 Y146.487 E16.95728
G1 X90.538 Y146.489 E17.35206
G1 X90.003 Y146.449 E17.37883
G1 X89.48 Y146.33 E17.40559
G1 X88.981 Y146.135 E17.43231
G1 X88.516 Y145.868 E17.45906
G1 X88.033 Y145.476 E17.4901
G1 X87.567 Y145.025 E17.52245
G1 X87.486 Y144.943 E17.5282
G1 X87.015 Y144.457 E17.56197
G1 X86.671 Y144.046 E17.58871
G1 X86.393 Y143.587 E17.61548
G1 X86.185 Y143.093 E17.64222
G1 X86.054 Y142.573 E17.66898
G1 X86 Y141.952 E17.70007
G1 X86.001 Y80.008 E20.79047
G1 X86.052 Y79.405 E20.82066
G1 X86.216 Y78.44 E20.8695
G1 X86.345 Y77.919 E20.89628
G1 X86.63 Y77.273 E20.9315
G1 X87.127 Y76.393 E20.98192
G0 F3600 X87.476 Y76.589
G1 F1800 X87.758 Y76.17 E21.00712
G1 X88.188 Y75.726 E21.03796
G1 X88.955 Y75.073 E21.08821
G1 X89.364 Y74.777 E21.1134
G1 X89.906 Y74.513 E21.14348
G1 X90.832 Y74.166 E21.19281
G1 X91.318 Y74.027 E21.21803
G1 X91.934 Y73.963 E21.24893
G1 X96.738 Y73.932 E21.48861
G1 X97.382 Y73.993 E21.52088
G1 X97.982 Y74.112 E21.5514
G1 X98.468 Y74.249 E21.57659
G1 X98.89 Y74.441 E21.59972
G1 X104.58 Y77.54 E21.92297
G1 X109.536 Y79.937 E22.19763
G1 X114.615 Y82.051 E22.47209
G1 X117.13 Y82.971 E22.6057
G1 X122.406 Y84.658 E22.88205
G1 X127.331 Y86.056 E23.13746
G1 X127.805 Y86.232 E23.16269
G1 X128.226 Y86.468 E23.18677
G1 X129.21 Y87.121 E23.24568
G1 X129.608 Y87.433 E23.27092
G1 X129.821 Y87.648 E23.28601
G1 X130.665 Y88.587 E23.349
G1 X131.095 Y89.194 E23.38612
G1 X131.511 Y89.957 E23.42947
G1 X131.718 Y90.423 E23.45491
G1 X132.014 Y91.261 E23.49925
G1 X132.172 Y91.929 E23.5335
G1 X132.304 Y92.981 E23.58639
G1 X132.329 Y93.38 E23.60634
G1 X132.317 Y126.894 E25.27836
G1 X132.237 Y127.606 E25.3141
G1 X131.942 Y128.897 E25.38017
G1 X131.79 Y129.379 E25.40539
G1 X131.674 Y129.636 E25.41945
G1 X131.165 Y130.636 E25.47544
G1 X130.901 Y131.067 E25.50065
G1 X130.724 Y131.288 E25.51478
G1 X129.787 Y132.362 E25.58589
G1 X129.426 Y132.715 E25.61107
G1 X129.176 Y132.904 E25.62671
G1 X128.435 Y133.408 E25.67142
G1 X127.886 Y133.707 E25.70261
G1 X125.477 Y134.73 E25.83318
G1 X120.47 Y137.082 E26.10917
G1 X118.076 Y138.333 E26.24393
G1 X113.311 Y141.057 E26.51776
G1 X112.679 Y141.333 E26.55217
G1 X106.336 Y143.319 E26.88377
G1 X99.585 Y145.879 E27.24398
G1 X99.099 Y146.02 E27.26923
G1 X98.451 Y146.087 E27.30173
G1 X90.538 Y146.089 E27.69651
G1 X90.034 Y146.049 E27.72173
G1 X89.542 Y145.93 E27.74699
G1 X89.076 Y145.736 E27.77217
G1 X88.646 Y145.47 E27.7974
G1 X88.312 Y145.188 E27.8192
G1 X87.846 Y144.737 E27.85156
G1 X87.773 Y144.665 E27.85667
G1 X87.302 Y144.179 E27.89044
G1 X86.98 Y143.789 E27.91567
G1 X86.723 Y143.354 E27.94088
G1 X86.538 Y142.883 E27.96612
G1 X86.43 Y142.389 E27.99135
G1 X86.4 Y141.952 E28.0132
G1 X86.401 Y80.008 E31.1036
G1 X86.446 Y79.472 E31.13044
G1 X86.61 Y78.507 E31.17927
G1 X86.734 Y78.017 E31.20449
G1 X86.979 Y77.469 E31.23444
G1 X87.476 Y76.589 E31.28486
G1 F2100 E28.28486
G0 F3600 X89.531 Y78.032
G0 X90.584 Y78.767
G0 X90.847 Y79.055
;TYPE:WALL-INNER
G1 F2100 E31.28486
G1 F1800 X91.038 Y78.782 E31.30148
G1 X91.272 Y78.548 E31.31799
G1 X91.545 Y78.357 E31.33461
G1 X91.846 Y78.216 E31.3512
G1 X92.151 Y78.134 E31.36695
G1 X92.549 Y78.101 E31.38688
G1 X96.433 Y78.101 E31.58065
G1 X96.829 Y78.134 E31.60048
G1 X97.137 Y78.217 E31.61639
G1 X97.441 Y78.358 E31.63311
G1 X97.707 Y78.546 E31.64936
G1 X97.943 Y78.782 E31.66601
G1 X98.134 Y79.055 E31.68263
G1 X98.273 Y79.352 E31.69899
G1 X98.357 Y79.67 E31.7154
G1 X98.391 Y80.052 E31.73454
G1 X98.39 Y141.543 E34.80234
G1 X98.034 Y141.899 E34.82745
G1 X90.946 Y141.899 E35.18107
G1 X90.59 Y141.543 E35.20619
G1 X90.591 Y80.054 E38.27389
G1 X90.624 Y79.661 E38.29357
G1 X90.706 Y79.356 E38.30932
G1 X90.847 Y79.055 E38.32591
G0 F3600 X92.753 Y80.928
G1 F1800 X92.418 Y81.263 E38.34954
G1 X92.148 Y81.649 E38.37304
G1 X91.95 Y82.074 E38.39644
G1 X91.826 Y82.533 E38.42016
G1 X91.791 Y82.954 E38.44123
G1 X91.791 Y95.048 E39.0446
G1 X91.826 Y95.468 E39.06563
G1 X91.95 Y95.925 E39.08925
G1 X92.148 Y96.352 E39.11274
G1 X92.419 Y96.739 E39.13631
G1 X92.753 Y97.073 E39.15987
G1 X93.139 Y97.343 E39.18337
G1 X93.565 Y97.541 E39.20681
G1 X94.021 Y97.663 E39.23036
G1 X94.491 Y97.706 E39.25391
G1 X94.961 Y97.663 E39.27745
G1 X95.416 Y97.541 E39.30096
G1 X95.843 Y97.343 E39.32444
G1 X96.229 Y97.073 E39.34794
G1 X96.563 Y96.739 E39.3715
G1 X96.833 Y96.353 E39.39501
G1 X97.031 Y95.926 E39.41849
G1 X97.153 Y95.471 E39.44199
G1 X97.191 Y95.051 E39.46303
G1 X97.191 Y82.952 E40.06665
G1 X97.153 Y82.531 E40.08774
G1 X97.031 Y82.075 E40.11129
G1 X96.833 Y81.649 E40.13473
G1 X96.563 Y81.263 E40.15823
G1 X96.229 Y80.929 E40.18179
G1 X95.842 Y80.658 E40.20536
G1 X95.415 Y80.46 E40.22885
G1 X94.958 Y80.336 E40.25247
G1 X94.491 Y80.298 E40.27585
G1 X94.023 Y80.336 E40.29927
G1 X93.564 Y80.46 E40.32299
G1 X93.139 Y80.658 E40.34638
G1 X92.753 Y80.928 E40.36988
G0 F3600 X92.183 Y82.596
G0 X92.183 Y95.405
G0 X94.49 Y111.294
G1 F1800 X94.02 Y111.337 E40.39343
G1 X93.565 Y111.459 E40.41693
G1 X93.138 Y111.657 E40.44041
G1 X92.752 Y111.927 E40.46392
G1 X92.418 Y112.261 E40.48748
G1 X92.148 Y112.647 E40.51098
G1 X91.95 Y113.074 E40.53446
G1 X91.828 Y113.529 E40.55797
G1 X91.79 Y113.949 E40.57901
G1 X91.79 Y126.048 E41.18263
G1 X91.828 Y126.469 E41.20372
G1 X91.95 Y126.925 E41.22727
G1 X92.148 Y127.351 E41.2507
G1 X92.418 Y127.737 E41.2742
G1 X92.752 Y128.071 E41.29777
G1 X93.139 Y128.342 E41.32134
G1 X93.566 Y128.54 E41.34482
G1 X94.023 Y128.664 E41.36845
G1 X94.49 Y128.702 E41.39182
G1 X94.958 Y128.664 E41.41525
G1 X95.417 Y128.54 E41.43897
G1 X95.842 Y128.342 E41.46236
G1 X96.228 Y128.072 E41.48586
G1 X96.563 Y127.737 E41.5095
G1 X96.833 Y127.351 E41.533
G1 X97.031 Y126.926 E41.55639
G1 X97.155 Y126.467 E41.58011
G1 X97.19 Y126.046 E41.60119
G1 X97.19 Y113.952 E42.20456
G1 X97.155 Y113.532 E42.22559
G1 X97.031 Y113.075 E42.24921
G1 X96.833 Y112.648 E42.27269
G1 X96.562 Y112.261 E42.29626
G1 X96.228 Y111.927 E42.31983
G1 X95.842 Y111.657 E42.34333
G1 X95.416 Y111.459 E42.36677
G1 X94.96 Y111.337 E42.39032
G1 X94.49 Y111.294 E42.41386
G0 F3600 X94.49 Y111.696
G1 F1800 X94.09 Y111.732 E42.4339
G1 X93.702 Y111.836 E42.45394
G1 X93.339 Y112.005 E42.47392
G1 X93.01 Y112.235 E42.49394
G1 X92.726 Y112.519 E42.51398
G1 X92.496 Y112.848 E42.53401
G1 X92.327 Y113.211 E42.55398
G1 X92.223 Y113.599 E42.57403
G1 X92.19 Y113.967 E42.59246
G1 X92.19 Y126.03 E43.19428
G1 X92.223 Y126.399 E43.21277
G1 X92.327 Y126.788 E43.23286
G1 X92.496 Y127.15 E43.25279
G1 X92.726 Y127.479 E43.27281
G1 X93.01 Y127.764 E43.29289
G1 X93.339 Y127.994 E43.31291
G1 X93.703 Y128.163 E43.33294
G1 X94.092 Y128.268 E43.35304
G1 X94.49 Y128.301 E43.37296
G1 X94.889 Y128.268 E43.39294
G1 X95.279 Y128.163 E43.41309
G1 X95.641 Y127.994 E43.43302
G1 X95.97 Y127.764 E43.45305
G1 X96.255 Y127.479 E43.47315
G1 X96.485 Y127.15 E43.49318
G1 X96.654 Y126.788 E43.51311
G1 X96.759 Y126.398 E43.53326
G1 X96.79 Y126.029 E43.55174
G1 X96.79 Y113.969 E44.15341
G1 X96.759 Y113.601 E44.17184
G1 X96.654 Y113.212 E44.19194
G1 X96.485 Y112.848 E44.21196
G1 X96.255 Y112.519 E44.23199
G1 X95.97 Y112.235 E44.25206
G1 X95.641 Y112.005 E44.27209
G1 X95.279 Y111.836 E44.29202
G1 X94.89 Y111.732 E44.31211
G1 X94.49 Y111.696 E44.33215
G0 F3600 X94.49 Y111.596
G0 X94.491 Y97.404
G0 X94.491 Y97.304
G1 F1800 X94.891 Y97.268 E44.35218
G1 X95.279 Y97.164 E44.37222
G1 X95.642 Y96.995 E44.3922
G1 X95.971 Y96.765 E44.41223
G1 X96.255 Y96.481 E44.43226
G1 X96.485 Y96.152 E44.45229
G1 X96.654 Y95.789 E44.47227
G1 X96.758 Y95.401 E44.49231
G1 X96.791 Y95.033 E44.51074
G1 X96.791 Y82.97 E45.11257
G1 X96.758 Y82.601 E45.13105
G1 X96.654 Y82.212 E45.15114
G1 X96.485 Y81.85 E45.17107
G1 X96.255 Y81.521 E45.1911
G1 X95.971 Y81.236 E45.21117
G1 X95.642 Y81.006 E45.2312
G1 X95.278 Y80.837 E45.25122
G1 X94.889 Y80.732 E45.27132
G1 X94.491 Y80.699 E45.29125
G1 X94.092 Y80.732 E45.31122
G1 X93.702 Y80.837 E45.33137
G1 X93.34 Y81.006 E45.3513
G1 X93.011 Y81.236 E45.37133
G1 X92.726 Y81.521 E45.39144
G1 X92.496 Y81.85 E45.41146
G1 X92.327 Y82.212 E45.4314
G1 X92.222 Y82.602 E45.45155
G1 X92.191 Y82.971 E45.47002
G1 X92.191 Y95.031 E46.0717
G1 X92.222 Y95.399 E46.09012
G1 X92.327 Y95.788 E46.11022
G1 X92.496 Y96.152 E46.13024
G1 X92.726 Y96.481 E46.15027
G1 X93.011 Y96.765 E46.17034
G1 X93.34 Y96.995 E46.19037
G1 X93.702 Y97.164 E46.2103
G1 X94.091 Y97.268 E46.23039
G1 X94.491 Y97.304 E46.25043
G0 F3600 X94.491 Y97.404
G0 X95.292 Y97.201
G0 X95.996 Y96.795
G0 X96.519 Y96.171
G0 X96.797 Y95.407
G0 X98.692 Y80.044
G0 X98.791 Y80.04
G1 F1800 X98.79 Y141.709 E49.32711
G1 X98.2 Y142.299 E49.36874
G1 X90.78 Y142.299 E49.73892
G1 X90.19 Y141.709 E49.78055
G1 X90.191 Y80.032 E52.85763
G1 X90.228 Y79.597 E52.87941
G1 X90.33 Y79.216 E52.89908
G1 X90.5 Y78.853 E52.91908
G1 X90.731 Y78.523 E52.93918
G1 X91.013 Y78.241 E52.95908
G1 X91.343 Y78.01 E52.97917
G1 X91.706 Y77.84 E52.99917
G1 X92.087 Y77.738 E53.01885
G1 X92.527 Y77.701 E53.04088
G1 X96.455 Y77.701 E53.23685
G1 X96.894 Y77.738 E53.25882
G1 X97.278 Y77.841 E53.27866
G1 X97.639 Y78.009 E53.29852
G1 X97.967 Y78.24 E53.31854
G1 X98.25 Y78.523 E53.33851
G1 X98.481 Y78.853 E53.3586
G1 X98.651 Y79.216 E53.3786
G1 X98.752 Y79.597 E53.39827
G1 X98.791 Y80.04 E53.42045
G0 F3600 X99.191 Y80.017
;TYPE:WALL-OUTER
G1 F1800 X99.19 Y141.875 E56.50656
G1 X98.366 Y142.699 E56.5647
G1 X90.614 Y142.699 E56.95145
G1 X89.79 Y141.875 E57.00959
G1 X89.791 Y80.01 E60.09604
G1 X89.832 Y79.533 E60.11993
G1 X89.954 Y79.076 E60.14353
G1 X90.153 Y78.651 E60.16694
G1 X90.424 Y78.264 E60.19051
G1 X90.754 Y77.934 E60.21379
G1 X91.141 Y77.663 E60.23736
G1 X91.566 Y77.464 E60.26078
G1 X92.023 Y77.342 E60.28437
G1 X92.505 Y77.301 E60.30851
G1 X96.477 Y77.301 E60.50667
G1 X96.958 Y77.342 E60.53076
G1 X97.415 Y77.464 E60.55435
G1 X97.841 Y77.663 E60.57781
G1 X98.227 Y77.934 E60.60134
G1 X98.557 Y78.264 E60.62463
G1 X98.828 Y78.651 E60.6482
G1 X99.027 Y79.076 E60.67161
G1 X99.149 Y79.533 E60.69521
G1 X99.191 Y80.017 E60.71944
G0 F3600 X99.191 Y80.217
G0 X98.691 Y80.216
G0 X96.548 Y81.766
G0 X96.137 Y82.051
G1 F1800 X95.947 Y81.779 E60.736
G1 X95.713 Y81.544 E60.75254
G1 X95.441 Y81.354 E60.7691
G1 X95.141 Y81.214 E60.78561
G1 X94.82 Y81.128 E60.80219
G1 X94.491 Y81.1 E60.81867
G1 X94.161 Y81.128 E60.83519
G1 X93.84 Y81.214 E60.85177
G1 X93.541 Y81.354 E60.86824
G1 X93.269 Y81.544 E60.88479
G1 X93.034 Y81.779 E60.90137
G1 X92.844 Y82.051 E60.91793
G1 X92.704 Y82.35 E60.9344
G1 X92.618 Y82.671 E60.95098
G1 X92.591 Y82.988 E60.96685
G1 X92.591 Y95.014 E61.56683
G1 X92.618 Y95.33 E61.58265
G1 X92.704 Y95.651 E61.59923
G1 X92.844 Y95.951 E61.61575
G1 X93.034 Y96.223 E61.6323
G1 X93.269 Y96.457 E61.64885
G1 X93.541 Y96.647 E61.6654
G1 X93.84 Y96.787 E61.68187
G1 X94.161 Y96.873 E61.69845
G1 X94.491 Y96.902 E61.71498
G1 X94.821 Y96.873 E61.7315
G1 X95.141 Y96.787 E61.74804
G1 X95.441 Y96.647 E61.76455
G1 X95.713 Y96.457 E61.78111
G1 X95.947 Y96.223 E61.79762
G1 X96.137 Y95.951 E61.81417
G1 X96.277 Y95.651 E61.83068
G1 X96.363 Y95.331 E61.84722
G1 X96.391 Y95.015 E61.86304
G1 X96.391 Y82.988 E62.46307
G1 X96.363 Y82.671 E62.47895
G1 X96.277 Y82.35 E62.49553
G1 X96.137 Y82.051 E62.512
G0 F3600 X96.023 Y81.887
G0 X96.433 Y81.602
G0 X96.797 Y82.595
G0 X96.797 Y95.407
G0 X94.533 Y111.601
G0 X94.49 Y112.098
G1 F1800 X94.16 Y112.127 E62.52853
G1 X93.84 Y112.213 E62.54506
G1 X93.54 Y112.353 E62.56158
G1 X93.268 Y112.543 E62.57813
G1 X93.034 Y112.777 E62.59464
G1 X92.844 Y113.049 E62.61119
G1 X92.704 Y113.349 E62.62771
G1 X92.618 Y113.669 E62.64424
