;FLAVOR:RepRap
;TIME:2859
;Filament used: 2.66142m
;Layer height: 0.2
;Generated with Cura_SteamEngine 2.4.0
M190 S60
M104 S195
M109 S195
G21 ;metric values
G90 ;absolute positioning
M82 ;set extruder to absolute mode
M107 ;start with the fan off
G28 X0 Y0 ;move X/Y to min endstops
G28 Z0 ;move Z to min endstops
G1 Z15.0 F9000 ;move the platform down 15mm
G92 E0 ;zero the extruded length
G1 F200 E3 ;extrude 3mm of feed stock
G92 E0 ;zero the extruded length again
G1 F9000;Put printing message on LCD screen
M117 Printing...
;LAYER_COUNT:175
;LAYER:0
M107
G1 F2100 E-3
G0 F3600 X99.471 Y87.911 Z0.3
;TYPE:SKIRT
G1 F2100 E0
G1 F1800 X99.867 Y87.508 E0.02819
G1 X100.317 Y87.165 E0.05642
G1 X100.81 Y86.89 E0.08458
G1 X101.338 Y86.686 E0.11282
G1 X101.889 Y86.559 E0.14103
G1 X102.511 Y86.51 E0.17216
G1 X109.491 Y86.51 E0.52039
G1 X110.055 Y86.55 E0.5486
G1 X110.608 Y86.669 E0.57682
G1 X111.138 Y86.865 E0.60501
G1 X111.635 Y87.133 E0.63318
G1 X112.09 Y87.469 E0.6614
G1 X112.493 Y87.866 E0.68963
G1 X112.835 Y88.316 E0.71782
G1 X113.111 Y88.809 E0.74601
G1 X113.315 Y89.337 E0.77425
G1 X113.442 Y89.887 E0.80241
G1 X113.491 Y90.51 E0.83359
G1 X113.491 Y129.491 E2.77836
G1 X113.451 Y130.055 E2.80657
G1 X113.332 Y130.608 E2.83479
G1 X113.136 Y131.138 E2.86298
G1 X112.868 Y131.635 E2.89115
G1 X112.532 Y132.09 E2.91937
G1 X112.135 Y132.493 E2.9476
G1 X111.685 Y132.835 E2.97579
G1 X111.192 Y133.111 E3.00398
G1 X110.664 Y133.315 E3.03222
G1 X110.114 Y133.442 E3.06038
G1 X109.491 Y133.491 E3.09156
G1 X102.509 Y133.491 E3.43989
G1 X101.945 Y133.451 E3.4681
G1 X101.392 Y133.332 E3.49632
G1 X100.862 Y133.136 E3.52452
G1 X100.365 Y132.868 E3.55269
G1 X99.91 Y132.532 E3.5809
G1 X99.507 Y132.135 E3.60913
G1 X99.165 Y131.685 E3.63733
G1 X98.889 Y131.192 E3.66551
G1 X98.685 Y130.664 E3.69375
G1 X98.558 Y130.114 E3.72192
G1 X98.509 Y129.491 E3.75309
G1 X98.511 Y90.51 E5.69786
G1 X98.551 Y89.946 E5.72607
G1 X98.67 Y89.393 E5.75429
G1 X98.866 Y88.863 E5.78248
G1 X99.134 Y88.365 E5.8107
G1 X99.471 Y87.911 E5.83891
G0 F3600 X99.866 Y88.068
G1 F1800 X100.258 Y87.702 E5.86566
G1 X100.7 Y87.398 E5.89243
G1 X101.183 Y87.164 E5.9192
G1 X101.695 Y87.004 E5.94597
G1 X102.224 Y86.921 E5.97268
G1 X102.511 Y86.91 E5.98701
G1 X109.491 Y86.91 E6.33524
G1 X110.026 Y86.95 E6.36201
G1 X110.549 Y87.069 E6.38877
G1 X111.048 Y87.264 E6.4155
G1 X111.513 Y87.532 E6.44227
G1 X111.933 Y87.865 E6.46901
G1 X112.299 Y88.257 E6.49577
G1 X112.602 Y88.699 E6.52251
G1 X112.837 Y89.182 E6.5493
G1 X112.997 Y89.693 E6.57602
G1 X113.08 Y90.223 E6.60278
G1 X113.091 Y90.51 E6.61711
G1 X113.091 Y129.491 E8.56188
G1 X113.051 Y130.026 E8.58865
G1 X112.932 Y130.549 E8.61541
G1 X112.737 Y131.048 E8.64213
G1 X112.469 Y131.513 E8.66891
G1 X112.136 Y131.933 E8.69565
G1 X111.744 Y132.299 E8.72241
G1 X111.302 Y132.602 E8.74914
G1 X110.819 Y132.837 E8.77594
G1 X110.308 Y132.997 E8.80266
G1 X109.778 Y133.08 E8.82942
G1 X109.491 Y133.091 E8.84375
G1 X102.509 Y133.091 E9.19208
G1 X101.974 Y133.051 E9.21885
G1 X101.451 Y132.932 E9.24561
G1 X100.952 Y132.737 E9.27234
G1 X100.487 Y132.469 E9.29911
G1 X100.067 Y132.136 E9.32585
G1 X99.701 Y131.744 E9.35261
G1 X99.398 Y131.302 E9.37934
G1 X99.163 Y130.819 E9.40614
G1 X99.003 Y130.308 E9.43286
G1 X98.92 Y129.778 E9.45962
G1 X98.909 Y129.491 E9.47395
G1 X98.911 Y90.51 E11.41872
G1 X98.951 Y89.975 E11.44549
G1 X99.07 Y89.452 E11.47224
G1 X99.265 Y88.953 E11.49897
G1 X99.533 Y88.488 E11.52575
G1 X99.866 Y88.068 E11.55249
G0 F3600 X100.261 Y88.235
G1 F1800 X100.647 Y87.909 E11.5777
G1 X101.08 Y87.648 E11.60292
G1 X101.549 Y87.458 E11.62817
G1 X102.041 Y87.345 E11.65335
G1 X102.511 Y87.31 E11.67686
G1 X109.491 Y87.31 E12.0251
G1 X109.995 Y87.35 E12.05032
G1 X110.486 Y87.469 E12.07553
G1 X110.953 Y87.663 E12.10076
G1 X111.383 Y87.929 E12.12598
G1 X111.766 Y88.259 E12.1512
G1 X112.092 Y88.646 E12.17645
G1 X112.353 Y89.079 E12.20167
G1 X112.543 Y89.547 E12.22687
G1 X112.656 Y90.04 E12.25211
G1 X112.691 Y90.51 E12.27562
G1 X112.691 Y129.491 E14.22039
G1 X112.651 Y129.995 E14.24561
G1 X112.532 Y130.486 E14.27082
G1 X112.338 Y130.953 E14.29605
G1 X112.072 Y131.383 E14.32127
G1 X111.742 Y131.766 E14.3465
G1 X111.355 Y132.092 E14.37174
G1 X110.922 Y132.353 E14.39696
G1 X110.454 Y132.543 E14.42216
G1 X109.961 Y132.656 E14.4474
G1 X109.491 Y132.691 E14.47091
G1 X102.509 Y132.691 E14.81924
G1 X102.005 Y132.651 E14.84447
G1 X101.514 Y132.532 E14.86967
G1 X101.047 Y132.338 E14.8949
G1 X100.617 Y132.072 E14.92013
G1 X100.234 Y131.742 E14.94535
G1 X99.908 Y131.355 E14.97059
G1 X99.647 Y130.922 E14.99582
G1 X99.457 Y130.454 E15.02102
G1 X99.344 Y129.961 E15.04625
G1 X99.309 Y129.491 E15.06976
G1 X99.311 Y90.51 E17.01453
G1 X99.351 Y90.006 E17.03976
G1 X99.47 Y89.514 E17.06501
G1 X99.665 Y89.048 E17.09021
G1 X99.93 Y88.618 E17.11541
G1 X100.261 Y88.235 E17.14067
G1 F2100 E14.14067
G0 F3600 X103.115 Y89.835
G0 X103.115 Y91.114
G0 X103.501 Y91.5
;TYPE:WALL-INNER
G1 F2100 E17.14067
G1 F1800 X108.5 Y91.5 E17.39007
G1 X108.5 Y92 E17.41501
G1 X103.501 Y92 E17.66442
G1 X103.501 Y91.5 E17.68936
G0 F3600 X103.501 Y128
G1 F1800 X108.5 Y128 E17.93876
G1 X108.5 Y128.5 E17.96371
G1 X103.7 Y128.5 E18.20318
G1 X103.5 Y128.5 E18.21316
G1 X103.5 Y128.3 E18.21962
G1 X103.501 Y128 E18.23459
G0 F3600 X103.901 Y127.6
G1 F1800 X108.1 Y127.6 E18.44408
G1 X108.1 Y92.4 E20.20021
G1 X104.1 Y92.4 E20.39977
G1 X103.9 Y92.4 E20.40975
G1 X103.9 Y92.6 E20.41621
G1 X103.901 Y127.6 E22.16237
G0 F3600 X103.1 Y128.7
G1 F1800 X103.101 Y91.1 E24.03824
G1 X108.9 Y91.1 E24.32755
G1 X108.9 Y128.9 E26.2134
G1 X103.3 Y128.9 E26.49279
G1 X103.1 Y128.9 E26.50276
G1 X103.1 Y128.7 E26.50923
G0 F3600 X102.7 Y129.1
;TYPE:WALL-OUTER
G1 F1800 X102.701 Y90.7 E28.42501
G1 X109.3 Y90.7 E28.75423
G1 X109.3 Y129.3 E30.68
G1 X102.9 Y129.3 E30.99929
G1 X102.7 Y129.3 E31.00927
G1 X102.7 Y129.1 E31.01573
G0 F3600 X102.7 Y128.9
G0 X103.17 Y128.83
G0 X104.301 Y127.7
G0 X104.301 Y127.2
G1 F1800 X107.7 Y127.2 E31.18531
G1 X107.7 Y92.8 E32.90153
G1 X104.5 Y92.8 E33.06118
G1 X104.3 Y92.8 E33.07116
G1 X104.3 Y93 E33.07762
G1 X104.301 Y127.2 E34.78386
G0 F3600 X104.501 Y127.2
G0 X104.49 Y128.249
G1 F1800 X105.056 Y128.249 E34.79375
G1 X105.621 Y128.249 E34.80361
G1 X106.187 Y128.249 E34.8135
G1 X106.753 Y128.249 E34.82338
G1 X107.319 Y128.249 E34.83326
G1 X107.884 Y128.249 E34.84313
G0 F3600 X107.954 Y128.319
G0 X103.994 Y128.319
;TYPE:SKIN
G1 F1800 X103.854 Y128.179 E34.85301
G0 F3600 X103.872 Y92.372
G0 X104.265 Y91.819
G0 X104.195 Y91.749
G1 F1800 X104.76 Y91.749 E34.8628
G1 X105.326 Y91.749 E34.87262
G1 X105.892 Y91.749 E34.88243
G1 X106.457 Y91.749 E34.89222
G1 X107.023 Y91.749 E34.90204
G1 X107.589 Y91.749 E34.91185
G1 X108.154 Y91.749 E34.92164
G0 F3600 X108.503 Y92.381
G1 F1800 X108.644 Y92.24 E34.93082
G0 F3600 X108.499 Y92.66
G1 F1800 X108.499 Y92.943 E34.94529
G1 X108.499 Y93.226 E34.95976
G1 X108.499 Y93.509 E34.97424
G1 X108.499 Y93.791 E34.98866
G1 X108.499 Y94.074 E35.00313
G1 X108.499 Y94.357 E35.0176
G1 X108.499 Y94.64 E35.03207
G1 X108.499 Y94.923 E35.04655
G1 X108.499 Y95.206 E35.06102
G1 X108.499 Y95.489 E35.07549
G1 X108.499 Y95.771 E35.08991
G1 X108.499 Y96.054 E35.10438
G1 X108.499 Y96.337 E35.11885
G1 X108.499 Y96.62 E35.13333
G1 X108.499 Y96.903 E35.1478
G1 X108.499 Y97.186 E35.16227
G1 X108.499 Y97.468 E35.17669
G1 X108.499 Y97.751 E35.19116
G1 X108.499 Y98.034 E35.20563
G1 X108.499 Y98.317 E35.22011
G1 X108.499 Y98.6 E35.23458
G1 X108.499 Y98.883 E35.24905
G1 X108.499 Y99.166 E35.26352
G1 X108.499 Y99.448 E35.27794
G1 X108.499 Y99.731 E35.29241
G1 X108.499 Y100.014 E35.30689
G1 X108.499 Y100.297 E35.32136
G1 X108.499 Y100.58 E35.33583
G1 X108.499 Y100.863 E35.3503
G1 X108.499 Y101.145 E35.36472
G1 X108.499 Y101.428 E35.37919
G1 X108.499 Y101.711 E35.39367
G1 X108.499 Y101.994 E35.40814
G1 X108.499 Y102.277 E35.42261
G1 X108.499 Y102.56 E35.43708
G1 X108.499 Y102.842 E35.4515
G1 X108.499 Y103.125 E35.46597
G1 X108.499 Y103.408 E35.48045
G1 X108.499 Y103.691 E35.49492
G1 X108.499 Y103.974 E35.50939
G1 X108.499 Y104.257 E35.52386
G1 X108.499 Y104.54 E35.53833
G1 X108.499 Y104.822 E35.55275
G1 X108.499 Y105.105 E35.56723
G1 X108.499 Y105.388 E35.5817
G1 X108.499 Y105.671 E35.59617
G1 X108.499 Y105.954 E35.61064
G1 X108.499 Y106.237 E35.62511
G1 X108.499 Y106.519 E35.63954
G1 X108.499 Y106.802 E35.65401
G1 X108.499 Y107.085 E35.66848
G1 X108.499 Y107.368 E35.68295
G1 X108.499 Y107.651 E35.69742
G1 X108.499 Y107.934 E35.71189
G1 X108.499 Y108.216 E35.72632
G1 X108.499 Y108.499 E35.74079
G1 X108.499 Y108.782 E35.75526
G1 X108.499 Y109.065 E35.76973
G1 X108.499 Y109.348 E35.7842
G1 X108.499 Y109.631 E35.79867
G1 X108.499 Y109.914 E35.81315
G1 X108.499 Y110.196 E35.82757
G1 X108.499 Y110.479 E35.84204
G1 X108.499 Y110.762 E35.85651
G1 X108.499 Y111.045 E35.87098
G1 X108.499 Y111.328 E35.88546
G1 X108.499 Y111.611 E35.89993
G1 X108.499 Y111.893 E35.91435
G1 X108.499 Y112.176 E35.92882
G1 X108.499 Y112.459 E35.94329
G1 X108.499 Y112.742 E35.95776
G1 X108.499 Y113.025 E35.97224
G1 X108.499 Y113.308 E35.98671
G1 X108.499 Y113.59 E36.00113
G1 X108.499 Y113.873 E36.0156
G1 X108.499 Y114.156 E36.03007
G1 X108.499 Y114.439 E36.04454
G1 X108.499 Y114.722 E36.05902
G1 X108.499 Y115.005 E36.07349
G1 X108.499 Y115.288 E36.08796
G1 X108.499 Y115.57 E36.10238
G1 X108.499 Y115.853 E36.11685
G1 X108.499 Y116.136 E36.13132
G1 X108.499 Y116.419 E36.1458
G1 X108.499 Y116.702 E36.16027
G1 X108.499 Y116.985 E36.17474
G1 X108.499 Y117.267 E36.18916
G1 X108.499 Y117.55 E36.20363
G1 X108.499 Y117.833 E36.2181
G1 X108.499 Y118.116 E36.23258
G1 X108.499 Y118.399 E36.24705
G1 X108.499 Y118.682 E36.26152
G1 X108.499 Y118.964 E36.27594
G1 X108.499 Y119.247 E36.29041
G1 X108.499 Y119.53 E36.30488
G1 X108.499 Y119.813 E36.31936
G1 X108.499 Y120.096 E36.33383
G1 X108.499 Y120.379 E36.3483
G1 X108.499 Y120.662 E36.36277
G1 X108.499 Y120.944 E36.37719
G1 X108.499 Y121.227 E36.39166
G1 X108.499 Y121.51 E36.40614
G1 X108.499 Y121.793 E36.42061
G1 X108.499 Y122.076 E36.43508
G1 X108.499 Y122.359 E36.44955
G1 X108.499 Y122.641 E36.46397
G1 X108.499 Y122.924 E36.47845
G1 X108.499 Y123.207 E36.49292
G1 X108.499 Y123.49 E36.50739
G1 X108.499 Y123.773 E36.52186
G1 X108.499 Y124.056 E36.53633
G1 X108.499 Y124.339 E36.5508
G1 X108.499 Y124.621 E36.56523
G1 X108.499 Y124.904 E36.5797
G1 X108.499 Y125.187 E36.59417
G1 X108.499 Y125.47 E36.60864
G1 X108.499 Y125.753 E36.62311
G1 X108.499 Y126.036 E36.63758
G1 X108.499 Y126.318 E36.65201
G1 X108.499 Y126.601 E36.66648
G1 X108.499 Y126.884 E36.68095
G1 X108.499 Y127.167 E36.69542
G1 X108.499 Y127.45 E36.70989
G1 X108.44 Y127.673 E36.72226
G0 F3600 X108.586 Y127.819
G0 X103.705 Y127.747
G0 X103.499 Y127.541
G1 F1800 X103.499 Y127.258 E36.73677
G1 X103.499 Y126.975 E36.75128
G1 X103.499 Y126.692 E36.76579
G1 X103.499 Y126.41 E36.78024
G1 X103.499 Y126.127 E36.79475
G1 X103.499 Y125.844 E36.80926
G1 X103.499 Y125.561 E36.82376
G1 X103.499 Y125.278 E36.83827
G1 X103.499 Y124.995 E36.85278
G1 X103.499 Y124.713 E36.86723
G1 X103.499 Y124.43 E36.88174
G1 X103.499 Y124.147 E36.89625
G1 X103.499 Y123.864 E36.91076
G1 X103.499 Y123.581 E36.92526
G1 X103.499 Y123.298 E36.93977
G1 X103.499 Y123.016 E36.95423
G1 X103.499 Y122.733 E36.96873
G1 X103.499 Y122.45 E36.98324
G1 X103.499 Y122.167 E36.99775
G1 X103.499 Y121.884 E37.01225
G1 X103.499 Y121.601 E37.02676
G1 X103.499 Y121.318 E37.04127
G1 X103.499 Y121.036 E37.05573
G1 X103.499 Y120.753 E37.07023
G1 X103.499 Y120.47 E37.08474
G1 X103.499 Y120.187 E37.09925
G1 X103.499 Y119.904 E37.11375
G1 X103.499 Y119.621 E37.12826
G1 X103.499 Y119.339 E37.14272
G1 X103.499 Y119.056 E37.15722
G1 X103.499 Y118.773 E37.17173
G1 X103.499 Y118.49 E37.18624
G1 X103.499 Y118.207 E37.20075
G1 X103.499 Y117.924 E37.21525
G1 X103.499 Y117.642 E37.22971
G1 X103.499 Y117.359 E37.24422
G1 X103.499 Y117.076 E37.25872
G1 X103.499 Y116.793 E37.27323
G1 X103.499 Y116.51 E37.28774
G1 X103.499 Y116.227 E37.30224
G1 X103.499 Y115.944 E37.31675
G1 X103.499 Y115.662 E37.33121
G1 X103.499 Y115.379 E37.34572
G1 X103.499 Y115.096 E37.36022
G1 X103.499 Y114.813 E37.37473
G1 X103.499 Y114.53 E37.38924
G1 X103.499 Y114.247 E37.40374
G1 X103.499 Y113.965 E37.4182
G1 X103.499 Y113.682 E37.43271
G1 X103.499 Y113.399 E37.44721
G1 X103.499 Y113.116 E37.46172
G1 X103.499 Y112.833 E37.47623
G1 X103.499 Y112.55 E37.49074
G1 X103.499 Y112.267 E37.50524
G1 X103.499 Y111.985 E37.5197
G1 X103.499 Y111.702 E37.53421
G1 X103.499 Y111.419 E37.54871
G1 X103.499 Y111.136 E37.56322
G1 X103.499 Y110.853 E37.57773
G1 X103.499 Y110.57 E37.59224
G1 X103.499 Y110.288 E37.60669
G1 X103.499 Y110.005 E37.6212
G1 X103.499 Y109.722 E37.63567
G1 X103.499 Y109.439 E37.65014
G1 X103.499 Y109.156 E37.66461
G1 X103.499 Y108.873 E37.67909
G1 X103.499 Y108.591 E37.69351
G1 X103.499 Y108.308 E37.70798
G1 X103.499 Y108.025 E37.72245
G1 X103.499 Y107.742 E37.73692
G1 X103.499 Y107.459 E37.75139
G1 X103.499 Y107.176 E37.76587
G1 X103.499 Y106.893 E37.78034
G1 X103.499 Y106.611 E37.79476
G1 X103.499 Y106.328 E37.80923
G1 X103.499 Y106.045 E37.8237
G1 X103.499 Y105.762 E37.83817
G1 X103.499 Y105.479 E37.85265
G1 X103.499 Y105.196 E37.86712
G1 X103.499 Y104.914 E37.88154
G1 X103.499 Y104.631 E37.89601
G1 X103.499 Y104.348 E37.91048
G1 X103.499 Y104.065 E37.92495
G1 X103.499 Y103.782 E37.93943
G1 X103.499 Y103.499 E37.9539
G1 X103.499 Y103.217 E37.96832
G1 X103.499 Y102.934 E37.98279
G1 X103.499 Y102.651 E37.99726
G1 X103.499 Y102.368 E38.01174
G1 X103.499 Y102.085 E38.02621
G1 X103.499 Y101.802 E38.04068
G1 X103.499 Y101.519 E38.05515
G1 X103.499 Y101.237 E38.06957
G1 X103.499 Y100.954 E38.08404
G1 X103.499 Y100.671 E38.09852
G1 X103.499 Y100.388 E38.11299
G1 X103.499 Y100.105 E38.12746
G1 X103.499 Y99.822 E38.14193
G1 X103.499 Y99.54 E38.15635
G1 X103.499 Y99.257 E38.17082
G1 X103.499 Y98.974 E38.1853
G1 X103.499 Y98.691 E38.19977
G1 X103.499 Y98.408 E38.21424
G1 X103.499 Y98.125 E38.22871
G1 X103.499 Y97.843 E38.24313
G1 X103.499 Y97.56 E38.2576
G1 X103.499 Y97.277 E38.27208
G1 X103.499 Y96.994 E38.28655
G1 X103.499 Y96.711 E38.30102
G1 X103.499 Y96.428 E38.31549
G1 X103.499 Y96.145 E38.32996
M104 S190
G1 X103.499 Y95.863 E38.34438
G1 X103.499 Y95.58 E38.35886
G1 X103.499 Y95.297 E38.37333
G1 X103.499 Y95.014 E38.3878
G1 X103.499 Y94.731 E38.40227
G1 X103.499 Y94.448 E38.41674
G1 X103.499 Y94.166 E38.43116
G1 X103.499 Y93.883 E38.44564
G1 X103.499 Y93.6 E38.46011
G1 X103.499 Y93.317 E38.47458
G1 X103.499 Y93.034 E38.48905
G1 X103.499 Y92.751 E38.50352
G1 X103.499 Y92.468 E38.518
G1 X103.598 Y92.284 E38.52899
G0 F3600 X103.704 Y92.39
G0 X103.294 Y127.619
;TYPE:SKIN
G1 F1800 X103.494 Y127.818 E38.53603
G0 F3600 X103.5 Y127.818
;TIME_ELAPSED:36.831401
;LAYER:1
M140 S60
M106 S255
G0 F5400 X103.5 Y128.3 Z0.5
;TYPE:WALL-INNER
G1 F2700 X103.501 Y128 E38.54601
G1 X108.5 Y128 E38.71228
G1 X108.5 Y128.5 E38.72891
G1 X103.7 Y128.5 E38.88856
G1 X103.5 Y128.5 E38.89521
G1 X103.5 Y128.3 E38.89951
G0 F5400 X103.501 Y92
G1 F2700 X103.501 Y91.5 E38.91614
G1 X108.5 Y91.5 E39.08241
G1 X108.5 Y92 E39.09904
G1 X103.501 Y92 E39.26531
G0 F5400 X103.9 Y92.4
G1 F2700 X103.9 Y92.6 E39.27196
G1 X103.901 Y127.6 E40.43607
G1 X108.1 Y127.6 E40.57573
G1 X108.1 Y92.4 E41.74648
G1 X104.1 Y92.4 E41.87952
G1 X103.9 Y92.4 E41.88383
G0 F5400 X103.101 Y91.1
G1 F2700 X108.9 Y91.1 E42.07671
G1 X108.9 Y128.9 E43.33394
G1 X103.3 Y128.9 E43.5202
G1 X103.1 Y128.9 E43.52685
G1 X103.1 Y128.7 E43.53115
G1 X103.101 Y91.1 E44.78174
G0 F5400 X102.701 Y90.7
;TYPE:WALL-OUTER
G1 F1800 X109.3 Y90.7 E45.00122
G1 X109.3 Y129.3 E46.28506
G1 X102.9 Y129.3 E46.49793
G1 X102.7 Y129.3 E46.50458
G1 X102.7 Y129.1 E46.50888
G1 X102.701 Y90.7 E47.78607
G0 F5400 X102.901 Y90.7
G0 X103.171 Y91.17
G0 X104.3 Y92.3
G0 X104.3 Y92.8
G1 F1800 X104.3 Y93 E47.79273
G1 X104.301 Y127.2 E48.93022
G1 X107.7 Y127.2 E49.04327
G1 X107.7 Y92.8 E50.18742
G1 X104.5 Y92.8 E50.29385
G1 X104.3 Y92.8 E50.29816
G0 F5400 X104.3 Y93
G0 X104.542 Y91.749
G1 F1350 X105.107 Y91.749 E50.30479
G1 X105.673 Y91.749 E50.31142
G1 X106.239 Y91.749 E50.31806
G1 X106.804 Y91.749 E50.32468
G1 X107.37 Y91.749 E50.33132
