;FLAVOR:RepRap
;TIME:1508
;Filament used: 1.4875m
;Layer height: 0.2
;Generated with Cura_SteamEngine 2.4.0
M190 S60
M104 S192
M109 S192
G21 ;metric values
G90 ;absolute positioning
M82 ;set extruder to absolute mode
M107 ;start with the fan off
G28 X0 Y0 ;move X/Y to min endstops
G28 Z0 ;move Z to min endstops
G1 Z15.0 F9000 ;move the platform down 15mm
G92 E0 ;zero the extruded length
G1 F200 E3 ;extrude 3mm of feed stock
G92 E0 ;zero the extruded length again
G1 F9000;Put printing message on LCD screen
M117 Printing...
;LAYER_COUNT:180
;LAYER:0
M107
G1 F2100 E-3
G0 F3600 X102.97 Y88.955 Z0.3
;TYPE:SKIRT
G1 F2100 E0
G1 F1800 X103.366 Y88.552 E0.02819
G1 X103.816 Y88.209 E0.05642
G1 X104.309 Y87.933 E0.0846
G1 X104.836 Y87.729 E0.1128
G1 X105.387 Y87.602 E0.14101
G1 X106.011 Y87.553 E0.17224
G1 X113.99 Y87.553 E0.57031
G1 X114.554 Y87.593 E0.59852
G1 X115.107 Y87.712 E0.62674
G1 X115.637 Y87.908 E0.65493
G1 X116.134 Y88.176 E0.6831
G1 X116.589 Y88.512 E0.71132
G1 X116.992 Y88.909 E0.73954
G1 X117.334 Y89.359 E0.76774
G1 X117.61 Y89.852 E0.79593
G1 X117.814 Y90.38 E0.82417
G1 X117.941 Y90.93 E0.85233
G1 X117.99 Y91.553 E0.88351
G1 X117.991 Y126.842 E2.64408
G1 X117.951 Y127.406 E2.67229
G1 X117.832 Y127.958 E2.70046
G1 X117.636 Y128.489 E2.7287
G1 X117.368 Y128.986 E2.75687
G1 X117.032 Y129.441 E2.78509
G1 X116.635 Y129.844 E2.81332
G1 X116.185 Y130.186 E2.84151
G1 X115.692 Y130.462 E2.8697
G1 X115.165 Y130.666 E2.8979
G1 X114.614 Y130.793 E2.92611
G1 X113.98 Y130.842 E2.95783
G1 X106.01 Y130.82 E3.35546
G1 X105.446 Y130.778 E3.38367
G1 X104.894 Y130.658 E3.41186
G1 X104.364 Y130.461 E3.44007
G1 X103.867 Y130.191 E3.46828
G1 X103.414 Y129.853 E3.49648
G1 X103.012 Y129.456 E3.52467
G1 X102.671 Y129.005 E3.55288
G1 X102.396 Y128.511 E3.58108
G1 X102.194 Y127.983 E3.60929
G1 X102.068 Y127.432 E3.63749
G1 X102.021 Y126.821 E3.66806
G1 X102.011 Y91.554 E5.42754
G1 X102.051 Y90.99 E5.45575
G1 X102.17 Y90.438 E5.48392
G1 X102.365 Y89.907 E5.51214
G1 X102.634 Y89.41 E5.54033
G1 X102.97 Y88.955 E5.56855
G0 F3600 X103.365 Y89.112
G1 F1800 X103.757 Y88.746 E5.59531
G1 X104.199 Y88.442 E5.62207
G1 X104.682 Y88.207 E5.64887
G1 X105.193 Y88.047 E5.67559
G1 X105.723 Y87.965 E5.70234
G1 X106.011 Y87.953 E5.71672
G1 X113.99 Y87.953 E6.1148
G1 X114.525 Y87.993 E6.14156
G1 X115.048 Y88.112 E6.16832
G1 X115.547 Y88.307 E6.19505
G1 X116.012 Y88.575 E6.22183
G1 X116.432 Y88.908 E6.24857
G1 X116.798 Y89.3 E6.27532
G1 X117.101 Y89.742 E6.30206
G1 X117.336 Y90.225 E6.32886
G1 X117.496 Y90.736 E6.35557
G1 X117.579 Y91.266 E6.38234
G1 X117.59 Y91.553 E6.39666
G1 X117.591 Y126.842 E8.15724
G1 X117.551 Y127.377 E8.18401
G1 X117.432 Y127.9 E8.21076
G1 X117.237 Y128.399 E8.23749
G1 X116.97 Y128.864 E8.26424
G1 X116.636 Y129.284 E8.29102
G1 X116.244 Y129.65 E8.31777
G1 X115.802 Y129.953 E8.34451
G1 X115.32 Y130.188 E8.37126
G1 X114.808 Y130.348 E8.39802
G1 X114.278 Y130.431 E8.42479
G1 X113.981 Y130.442 E8.43961
G1 X106.011 Y130.42 E8.83724
G1 X105.476 Y130.379 E8.86401
G1 X104.954 Y130.258 E8.89074
G1 X104.455 Y130.061 E8.91751
G1 X103.991 Y129.793 E8.94424
G1 X103.572 Y129.458 E8.97101
G1 X103.207 Y129.065 E8.99776
G1 X102.905 Y128.622 E9.02451
G1 X102.671 Y128.139 E9.05129
G1 X102.513 Y127.627 E9.07802
G1 X102.432 Y127.097 E9.10477
G1 X102.421 Y126.821 E9.11855
G1 X102.411 Y91.554 E10.87803
G1 X102.451 Y91.019 E10.90479
G1 X102.57 Y90.496 E10.93155
G1 X102.765 Y89.997 E10.95828
G1 X103.032 Y89.532 E10.98503
G1 X103.365 Y89.112 E11.01177
G0 F3600 X103.76 Y89.279
G1 F1800 X104.146 Y88.953 E11.03698
G1 X104.579 Y88.691 E11.06223
G1 X105.048 Y88.501 E11.08748
G1 X105.54 Y88.388 E11.11266
G1 X106.011 Y88.353 E11.13622
G1 X113.99 Y88.353 E11.5343
G1 X114.494 Y88.393 E11.55952
G1 X114.985 Y88.512 E11.58473
G1 X115.452 Y88.706 E11.60996
G1 X115.882 Y88.972 E11.63518
G1 X116.265 Y89.302 E11.6604
G1 X116.591 Y89.689 E11.68565
G1 X116.852 Y90.122 E11.71087
G1 X117.042 Y90.59 E11.73607
G1 X117.155 Y91.083 E11.76131
G1 X117.19 Y91.553 E11.78482
G1 X117.191 Y126.842 E13.54539
G1 X117.151 Y127.346 E13.57062
G1 X117.032 Y127.837 E13.59582
G1 X116.838 Y128.304 E13.62105
G1 X116.572 Y128.734 E13.64628
G1 X116.242 Y129.117 E13.6715
G1 X115.855 Y129.443 E13.69675
G1 X115.422 Y129.704 E13.72197
G1 X114.954 Y129.894 E13.74717
G1 X114.461 Y130.007 E13.7724
G1 X113.982 Y130.042 E13.79636
G1 X106.012 Y130.02 E14.19399
G1 X105.508 Y129.979 E14.21922
G1 X105.017 Y129.858 E14.24445
G1 X104.551 Y129.662 E14.26967
G1 X104.122 Y129.396 E14.29485
G1 X103.74 Y129.064 E14.3201
G1 X103.415 Y128.677 E14.34531
G1 X103.155 Y128.243 E14.37055
G1 X102.967 Y127.774 E14.39576
G1 X102.854 Y127.281 E14.421
G1 X102.821 Y126.821 E14.44401
G1 X102.811 Y91.554 E16.20348
G1 X102.851 Y91.05 E16.22871
G1 X102.969 Y90.558 E16.25395
G1 X103.164 Y90.092 E16.27915
G1 X103.43 Y89.662 E16.30438
G1 X103.76 Y89.279 E16.3296
G1 F2100 E13.3296
G0 F3600 X106.614 Y90.879
G0 X106.615 Y92.158
G0 X107.001 Y92.544
;TYPE:WALL-INNER
G1 F2100 E16.3296
G1 F1800 X112.8 Y92.543 E16.61891
G1 X113 Y92.543 E16.62889
G1 X113 Y92.743 E16.63535
G1 X113 Y125.851 E18.28712
G1 X107.201 Y125.852 E18.57643
G1 X107.001 Y125.852 E18.58641
G1 X107.001 Y125.652 E18.59287
G1 X107.001 Y92.544 E20.24463
G0 F3600 X106.601 Y92.144
G1 F1800 X113.2 Y92.143 E20.57386
G1 X113.4 Y92.143 E20.58384
G1 X113.4 Y92.343 E20.5903
G1 X113.4 Y126.251 E22.28197
G1 X106.801 Y126.252 E22.6112
G1 X106.601 Y126.252 E22.62118
G1 X106.601 Y126.052 E22.62764
G1 X106.601 Y92.144 E24.31932
G0 F3600 X106.201 Y91.744
;TYPE:WALL-OUTER
G1 F1800 X113.6 Y91.743 E24.68845
G1 X113.8 Y91.743 E24.69843
G1 X113.8 Y91.943 E24.70489
G1 X113.8 Y126.651 E26.43648
G1 X106.401 Y126.652 E26.80562
G1 X106.201 Y126.652 E26.8156
G1 X106.201 Y126.452 E26.82206
G1 X106.201 Y91.744 E28.55365
G0 F3600 X106.401 Y91.744
G0 X107.432 Y92.724
;TYPE:SKIN
G1 F1800 X112.819 Y98.111 E28.93373
G0 X112.889 Y98.181
G0 F3600 X112.819 Y97.546
G1 F1800 X107.997 Y92.724 E29.27395
G0 X107.927 Y92.654
G0 F3600 X108.563 Y92.724
G1 F1800 X112.819 Y96.98 E29.57423
G0 X112.889 Y97.05
G0 F3600 X112.819 Y96.414
G1 F1800 X109.129 Y92.724 E29.83458
G0 X109.059 Y92.654
G0 F3600 X109.694 Y92.724
G1 F1800 X112.819 Y95.849 E30.05507
G0 X112.889 Y95.919
G0 F3600 X112.819 Y95.283
G1 F1800 X110.259 Y92.723 E30.23569
G0 X110.189 Y92.653
G0 F3600 X110.825 Y92.723
G1 F1800 X112.819 Y94.717 E30.37637
G0 X112.889 Y94.787
G0 F3600 X112.819 Y94.151
G1 F1800 X111.391 Y92.723 E30.47713
G0 X111.321 Y92.653
G0 F3600 X111.956 Y92.723
G1 F1800 X112.819 Y93.586 E30.53802
G0 X112.889 Y93.656
G0 F3600 X112.819 Y93.02
G1 F1800 X112.522 Y92.723 E30.55897
G0 F3600 X107.18 Y93.038
G1 F1800 X112.819 Y98.677 E30.95683
G0 X112.889 Y98.747
G0 F3600 X112.819 Y99.243
G1 F1800 X107.18 Y93.603 E31.35473
G0 X107.11 Y93.533
G0 F3600 X107.18 Y94.169
G1 F1800 X112.819 Y99.808 E31.75259
G0 X112.889 Y99.878
G0 F3600 X112.819 Y100.374
G1 F1800 X107.18 Y94.735 E32.15046
G0 X107.11 Y94.665
G0 F3600 X107.18 Y95.301
G1 F1800 X112.819 Y100.94 E32.54832
G0 X112.889 Y101.01
G0 F3600 X112.819 Y101.505
G1 F1800 X107.18 Y95.866 E32.94618
G0 X107.11 Y95.796
G0 F3600 X107.18 Y96.432
G1 F1800 X112.819 Y102.071 E33.34404
G0 X112.889 Y102.141
G0 F3600 X112.819 Y102.637
G1 F1800 X107.18 Y96.998 E33.7419
G0 X107.11 Y96.928
G0 F3600 X107.18 Y97.563
G1 F1800 X112.819 Y103.202 E34.13976
G0 X112.889 Y103.272
G0 F3600 X112.819 Y103.768
G1 F1800 X107.18 Y98.129 E34.53763
G0 X107.11 Y98.059
G0 F3600 X107.18 Y98.695
G1 F1800 X112.819 Y104.334 E34.93549
G0 X112.889 Y104.404
G0 F3600 X112.819 Y104.899
G1 F1800 X107.18 Y99.26 E35.33335
G0 X107.11 Y99.19
G0 F3600 X107.18 Y99.826
G1 F1800 X112.819 Y105.465 E35.73121
G0 X112.889 Y105.535
G0 F3600 X112.819 Y106.031
G1 F1800 X107.18 Y100.392 E36.12907
G0 X107.11 Y100.322
G0 F3600 X107.18 Y100.957
G1 F1800 X112.819 Y106.597 E36.52697
G0 X112.889 Y106.667
G0 F3600 X112.819 Y107.162
G1 F1800 X107.18 Y101.523 E36.92483
G0 X107.11 Y101.453
G0 F3600 X107.18 Y102.089
G1 F1800 X112.819 Y107.728 E37.3227
G0 X112.889 Y107.798
G0 F3600 X112.819 Y108.294
G1 F1800 X107.18 Y102.654 E37.72059
G0 X107.11 Y102.584
G0 F3600 X107.18 Y103.22
G1 F1800 X112.819 Y108.859 E38.11845
G0 X112.889 Y108.929
G0 F3600 X112.819 Y109.425
G1 F1800 X107.18 Y103.786 E38.51632
G0 X107.11 Y103.716
G0 F3600 X107.18 Y104.351
G1 F1800 X112.819 Y109.991 E38.91421
G0 X112.889 Y110.061
G0 F3600 X112.819 Y110.556
G1 F1800 X107.18 Y104.917 E39.31208
G0 X107.11 Y104.847
G0 F3600 X107.18 Y105.483
G1 F1800 X112.819 Y111.122 E39.70994
G0 X112.889 Y111.192
G0 F3600 X112.819 Y111.688
G1 F1800 X107.18 Y106.049 E40.1078
G0 X107.11 Y105.979
G0 F3600 X107.18 Y106.614
G1 F1800 X112.819 Y112.253 E40.50566
G0 X112.889 Y112.323
G0 F3600 X112.819 Y112.819
G1 F1800 X107.18 Y107.18 E40.90352
G0 X107.11 Y107.11
G0 F3600 X107.18 Y107.746
G1 F1800 X112.819 Y113.385 E41.30138
G0 X112.889 Y113.455
G0 F3600 X112.819 Y113.95
G1 F1800 X107.18 Y108.311 E41.69925
G0 X107.11 Y108.241
G0 F3600 X107.18 Y108.877
G1 F1800 X112.819 Y114.516 E42.09711
G0 X112.889 Y114.586
G0 F3600 X112.819 Y115.082
G1 F1800 X107.18 Y109.443 E42.49497
G0 X107.11 Y109.373
G0 F3600 X107.18 Y110.008
G1 F1800 X112.819 Y115.648 E42.89287
G0 X112.889 Y115.718
G0 F3600 X112.819 Y116.213
G1 F1800 X107.18 Y110.574 E43.29073
G0 X107.11 Y110.504
G0 F3600 X107.18 Y111.14
G1 F1800 X112.819 Y116.779 E43.68859
G0 X112.889 Y116.849
G0 F3600 X112.819 Y117.345
G1 F1800 X107.18 Y111.705 E44.08649
G0 X107.11 Y111.635
G0 F3600 X107.18 Y112.271
G1 F1800 X112.819 Y117.91 E44.48435
G0 X112.889 Y117.98
G0 F3600 X112.819 Y118.476
G1 F1800 X107.18 Y112.837 E44.88221
G0 X107.11 Y112.767
G0 F3600 X107.18 Y113.402
G1 F1800 X112.819 Y119.042 E45.28011
G0 X112.889 Y119.112
G0 F3600 X112.819 Y119.607
G1 F1800 X107.18 Y113.968 E45.67797
G0 X107.11 Y113.898
G0 F3600 X107.18 Y114.534
G1 F1800 X112.819 Y120.173 E46.07583
G0 X112.889 Y120.243
G0 F3600 X112.819 Y120.739
G1 F1800 X107.18 Y115.1 E46.4737
G0 X107.11 Y115.03
G0 F3600 X107.18 Y115.665
G1 F1800 X112.819 Y121.304 E46.87156
G0 X112.889 Y121.374
G0 F3600 X112.819 Y121.87
G1 F1800 X107.18 Y116.231 E47.26942
G0 X107.11 Y116.161
G0 F3600 X107.18 Y116.797
G1 F1800 X112.819 Y122.436 E47.66728
G0 X112.889 Y122.506
G0 F3600 X112.819 Y123.001
G1 F1800 X107.18 Y117.362 E48.06514
G0 X107.11 Y117.292
G0 F3600 X107.18 Y117.928
G1 F1800 X112.819 Y123.567 E48.46301
G0 X112.889 Y123.637
G0 F3600 X112.819 Y124.133
G1 F1800 X107.18 Y118.494 E48.86087
G0 X107.11 Y118.424
G0 F3600 X107.18 Y119.059
G1 F1800 X112.819 Y124.698 E49.25873
G0 X112.889 Y124.768
G0 F3600 X112.819 Y125.264
G1 F1800 X107.18 Y119.625 E49.65659
G0 X107.11 Y119.555
G0 F3600 X107.18 Y120.191
G1 F1800 X112.659 Y125.67 E50.04316
G0 X112.729 Y125.74
G0 F3600 X112.094 Y125.67
G1 F1800 X107.18 Y120.756 E50.38987
G0 X107.11 Y120.686
G0 F3600 X107.18 Y121.322
G1 F1800 X111.528 Y125.67 E50.69665
G0 X111.598 Y125.74
G0 F3600 X110.962 Y125.67
G1 F1800 X107.18 Y121.888 E50.96349
G0 X107.11 Y121.818
G0 F3600 X107.18 Y122.453
M104 S187
G1 F1800 X110.397 Y125.67 E51.19047
G0 X110.467 Y125.74
G0 F3600 X109.831 Y125.67
G1 F1800 X107.18 Y123.019 E51.37751
G0 X107.11 Y122.949
G0 F3600 X107.18 Y123.585
G1 F1800 X109.265 Y125.67 E51.52462
G0 X109.335 Y125.74
G0 F3600 X108.699 Y125.67
G1 F1800 X107.18 Y124.15 E51.63182
G0 X107.11 Y124.08
G0 F3600 X107.18 Y124.716
G1 F1800 X108.134 Y125.67 E51.69913
G0 X108.204 Y125.74
G0 F3600 X107.568 Y125.67
G1 F1800 X107.18 Y125.282 E51.72651
;TIME_ELAPSED:44.994379
;LAYER:1
M140 S60
M106 S255
G0 F5400 X107.001 Y126.27 Z0.5
;TYPE:WALL-INNER
G1 F2700 X107.001 Y91.817 E52.87242
G1 X112.8 Y91.816 E53.0653
G1 X113 Y91.816 E53.07195
G1 X113 Y92.016 E53.07626
G1 X113 Y126.469 E54.22217
G1 X107.201 Y126.47 E54.41504
G1 X107.001 Y126.47 E54.4217
G1 X107.001 Y126.27 E54.426
G0 F5400 X106.601 Y126.67
G1 F2700 X106.601 Y91.417 E55.59852
G1 X113.2 Y91.416 E55.81801
G1 X113.4 Y91.416 E55.82466
G1 X113.4 Y91.616 E55.82896
G1 X113.4 Y126.869 E57.00148
G1 X106.801 Y126.87 E57.22097
G1 X106.601 Y126.87 E57.22762
G1 X106.601 Y126.67 E57.23193
G0 F5400 X106.201 Y127.07
;TYPE:WALL-OUTER
G1 F1800 X106.201 Y91.017 E58.43105
G1 X113.6 Y91.016 E58.67715
G1 X113.8 Y91.016 E58.6838
G1 X113.8 Y91.216 E58.68811
G1 X113.8 Y127.269 E59.88723
G1 X106.401 Y127.27 E60.13333
G1 X106.201 Y127.27 E60.13998
G1 X106.201 Y127.07 E60.14428
G0 F5400 X106.201 Y126.87
G0 X107.338 Y126.289
;TYPE:SKIN
G1 F1350 X112.818 Y120.809 E60.40205
G0 X112.888 Y120.739
G0 F5400 X112.818 Y121.374
G1 F1350 X107.904 Y126.289 E60.63321
G0 X107.834 Y126.359
G0 F5400 X108.47 Y126.289
G1 F1350 X112.818 Y121.94 E60.83775
G0 X112.888 Y121.87
G0 F5400 X112.818 Y122.506
G1 F1350 X109.035 Y126.289 E61.01569
G0 X108.965 Y126.359
G0 F5400 X109.601 Y126.289
G1 F1350 X112.818 Y123.071 E61.16703
G0 X112.888 Y123.001
G0 F5400 X112.818 Y123.637
G1 F1350 X110.167 Y126.289 E61.29175
G0 X110.097 Y126.359
G0 F5400 X110.732 Y126.289
G1 F1350 X112.818 Y124.203 E61.38987
G0 X112.888 Y124.133
G0 F5400 X112.818 Y124.768
G1 F1350 X111.298 Y126.289 E61.46139
G0 X111.228 Y126.359
G0 F5400 X111.864 Y126.289
G1 F1350 X112.818 Y125.334 E61.50629
G0 X112.888 Y125.264
G0 F5400 X112.818 Y125.9
G1 F1350 X112.429 Y126.289 E61.52458
G0 F5400 X107.18 Y125.881
G1 F1350 X112.818 Y120.243 E61.78978
G0 X112.888 Y120.173
G0 F5400 X112.818 Y119.677
G1 F1350 X107.18 Y125.316 E62.055
G0 X107.11 Y125.386
G0 F5400 X107.18 Y124.75
G1 F1350 X112.818 Y119.112 E62.32019
G0 X112.888 Y119.042
G0 F5400 X112.818 Y118.546
G1 F1350 X107.18 Y124.184 E62.58538
G0 X107.11 Y124.254
G0 F5400 X107.18 Y123.619
G1 F1350 X112.818 Y117.98 E62.8506
G0 X112.888 Y117.91
G0 F5400 X112.818 Y117.415
G1 F1350 X107.18 Y123.053 E63.1158
G0 X107.11 Y123.123
G0 F5400 X107.18 Y122.487
G1 F1350 X112.818 Y116.849 E63.38099
G0 X112.888 Y116.779
G0 F5400 X112.818 Y116.283
G1 F1350 X107.18 Y121.922 E63.64621
G0 X107.11 Y121.992
G0 F5400 X107.18 Y121.356
G1 F1350 X112.818 Y115.718 E63.9114
G0 X112.888 Y115.648
G0 F5400 X112.818 Y115.152
G1 F1350 X107.18 Y120.79 E64.1766
G0 X107.11 Y120.86
G0 F5400 X107.18 Y120.225
G1 F1350 X112.818 Y114.586 E64.44181
G0 X112.888 Y114.516
G0 F5400 X112.818 Y114.02
G1 F1350 X107.18 Y119.659 E64.70703
G0 X107.11 Y119.729
G0 F5400 X107.18 Y119.093
G1 F1350 X112.818 Y113.455 E64.97223
G0 X112.888 Y113.385
G0 F5400 X112.818 Y112.889
G1 F1350 X107.18 Y118.528 E65.23744
G0 X107.11 Y118.598
G0 F5400 X107.18 Y117.962
G1 F1350 X112.818 Y112.323 E65.50266
G0 X112.888 Y112.253
G0 F5400 X112.818 Y111.758
G1 F1350 X107.18 Y117.396 E65.76786
G0 X107.11 Y117.466
G0 F5400 X107.18 Y116.831
G1 F1350 X112.818 Y111.192 E66.03307
G0 X112.888 Y111.122
G0 F5400 X112.818 Y110.626
G1 F1350 X107.18 Y116.265 E66.29829
G0 X107.11 Y116.335
G0 F5400 X107.18 Y115.699
G1 F1350 X112.818 Y110.061 E66.56349
G0 X112.888 Y109.991
G0 F5400 X112.818 Y109.495
G1 F1350 X107.18 Y115.133 E66.82868
G0 X107.11 Y115.203
G0 F5400 X107.18 Y114.568
G1 F1350 X112.818 Y108.929 E67.0939
G0 X112.888 Y108.859
G0 F5400 X112.818 Y108.364
G1 F1350 X107.18 Y114.002 E67.35909
G0 X107.11 Y114.072
G0 F5400 X107.18 Y113.436
G1 F1350 X112.818 Y107.798 E67.62429
G0 X112.888 Y107.728
G0 F5400 X112.818 Y107.232
G1 F1350 X107.18 Y112.871 E67.8895
G0 X107.11 Y112.941
G0 F5400 X107.18 Y112.305
G1 F1350 X112.818 Y106.667 E68.1547
G0 X112.888 Y106.597
G0 F5400 X112.818 Y106.101
G1 F1350 X107.18 Y111.739 E68.41989
G0 X107.11 Y111.809
G0 F5400 X107.18 Y111.174
G1 F1350 X112.818 Y105.535 E68.68511
G0 X112.888 Y105.465
G0 F5400 X112.818 Y104.97
G1 F1350 X107.18 Y110.608 E68.9503
G0 X107.11 Y110.678
G0 F5400 X107.18 Y110.042
G1 F1350 X112.818 Y104.404 E69.2155
G0 X112.888 Y104.334
G0 F5400 X112.818 Y103.838
G1 F1350 X107.18 Y109.477 E69.48072
G0 X107.11 Y109.547
G0 F5400 X107.18 Y108.911
G1 F1350 X112.818 Y103.272 E69.74593
G0 X112.888 Y103.202
G0 F5400 X112.818 Y102.707
G1 F1350 X107.18 Y108.345 E70.01113
G0 X107.11 Y108.415
G0 F5400 X107.18 Y107.78
G1 F1350 X112.818 Y102.141 E70.27635
G0 X112.888 Y102.071
G0 F5400 X112.818 Y101.575
G1 F1350 X107.18 Y107.214 E70.54156
G0 X107.11 Y107.284
G0 F5400 X107.18 Y106.648
G1 F1350 X112.818 Y101.01 E70.80676
G0 X112.888 Y100.94
G0 F5400 X112.818 Y100.444
