;FLAVOR:RepRap
;TIME:884
;Filament used: 0.532706m
;Layer height: 0.2
;Generated with Cura_SteamEngine 2.4.0
M190 S60
M104 S195
M109 S195
G21 ;metric values
G90 ;absolute positioning
M82 ;set extruder to absolute mode
M107 ;start with the fan off
G28 X0 Y0 ;move X/Y to min endstops
G28 Z0 ;move Z to min endstops
G1 Z15.0 F9000 ;move the platform down 15mm
G92 E0 ;zero the extruded length
G1 F200 E3 ;extrude 3mm of feed stock
G92 E0 ;zero the extruded length again
G1 F9000;Put printing message on LCD screen
M117 Printing...
;LAYER_COUNT:100
;LAYER:0
M107
G1 F2100 E-3
G0 F3600 X97.365 Y97.007 Z0.3
;TYPE:SKIRT
G1 F2100 E0
G1 F1800 X97.815 Y96.665 E0.0282
G1 X98.308 Y96.389 E0.05639
G1 X98.836 Y96.185 E0.08463
G1 X99.666 Y96.024 E0.12681
G1 X104.715 Y95.589 E0.37964
G1 X105.053 Y95.574 E0.39652
G1 X113.009 Y95.564 E0.79344
G1 X113.269 Y95.572 E0.80642
G1 X120.245 Y96.018 E1.15516
G1 X120.805 Y96.094 E1.18336
G1 X121.349 Y96.248 E1.21157
G1 X121.866 Y96.477 E1.23978
G1 X122.345 Y96.777 E1.26797
G1 X122.778 Y97.141 E1.29619
G1 X123.154 Y97.563 E1.32439
G1 X123.468 Y98.034 E1.35263
G1 X123.712 Y98.544 E1.38084
G1 X123.881 Y99.083 E1.40902
G1 X123.973 Y99.644 E1.43738
G1 X124.419 Y104.493 E1.68032
G1 X124.436 Y104.864 E1.69885
G1 X124.423 Y114.632 E2.18618
G1 X124.41 Y114.95 E2.20206
G1 X123.976 Y120.314 E2.47054
G1 X123.891 Y120.872 E2.4987
G1 X123.727 Y121.414 E2.52696
G1 X123.49 Y121.927 E2.55515
G1 X123.182 Y122.401 E2.58335
G1 X122.81 Y122.827 E2.61157
G1 X122.382 Y123.196 E2.63976
G1 X121.906 Y123.502 E2.66799
G1 X121.392 Y123.737 E2.69619
G1 X120.85 Y123.897 E2.72438
G1 X120.291 Y123.98 E2.75258
G1 X119.989 Y123.991 E2.76765
G1 X100.009 Y123.991 E3.76446
G1 X99.445 Y123.951 E3.79267
G1 X98.892 Y123.832 E3.82089
G1 X98.362 Y123.636 E3.84908
G1 X97.865 Y123.368 E3.87725
G1 X97.41 Y123.032 E3.90547
G1 X97.007 Y122.635 E3.93369
G1 X96.665 Y122.185 E3.96189
G1 X96.389 Y121.692 E3.99008
G1 X96.185 Y121.164 E4.01832
G1 X96.058 Y120.614 E4.04648
G1 X96.009 Y119.991 E4.07766
G1 X96.009 Y100.009 E5.07456
G1 X96.049 Y99.445 E5.10277
G1 X96.168 Y98.892 E5.13099
G1 X96.364 Y98.362 E5.15919
G1 X96.632 Y97.865 E5.18736
G1 X96.968 Y97.41 E5.21558
G1 X97.365 Y97.007 E5.2438
G0 F3600 X97.756 Y97.201
G1 F1800 X98.198 Y96.898 E5.27053
G1 X98.681 Y96.663 E5.29733
G1 X99.192 Y96.503 E5.32405
G1 X99.7 Y96.422 E5.34971
G1 X104.749 Y95.987 E5.60254
G1 X105.053 Y95.974 E5.61772
G1 X113.009 Y95.964 E6.01465
G1 X113.244 Y95.971 E6.02638
G1 X120.22 Y96.417 E6.37512
G1 X120.751 Y96.491 E6.40187
G1 X121.265 Y96.643 E6.42861
G1 X121.751 Y96.87 E6.45537
G1 X122.198 Y97.167 E6.48214
G1 X122.596 Y97.526 E6.50889
G1 X122.936 Y97.941 E6.53565
G1 X123.211 Y98.401 E6.56239
G1 X123.414 Y98.898 E6.58917
G1 X123.575 Y99.68 E6.62901
G1 X124.021 Y104.529 E6.87194
G1 X124.036 Y104.864 E6.88867
G1 X124.023 Y114.632 E7.376
G1 X124.011 Y114.917 E7.39023
G1 X123.577 Y120.281 E7.65872
G1 X123.494 Y120.811 E7.68548
G1 X123.334 Y121.323 E7.71225
G1 X123.099 Y121.805 E7.739
G1 X122.795 Y122.247 E7.76576
G1 X122.428 Y122.638 E7.79252
G1 X122.008 Y122.971 E7.81926
G1 X121.543 Y123.238 E7.84601
G1 X121.043 Y123.433 E7.87278
G1 X120.52 Y123.552 E7.89954
G1 X119.989 Y123.591 E7.92611
G1 X100.009 Y123.591 E8.92291
G1 X99.474 Y123.551 E8.94968
G1 X98.951 Y123.432 E8.97644
G1 X98.452 Y123.237 E9.00317
G1 X97.987 Y122.969 E9.02994
G1 X97.567 Y122.636 E9.05668
G1 X97.201 Y122.244 E9.08344
G1 X96.898 Y121.802 E9.11017
G1 X96.663 Y121.319 E9.13697
G1 X96.503 Y120.808 E9.16369
G1 X96.42 Y120.278 E9.19045
G1 X96.409 Y119.991 E9.20478
G1 X96.409 Y100.009 E10.20169
G1 X96.449 Y99.474 E10.22845
G1 X96.568 Y98.951 E10.25521
G1 X96.763 Y98.452 E10.28194
G1 X97.031 Y97.987 E10.30872
G1 X97.364 Y97.567 E10.33546
G1 X97.756 Y97.201 E10.36221
G0 F3600 X98.145 Y97.408
G1 F1800 X98.578 Y97.147 E10.38744
G1 X99.046 Y96.957 E10.41264
G1 X99.734 Y96.821 E10.44762
G1 X104.783 Y96.386 E10.70045
G1 X105.054 Y96.374 E10.71399
G1 X113.01 Y96.364 E11.11091
G1 X113.218 Y96.371 E11.1213
G1 X120.194 Y96.817 E11.47004
G1 X120.695 Y96.889 E11.49529
G1 X121.177 Y97.038 E11.52046
G1 X121.631 Y97.263 E11.54574
G1 X122.043 Y97.555 E11.57094
G1 X122.404 Y97.909 E11.59616
G1 X122.705 Y98.316 E11.62141
G1 X122.938 Y98.764 E11.64661
G1 X123.097 Y99.244 E11.67183
G1 X123.177 Y99.717 E11.69577
G1 X123.623 Y104.566 E11.93871
G1 X123.636 Y104.863 E11.95354
G1 X123.623 Y114.631 E12.44087
G1 X123.613 Y114.885 E12.45355
G1 X123.179 Y120.249 E12.72203
G1 X123.098 Y120.748 E12.74725
G1 X122.94 Y121.228 E12.77247
G1 X122.708 Y121.678 E12.79772
G1 X122.409 Y122.085 E12.82292
G1 X122.049 Y122.44 E12.84814
G1 X121.637 Y122.734 E12.8734
G1 X121.185 Y122.959 E12.89859
G1 X120.702 Y123.11 E12.92383
G1 X119.989 Y123.191 E12.95963
G1 X100.009 Y123.191 E13.95644
G1 X99.505 Y123.151 E13.98166
G1 X99.014 Y123.032 E14.00687
G1 X98.547 Y122.838 E14.0321
G1 X98.117 Y122.572 E14.05732
G1 X97.734 Y122.242 E14.08255
G1 X97.408 Y121.855 E14.10779
G1 X97.147 Y121.422 E14.13301
G1 X96.957 Y120.954 E14.15821
G1 X96.844 Y120.461 E14.18345
G1 X96.809 Y119.991 E14.20696
G1 X96.809 Y100.009 E15.20387
G1 X96.849 Y99.505 E15.22909
G1 X96.968 Y99.014 E15.2543
G1 X97.162 Y98.547 E15.27952
G1 X97.428 Y98.117 E15.30475
G1 X97.758 Y97.734 E15.32997
G1 X98.145 Y97.408 E15.35522
G1 F2100 E12.35522
G0 F3600 X100.214 Y99.335
G0 X100.214 Y100.214
G0 X100.27 Y100.27
G0 X100.2 Y100.2
;TYPE:WALL-OUTER
G1 F2100 E15.35522
G1 F1800 X119.8 Y100.2 E16.33307
G1 X119.8 Y119.8 E17.31091
G1 X100.2 Y119.8 E18.28876
G1 X100.2 Y100.2 E19.26661
G0 F3600 X100.4 Y100.2
G0 X100.379 Y100.379
;TYPE:SKIN
G1 F1800 X119.619 Y119.619 E20.6241
G0 X119.689 Y119.689
G0 F3600 X119.619 Y119.054
G1 F1800 X100.945 Y100.38 E21.94165
G0 X100.875 Y100.31
G0 F3600 X101.511 Y100.38
G1 F1800 X119.619 Y118.488 E23.21926
G0 X119.689 Y118.558
G0 F3600 X119.619 Y117.922
G1 F1800 X102.077 Y100.38 E24.45695
G0 X102.007 Y100.31
G0 F3600 X102.642 Y100.38
G1 F1800 X119.619 Y117.357 E25.65477
G0 X119.689 Y117.427
G0 F3600 X119.619 Y116.791
G1 F1800 X103.208 Y100.38 E26.81265
G0 X103.138 Y100.31
G0 F3600 X103.774 Y100.38
G1 F1800 X119.619 Y116.225 E27.9306
G0 X119.689 Y116.295
G0 F3600 X119.619 Y115.66
G1 F1800 X104.339 Y100.38 E29.00869
G0 X104.269 Y100.31
G0 F3600 X104.905 Y100.38
G1 F1800 X119.619 Y115.094 E30.04684
G0 X119.689 Y115.164
G0 F3600 X119.619 Y114.528
G1 F1800 X105.471 Y100.38 E31.04506
G0 X105.401 Y100.31
G0 F3600 X106.037 Y100.38
G1 F1800 X119.619 Y113.962 E32.00334
G0 X119.689 Y114.032
G0 F3600 X119.619 Y113.397
G1 F1800 X106.602 Y100.38 E32.92176
G0 X106.532 Y100.31
G0 F3600 X107.168 Y100.38
G1 F1800 X119.619 Y112.831 E33.80025
G0 X119.689 Y112.901
G0 F3600 X119.619 Y112.265
G1 F1800 X107.734 Y100.38 E34.6388
G0 X107.664 Y100.31
G0 F3600 X108.299 Y100.38
G1 F1800 X119.619 Y111.7 E35.43748
G0 X119.689 Y111.77
G0 F3600 X119.619 Y111.134
G1 F1800 X108.865 Y100.38 E36.19624
G0 X108.795 Y100.31
G0 F3600 X109.431 Y100.38
G1 F1800 X119.619 Y110.568 E36.91506
G0 X119.689 Y110.638
G0 F3600 X119.619 Y110.003
G1 F1800 X109.996 Y100.38 E37.59401
G0 X109.926 Y100.31
G0 F3600 X110.562 Y100.38
G1 F1800 X119.619 Y109.437 E38.23303
G0 X119.689 Y109.507
G0 F3600 X119.619 Y108.871
G1 F1800 X111.128 Y100.38 E38.83212
G0 X111.058 Y100.31
G0 F3600 X111.693 Y100.38
G1 F1800 X119.619 Y108.306 E39.39134
G0 X119.689 Y108.376
G0 F3600 X119.619 Y107.74
G1 F1800 X112.259 Y100.38 E39.91063
G0 X112.189 Y100.31
G0 F3600 X112.825 Y100.38
G1 F1800 X119.619 Y107.174 E40.38998
G0 X119.689 Y107.244
G0 F3600 X119.619 Y106.609
G1 F1800 X113.39 Y100.38 E40.82947
G0 X113.32 Y100.31
G0 F3600 X113.956 Y100.38
G1 F1800 X119.619 Y106.043 E41.22902
G0 X119.689 Y106.113
G0 F3600 X119.619 Y105.477
G1 F1800 X114.522 Y100.38 E41.58865
G0 X114.452 Y100.31
G0 F3600 X115.087 Y100.38
G1 F1800 X119.619 Y104.912 E41.9084
G0 X119.689 Y104.982
G0 F3600 X119.619 Y104.346
G1 F1800 X115.653 Y100.38 E42.18823
G0 X115.583 Y100.31
G0 F3600 X116.219 Y100.38
G1 F1800 X119.619 Y103.78 E42.42811
G0 X119.689 Y103.85
G0 F3600 X119.619 Y103.214
G1 F1800 X116.785 Y100.38 E42.62807
G0 X116.715 Y100.31
G0 F3600 X117.35 Y100.38
G1 F1800 X119.619 Y102.649 E42.78816
G0 X119.689 Y102.719
G0 F3600 X119.619 Y102.083
G1 F1800 X117.916 Y100.38 E42.90831
G0 X117.846 Y100.31
G0 F3600 X118.482 Y100.38
G1 F1800 X119.619 Y101.517 E42.98854
G0 X119.689 Y101.587
G0 F3600 X119.619 Y100.952
G1 F1800 X119.047 Y100.38 E43.02889
G0 X118.977 Y100.31
G0 F3600 X100.379 Y100.945
G1 F1800 X119.053 Y119.619 E44.34644
G0 X119.123 Y119.689
G0 F3600 X118.487 Y119.619
G1 F1800 X100.379 Y101.51 E45.6241
G0 X100.309 Y101.44
G0 F3600 X100.379 Y102.076
G1 F1800 X117.922 Y119.619 E46.86185
G0 X117.992 Y119.689
G0 F3600 X117.356 Y119.619
G1 F1800 X100.379 Y102.642 E48.05967
G0 X100.309 Y102.572
G0 F3600 X100.379 Y103.207
G1 F1800 X116.79 Y119.619 E49.21759
G0 X116.86 Y119.689
G0 F3600 X116.225 Y119.619
G1 F1800 X100.379 Y103.773 E50.33561
G0 X100.309 Y103.703
G0 F3600 X100.379 Y104.339
G1 F1800 X115.659 Y119.619 E51.4137
G0 X115.729 Y119.689
G0 F3600 X115.093 Y119.619
G1 F1800 X100.379 Y104.904 E52.45188
G0 X100.309 Y104.834
G0 F3600 X100.379 Y105.47
G1 F1800 X114.527 Y119.619 E53.45014
G0 X114.597 Y119.689
G0 F3600 X113.962 Y119.619
G1 F1800 X100.379 Y106.036 E54.40849
G0 X100.309 Y105.966
G0 F3600 X100.379 Y106.602
G1 F1800 X113.396 Y119.619 E55.32691
G0 X113.466 Y119.689
G0 F3600 X112.83 Y119.619
G1 F1800 X100.379 Y107.167 E56.20543
G0 X100.309 Y107.097
G0 F3600 X100.379 Y107.733
G1 F1800 X112.265 Y119.619 E57.04405
G0 X112.335 Y119.689
G0 F3600 X111.699 Y119.619
G1 F1800 X100.379 Y108.299 E57.84274
G0 X100.309 Y108.229
G0 F3600 X100.379 Y108.864
G1 F1800 X111.133 Y119.619 E58.60153
G0 X111.203 Y119.689
G0 F3600 X110.568 Y119.619
G1 F1800 X100.379 Y109.43 E59.32042
G0 X100.309 Y109.36
G0 F3600 X100.379 Y109.996
G1 F1800 X110.002 Y119.619 E59.99937
G0 X110.072 Y119.689
G0 F3600 X109.436 Y119.619
G1 F1800 X100.379 Y110.561 E60.63843
G0 X100.309 Y110.491
G0 F3600 X100.379 Y111.127
G1 F1800 X108.871 Y119.619 E61.23758
G0 X108.941 Y119.689
G0 F3600 X108.305 Y119.619
G1 F1800 X100.379 Y111.693 E61.79681
G0 X100.309 Y111.623
G0 F3600 X100.379 Y112.258
G1 F1800 X107.739 Y119.619 E62.31613
G0 X107.809 Y119.689
G0 F3600 X107.174 Y119.619
G1 F1800 X100.379 Y112.824 E62.79555
G0 X100.309 Y112.754
G0 F3600 X100.379 Y113.39
G1 F1800 X106.608 Y119.619 E63.23504
G0 X106.678 Y119.689
G0 F3600 X106.042 Y119.619
G1 F1800 X100.379 Y113.955 E63.63463
G0 X100.309 Y113.885
G0 F3600 X100.379 Y114.521
G1 F1800 X105.476 Y119.619 E63.99429
G0 X105.546 Y119.689
G0 F3600 X104.911 Y119.619
G1 F1800 X100.379 Y115.087 E64.31405
G0 X100.309 Y115.017
G0 F3600 X100.379 Y115.652
G1 F1800 X104.345 Y119.619 E64.5939
G0 X104.415 Y119.689
G0 F3600 X103.779 Y119.619
M104 S190
G1 F1800 X100.379 Y116.218 E64.83383
G0 X100.309 Y116.148
G0 F3600 X100.379 Y116.784
G1 F1800 X103.214 Y119.619 E65.03385
G0 X103.284 Y119.689
G0 F3600 X102.648 Y119.619
G1 F1800 X100.379 Y117.35 E65.19394
G0 X100.309 Y117.28
G0 F3600 X100.379 Y117.915
G1 F1800 X102.082 Y119.619 E65.31413
G0 X102.152 Y119.689
G0 F3600 X101.517 Y119.619
G1 F1800 X100.379 Y118.481 E65.39443
G0 X100.309 Y118.411
G0 F3600 X100.379 Y119.047
G1 F1800 X100.951 Y119.619 E65.43478
G0 X101.021 Y119.689
G0 F3600 X101.021 Y119.4
;TIME_ELAPSED:54.332052
;LAYER:1
M140 S60
M106 S255
G0 F5400 X100.2 Y119.8 Z0.5
;TYPE:WALL-OUTER
G1 F1800 X100.2 Y100.2 E66.08668
G1 X119.8 Y100.2 E66.73858
G1 X119.8 Y119.8 E67.39048
G1 X100.2 Y119.8 E68.04238
G0 F5400 X100.2 Y119.6
G0 X100.431 Y119.619
;TYPE:SKIN
G1 F1350 X119.619 Y100.432 E68.9449
G0 X119.689 Y100.362
G0 F5400 X119.106 Y100.379
G1 F1350 X100.38 Y119.105 E69.82571
G0 X100.31 Y119.175
G0 F5400 X100.38 Y118.54
G1 F1350 X118.54 Y100.379 E70.67993
G0 X118.61 Y100.309
G0 F5400 X117.975 Y100.379
G1 F1350 X100.38 Y117.974 E71.50754
G0 X100.31 Y118.044
G0 F5400 X100.38 Y117.408
G1 F1350 X117.409 Y100.379 E72.30853
G0 X117.479 Y100.309
G0 F5400 X116.843 Y100.379
G1 F1350 X100.38 Y116.843 E73.08293
G0 X100.31 Y116.913
G0 F5400 X100.38 Y116.277
G1 F1350 X116.278 Y100.379 E73.83072
G0 X116.348 Y100.309
G0 F5400 X115.712 Y100.379
G1 F1350 X100.38 Y115.711 E74.55189
G0 X100.31 Y115.781
G0 F5400 X100.38 Y115.145
G1 F1350 X115.146 Y100.379 E75.24644
G0 X115.216 Y100.309
G0 F5400 X114.58 Y100.379
G1 F1350 X100.38 Y114.58 E75.91439
G0 X100.31 Y114.65
G0 F5400 X100.38 Y114.014
G1 F1350 X114.015 Y100.379 E76.55573
G0 X114.085 Y100.309
G0 F5400 X113.449 Y100.379
G1 F1350 X100.38 Y113.448 E77.17046
G0 X100.31 Y113.518
G0 F5400 X100.38 Y112.883
G1 F1350 X112.883 Y100.379 E77.75859
G0 X112.953 Y100.309
G0 F5400 X112.318 Y100.379
G1 F1350 X100.38 Y112.317 E78.32011
G0 X100.31 Y112.387
G0 F5400 X100.38 Y111.751
G1 F1350 X111.752 Y100.379 E78.85502
G0 X111.822 Y100.309
G0 F5400 X111.186 Y100.379
G1 F1350 X100.38 Y111.186 E79.36332
G0 X100.31 Y111.256
G0 F5400 X100.38 Y110.62
G1 F1350 X110.621 Y100.379 E79.84503
G0 X110.691 Y100.309
G0 F5400 X110.055 Y100.379
G1 F1350 X100.38 Y110.054 E80.30011
G0 X100.31 Y110.124
G0 F5400 X100.38 Y109.489
G1 F1350 X109.489 Y100.379 E80.72859
G0 X109.559 Y100.309
G0 F5400 X108.924 Y100.379
G1 F1350 X100.38 Y108.923 E81.13048
G0 X100.31 Y108.993
G0 F5400 X100.38 Y108.357
G1 F1350 X108.358 Y100.379 E81.50574
G0 X108.428 Y100.309
G0 F5400 X107.792 Y100.379
G1 F1350 X100.38 Y107.792 E81.8544
G0 X100.31 Y107.862
G0 F5400 X100.38 Y107.226
G1 F1350 X107.227 Y100.379 E82.17646
G0 X107.297 Y100.309
G0 F5400 X106.661 Y100.379
G1 F1350 X100.38 Y106.66 E82.4719
G0 X100.31 Y106.73
G0 F5400 X100.38 Y106.095
G1 F1350 X106.095 Y100.379 E82.74074
G0 X106.165 Y100.309
G0 F5400 X105.53 Y100.379
G1 F1350 X100.38 Y105.529 E82.98298
G0 X100.31 Y105.599
G0 F5400 X100.38 Y104.963
G1 F1350 X104.964 Y100.379 E83.1986
G0 X105.034 Y100.309
G0 F5400 X104.398 Y100.379
G1 F1350 X100.38 Y104.397 E83.38759
G0 X100.31 Y104.467
G0 F5400 X100.38 Y103.832
G1 F1350 X103.832 Y100.379 E83.54998
G0 X103.902 Y100.309
G0 F5400 X103.267 Y100.379
G1 F1350 X100.38 Y103.266 E83.68578
G0 X100.31 Y103.336
G0 F5400 X100.38 Y102.7
G1 F1350 X102.701 Y100.379 E83.79495
G0 X102.771 Y100.309
G0 F5400 X102.135 Y100.379
G1 F1350 X100.38 Y102.135 E83.87753
G0 X100.31 Y102.205
G0 F5400 X100.38 Y101.569
G1 F1350 X101.57 Y100.379 E83.9335
G0 X101.64 Y100.309
G0 F5400 X101.004 Y100.379
G1 F1350 X100.38 Y101.003 E83.96285
G0 X100.31 Y101.073
G0 F5400 X100.38 Y100.438
G1 F1350 X100.438 Y100.379 E83.9656
G0 F5400 X119.619 Y100.998
G1 F1350 X100.997 Y119.619 E84.8415
G0 X100.927 Y119.689
G0 F5400 X101.563 Y119.619
G1 F1350 X119.619 Y101.563 E85.6908
G0 X119.689 Y101.493
G0 F5400 X119.619 Y102.129
G1 F1350 X102.128 Y119.619 E86.5135
G0 X102.058 Y119.689
G0 F5400 X102.694 Y119.619
G1 F1350 X119.619 Y102.695 E87.30958
G0 X119.689 Y102.625
G0 F5400 X119.619 Y103.26
G1 F1350 X103.26 Y119.619 E88.07905
G0 X103.19 Y119.689
G0 F5400 X103.825 Y119.619
G1 F1350 X119.619 Y103.826 E88.82193
G0 X119.689 Y103.756
G0 F5400 X119.619 Y104.392
G1 F1350 X104.391 Y119.619 E89.53819
G0 X104.321 Y119.689
G0 F5400 X104.957 Y119.619
G1 F1350 X119.619 Y104.957 E90.22784
G0 X119.689 Y104.887
G0 F5400 X119.619 Y105.523
G1 F1350 X105.522 Y119.619 E90.8909
G0 X105.452 Y119.689
G0 F5400 X106.088 Y119.619
G1 F1350 X119.619 Y106.089 E91.52733
G0 X119.689 Y106.019
G0 F5400 X119.619 Y106.655
G1 F1350 X106.654 Y119.619 E92.13714
G0 X106.584 Y119.689
G0 F5400 X107.22 Y119.619
G1 F1350 X119.619 Y107.22 E92.72035
G0 X119.689 Y107.15
G0 F5400 X119.619 Y107.786
G1 F1350 X107.785 Y119.619 E93.27696
G0 X107.715 Y119.689
G0 F5400 X108.351 Y119.619
G1 F1350 X119.619 Y108.352 E93.80695
G0 X119.689 Y108.282
G0 F5400 X119.619 Y108.917
G1 F1350 X108.917 Y119.619 E94.31034
G0 X108.847 Y119.689
G0 F5400 X109.482 Y119.619
G1 F1350 X119.619 Y109.483 E94.78713
G0 X119.689 Y109.413
G0 F5400 X119.619 Y110.049
G1 F1350 X110.048 Y119.619 E95.2373
G0 X109.978 Y119.689
G0 F5400 X110.614 Y119.619
G1 F1350 X119.619 Y110.614 E95.66087
G0 X119.689 Y110.544
G0 F5400 X119.619 Y111.18
G1 F1350 X111.179 Y119.619 E96.05783
G0 X111.109 Y119.689
G0 F5400 X111.745 Y119.619
G1 F1350 X119.619 Y111.746 E96.42818
G0 X119.689 Y111.676
