;FLAVOR:RepRap
;TIME:1096
;Filament used: 1.03622m
;Layer height: 0.2
;Generated with Cura_SteamEngine 2.4.0
M190 S60
M104 S192
M109 S192
G21 ;metric values
G90 ;absolute positioning
M82 ;set extruder to absolute mode
M107 ;start with the fan off
G28 X0 Y0 ;move X/Y to min endstops
G28 Z0 ;move Z to min endstops
G1 Z15.0 F9000 ;move the platform down 15mm
G92 E0 ;zero the extruded length
G1 F200 E3 ;extrude 3mm of feed stock
G92 E0 ;zero the extruded length again
G1 F9000;Put printing message on LCD screen
M117 Printing...
;LAYER_COUNT:100
;LAYER:0
M107
G1 F2100 E-3
G0 F4500 X98.146 Y98.013 Z0.3
;TYPE:SKIRT
G1 F2100 E0
G1 F1500 X98.529 Y97.708 E0.02443
G1 X98.957 Y97.47 E0.04886
G1 X99.417 Y97.304 E0.07326
G1 X99.898 Y97.215 E0.09766
G1 X100.2 Y97.2 E0.11275
G1 X119.8 Y97.2 E1.09059
G1 X120.288 Y97.24 E1.11502
G1 X120.763 Y97.359 E1.13945
G1 X121.212 Y97.553 E1.16386
G1 X121.624 Y97.818 E1.18829
G1 X121.987 Y98.146 E1.2127
G1 X122.292 Y98.529 E1.23713
G1 X122.53 Y98.957 E1.26156
G1 X122.696 Y99.417 E1.28596
G1 X122.785 Y99.898 E1.31036
G1 X122.8 Y100.2 E1.32545
G1 X122.8 Y119.8 E2.3033
G1 X122.76 Y120.288 E2.32773
G1 X122.641 Y120.763 E2.35216
G1 X122.447 Y121.212 E2.37656
G1 X122.182 Y121.624 E2.401
G1 X121.854 Y121.987 E2.42541
G1 X121.471 Y122.292 E2.44983
G1 X121.043 Y122.53 E2.47427
G1 X120.583 Y122.696 E2.49866
G1 X120.102 Y122.785 E2.52307
G1 X119.8 Y122.8 E2.53815
G1 X100.2 Y122.8 E3.516
G1 X99.712 Y122.76 E3.54043
G1 X99.237 Y122.641 E3.56486
G1 X98.788 Y122.447 E3.58926
G1 X98.376 Y122.182 E3.6137
G1 X98.013 Y121.854 E3.63811
G1 X97.708 Y121.471 E3.66254
G1 X97.47 Y121.043 E3.68697
G1 X97.304 Y120.583 E3.71137
G1 X97.215 Y120.102 E3.73577
G1 X97.2 Y119.8 E3.75086
G1 X97.2 Y100.2 E4.7287
G1 X97.24 Y99.712 E4.75313
G1 X97.359 Y99.237 E4.77756
G1 X97.553 Y98.788 E4.80196
G1 X97.818 Y98.376 E4.8264
G1 X98.146 Y98.013 E4.85081
G0 F4500 X98.538 Y98.2
G1 F1500 X98.913 Y97.941 E4.87355
G1 X99.327 Y97.751 E4.89628
G1 X99.768 Y97.636 E4.91901
G1 X100.2 Y97.6 E4.94064
G1 X119.8 Y97.6 E5.91849
G1 X120.254 Y97.64 E5.94123
G1 X120.694 Y97.758 E5.96395
G1 X121.106 Y97.952 E5.98667
G1 X121.479 Y98.215 E6.00944
G1 X121.8 Y98.538 E6.03216
G1 X122.059 Y98.913 E6.0549
G1 X122.249 Y99.327 E6.07762
G1 X122.364 Y99.768 E6.10036
G1 X122.4 Y100.2 E6.12199
G1 X122.4 Y119.8 E7.09984
G1 X122.36 Y120.254 E7.12258
G1 X122.242 Y120.694 E7.1453
G1 X122.048 Y121.106 E7.16802
G1 X121.785 Y121.479 E7.19079
G1 X121.462 Y121.8 E7.21351
G1 X121.087 Y122.059 E7.23625
G1 X120.673 Y122.249 E7.25897
G1 X120.232 Y122.364 E7.28171
G1 X119.8 Y122.4 E7.30334
G1 X100.2 Y122.4 E8.28119
G1 X99.746 Y122.36 E8.30392
G1 X99.306 Y122.242 E8.32665
G1 X98.894 Y122.048 E8.34937
G1 X98.521 Y121.785 E8.37214
G1 X98.2 Y121.462 E8.39486
G1 X97.941 Y121.087 E8.4176
G1 X97.751 Y120.673 E8.44032
G1 X97.636 Y120.232 E8.46306
G1 X97.6 Y119.8 E8.48469
G1 X97.6 Y100.2 E9.46254
G1 X97.64 Y99.746 E9.48527
G1 X97.758 Y99.306 E9.508
G1 X97.952 Y98.894 E9.53072
G1 X98.215 Y98.521 E9.55349
G1 X98.538 Y98.2 E9.57621
G0 F4500 X98.927 Y98.406
G1 F1500 X99.29 Y98.197 E9.59711
G1 X99.687 Y98.061 E9.61804
G1 X100.2 Y98 E9.64382
G1 X119.8 Y98 E10.62166
G1 X120.217 Y98.04 E10.64256
G1 X120.619 Y98.158 E10.66347
G1 X120.991 Y98.351 E10.68437
G1 X121.32 Y98.61 E10.70526
G1 X121.594 Y98.927 E10.72617
G1 X121.803 Y99.29 E10.74707
G1 X121.939 Y99.687 E10.768
G1 X122 Y100.2 E10.79378
G1 X122 Y119.8 E11.77162
G1 X121.96 Y120.217 E11.79252
G1 X121.842 Y120.619 E11.81343
G1 X121.649 Y120.991 E11.83433
G1 X121.39 Y121.32 E11.85522
G1 X121.073 Y121.594 E11.87613
G1 X120.71 Y121.803 E11.89703
G1 X120.313 Y121.939 E11.91796
G1 X119.8 Y122 E11.94374
G1 X100.2 Y122 E12.92158
G1 X99.783 Y121.96 E12.94248
G1 X99.381 Y121.842 E12.96339
G1 X99.009 Y121.649 E12.98429
G1 X98.68 Y121.39 E13.00518
G1 X98.406 Y121.073 E13.02609
G1 X98.197 Y120.71 E13.04699
G1 X98.061 Y120.313 E13.06792
G1 X98 Y119.8 E13.0937
G1 X98 Y100.2 E14.07154
G1 X98.04 Y99.783 E14.09244
G1 X98.158 Y99.381 E14.11335
G1 X98.351 Y99.009 E14.13425
G1 X98.61 Y98.68 E14.15514
G1 X98.927 Y98.406 E14.17605
G0 F4500 X99.312 Y98.635
G1 F1500 X99.659 Y98.483 E14.19495
G1 X100.2 Y98.4 E14.22225
G1 X119.8 Y98.4 E15.2001
G1 X120.177 Y98.44 E15.21902
G1 X120.537 Y98.558 E15.23792
G1 X120.864 Y98.748 E15.25679
G1 X121.145 Y99.003 E15.27572
G1 X121.365 Y99.312 E15.29464
G1 X121.517 Y99.659 E15.31354
G1 X121.6 Y100.2 E15.34085
G1 X121.6 Y119.8 E16.31869
G1 X121.56 Y120.177 E16.33761
G1 X121.442 Y120.537 E16.35651
G1 X121.252 Y120.864 E16.37538
G1 X120.997 Y121.145 E16.39431
G1 X120.688 Y121.365 E16.41323
G1 X120.341 Y121.517 E16.43213
G1 X119.8 Y121.6 E16.45944
G1 X100.2 Y121.6 E17.43729
G1 X99.823 Y121.56 E17.4562
G1 X99.463 Y121.442 E17.4751
G1 X99.136 Y121.252 E17.49397
G1 X98.855 Y120.997 E17.5129
G1 X98.635 Y120.688 E17.53183
G1 X98.483 Y120.341 E17.55073
G1 X98.4 Y119.8 E17.57803
G1 X98.4 Y100.2 E18.55588
G1 X98.44 Y99.823 E18.57479
G1 X98.558 Y99.463 E18.59369
G1 X98.748 Y99.136 E18.61256
G1 X99.003 Y98.855 E18.63149
G1 X99.312 Y98.635 E18.65042
G0 F4500 X100.2 Y98.8
G1 F1500 X119.8 Y98.8 E19.62827
G1 X120.132 Y98.84 E19.64495
G1 X120.444 Y98.957 E19.66157
G1 X120.721 Y99.145 E19.67828
G1 X120.944 Y99.393 E19.69491
G1 X121.103 Y99.687 E19.71159
G1 X121.187 Y100.011 E19.72829
G1 X121.2 Y100.2 E19.73774
G1 X121.2 Y119.8 E20.71559
G1 X121.16 Y120.132 E20.73227
G1 X121.043 Y120.444 E20.7489
G1 X120.855 Y120.721 E20.7656
G1 X120.607 Y120.944 E20.78224
G1 X120.313 Y121.103 E20.79891
G1 X119.989 Y121.187 E20.81561
G1 X119.8 Y121.2 E20.82506
G1 X100.2 Y121.2 E21.80291
G1 X99.868 Y121.16 E21.81959
G1 X99.556 Y121.043 E21.83622
G1 X99.279 Y120.855 E21.85292
G1 X99.056 Y120.607 E21.86956
G1 X98.897 Y120.313 E21.88623
G1 X98.813 Y119.989 E21.90293
G1 X98.8 Y119.8 E21.91239
G1 X98.8 Y100.2 E22.89023
G1 X98.84 Y99.868 E22.90692
G1 X98.957 Y99.556 E22.92354
G1 X99.145 Y99.279 E22.94024
G1 X99.393 Y99.056 E22.95688
G1 X99.687 Y98.897 E22.97356
G1 X100.011 Y98.813 E22.99026
G1 X100.2 Y98.8 E22.99971
G0 F4500 X100.2 Y99.2
G1 F1500 X119.8 Y99.2 E23.97756
G1 X120.079 Y99.24 E23.99162
G1 X120.336 Y99.356 E24.00568
G1 X120.551 Y99.539 E24.01977
G1 X120.705 Y99.775 E24.03383
G1 X120.788 Y100.045 E24.04792
G1 X120.8 Y100.2 E24.05568
G1 X120.8 Y119.8 E25.03353
G1 X120.76 Y120.079 E25.04759
G1 X120.644 Y120.336 E25.06165
G1 X120.461 Y120.551 E25.07574
G1 X120.225 Y120.705 E25.0898
G1 X119.955 Y120.788 E25.10389
G1 X119.8 Y120.8 E25.11165
G1 X100.2 Y120.8 E26.0895
G1 X99.921 Y120.76 E26.10356
G1 X99.664 Y120.644 E26.11763
G1 X99.449 Y120.461 E26.13171
G1 X99.295 Y120.225 E26.14577
G1 X99.212 Y119.955 E26.15986
G1 X99.2 Y119.8 E26.16762
G1 X99.2 Y100.2 E27.14547
G1 X99.24 Y99.921 E27.15953
G1 X99.356 Y99.664 E27.1736
G1 X99.539 Y99.449 E27.18768
G1 X99.775 Y99.295 E27.20174
G1 X100.045 Y99.212 E27.21583
G1 X100.2 Y99.2 E27.22359
G0 F4500 X100.2 Y99.6
G1 F1500 X119.8 Y99.6 E28.20144
G1 X120.015 Y99.64 E28.21235
G1 X120.201 Y99.753 E28.22321
G1 X120.334 Y99.926 E28.23409
G1 X120.4 Y100.2 E28.24815
G1 X120.4 Y119.8 E29.226
G1 X120.36 Y120.015 E29.23691
G1 X120.247 Y120.201 E29.24777
G1 X120.074 Y120.334 E29.25866
G1 X119.8 Y120.4 E29.27272
G1 X100.2 Y120.4 E30.25057
G1 X99.985 Y120.36 E30.26148
G1 X99.799 Y120.247 E30.27233
G1 X99.666 Y120.074 E30.28322
G1 X99.6 Y119.8 E30.29728
G1 X99.6 Y100.2 E31.27513
G1 X99.64 Y99.985 E31.28604
G1 X99.753 Y99.799 E31.2969
G1 X99.926 Y99.666 E31.30778
G1 X100.2 Y99.6 E31.32185
G0 F4500 X100 Y100.2
G1 F1500 X100.039 Y100.081 E31.32809
G1 X100.2 Y100 E31.33708
G1 X119.8 Y100 E32.31493
G1 X119.919 Y100.039 E32.32118
G1 X120 Y100.2 E32.33017
G1 X120 Y119.8 E33.30802
G1 X119.961 Y119.919 E33.31427
G1 X119.8 Y120 E33.32326
G1 X100.2 Y120 E34.30111
G1 X100.081 Y119.961 E34.30735
G1 X100 Y119.8 E34.31635
G1 X100 Y100.2 E35.29419
G0 F4500 X100.8 Y100.8
;TYPE:WALL-INNER
G1 F1500 X119.2 Y100.8 E36.21217
G1 X119.2 Y119.2 E37.13015
G1 X100.8 Y119.2 E38.04813
G1 X100.8 Y100.8 E38.96611
G0 F4500 X100.4 Y100.4
;TYPE:WALL-OUTER
G1 F1500 X119.6 Y100.4 E39.92401
G1 X119.6 Y119.6 E40.8819
G1 X100.4 Y119.6 E41.83979
G1 X100.4 Y100.4 E42.79768
G0 F4500 X100.6 Y100.4
G0 X100.979 Y100.979
;TYPE:SKIN
G1 F1500 X119.019 Y119.019 E44.0705
G0 X119.089 Y119.089
G0 F4500 X119.019 Y118.453
G1 F1500 X101.545 Y100.979 E45.30339
G0 X101.475 Y100.909
G0 F4500 X102.111 Y100.979
G1 F1500 X119.019 Y117.888 E46.49637
G0 X119.089 Y117.958
G0 F4500 X119.019 Y117.322
G1 F1500 X102.676 Y100.979 E47.64946
G0 X102.606 Y100.909
G0 F4500 X103.242 Y100.979
G1 F1500 X119.019 Y116.756 E48.76261
G0 X119.089 Y116.826
G0 F4500 X119.019 Y116.191
G1 F1500 X103.808 Y100.979 E49.83586
G0 X103.738 Y100.909
G0 F4500 X104.373 Y100.979
G1 F1500 X119.019 Y115.625 E50.86922
G0 X119.089 Y115.695
G0 F4500 X119.019 Y115.059
G1 F1500 X104.939 Y100.979 E51.86264
G0 X104.869 Y100.909
G0 F4500 X105.505 Y100.979
G1 F1500 X119.019 Y114.494 E52.81616
G0 X119.089 Y114.564
G0 F4500 X119.019 Y113.928
G1 F1500 X106.07 Y100.979 E53.72978
G0 X106 Y100.909
G0 F4500 X106.636 Y100.979
G1 F1500 X119.019 Y113.362 E54.60347
G0 X119.089 Y113.432
G0 F4500 X119.019 Y112.796
G1 F1500 X107.202 Y100.979 E55.43722
G0 X107.132 Y100.909
G0 F4500 X107.768 Y100.979
G1 F1500 X119.019 Y112.231 E56.23108
G0 X119.089 Y112.301
G0 F4500 X119.019 Y111.665
G1 F1500 X108.333 Y100.979 E56.98503
G0 X108.263 Y100.909
G0 F4500 X108.899 Y100.979
G1 F1500 X119.019 Y111.099 E57.69905
G0 X119.089 Y111.169
G0 F4500 X119.019 Y110.534
G1 F1500 X109.465 Y100.979 E58.37317
G0 X109.395 Y100.909
G0 F4500 X110.03 Y100.979
G1 F1500 X119.019 Y109.968 E59.0074
G0 X119.089 Y110.038
G0 F4500 X119.019 Y109.402
G1 F1500 X110.596 Y100.979 E59.60168
G0 X110.526 Y100.909
G0 F4500 X111.162 Y100.979
G1 F1500 X119.019 Y108.837 E60.15607
G0 X119.089 Y108.907
G0 F4500 X119.019 Y108.271
G1 F1500 X111.727 Y100.979 E60.67056
G0 X111.657 Y100.909
G0 F4500 X112.293 Y100.979
G1 F1500 X119.019 Y107.705 E61.14512
G0 X119.089 Y107.775
G0 F4500 X119.019 Y107.14
G1 F1500 X112.859 Y100.979 E61.57978
G0 X112.789 Y100.909
G0 F4500 X113.424 Y100.979
G1 F1500 X119.019 Y106.574 E61.97453
G0 X119.089 Y106.644
G0 F4500 X119.019 Y106.008
G1 F1500 X113.99 Y100.979 E62.32936
G0 X113.92 Y100.909
G0 F4500 X114.556 Y100.979
G1 F1500 X119.019 Y105.443 E62.64428
G0 X119.089 Y105.513
G0 F4500 X119.019 Y104.877
G1 F1500 X115.121 Y100.979 E62.91931
G0 X115.051 Y100.909
G0 F4500 X115.687 Y100.979
G1 F1500 X119.019 Y104.311 E63.1544
G0 X119.089 Y104.381
G0 F4500 X119.019 Y103.745
G1 F1500 X116.253 Y100.979 E63.34955
G0 X116.183 Y100.909
G0 F4500 X116.818 Y100.979
G1 F1500 X119.019 Y103.18 E63.50484
G0 X119.089 Y103.25
G0 F4500 X119.019 Y102.614
G1 F1500 X117.384 Y100.979 E63.6202
G0 X117.314 Y100.909
G0 F4500 X117.95 Y100.979
G1 F1500 X119.019 Y102.048 E63.69563
G0 X119.089 Y102.118
G0 F4500 X119.019 Y101.483
G1 F1500 X118.516 Y100.979 E63.73115
G0 F4500 X100.979 Y101.545
G1 F1500 X118.453 Y119.019 E64.96404
G0 X118.523 Y119.089
G0 F4500 X117.888 Y119.019
G1 F1500 X100.979 Y102.111 E66.15702
G0 X100.909 Y102.041
G0 F4500 X100.979 Y102.676
G1 F1500 X117.322 Y119.019 E67.31011
G0 X117.392 Y119.089
G0 F4500 X116.756 Y119.019
G1 F1500 X100.979 Y103.242 E68.42326
G0 X100.909 Y103.172
G0 F4500 X100.979 Y103.808
G1 F1500 X116.191 Y119.019 E69.49651
G0 X116.261 Y119.089
G0 F4500 X115.625 Y119.019
G1 F1500 X100.979 Y104.373 E70.52987
G0 X100.909 Y104.303
G0 F4500 X100.979 Y104.939
G1 F1500 X115.059 Y119.019 E71.52329
G0 X115.129 Y119.089
G0 F4500 X114.494 Y119.019
G1 F1500 X100.979 Y105.505 E72.47681
G0 X100.909 Y105.435
G0 F4500 X100.979 Y106.07
G1 F1500 X113.928 Y119.019 E73.39043
G0 X113.998 Y119.089
G0 F4500 X113.362 Y119.019
G1 F1500 X100.979 Y106.636 E74.26412
G0 X100.909 Y106.566
G0 F4500 X100.979 Y107.202
G1 F1500 X112.796 Y119.019 E75.09787
G0 X112.866 Y119.089
G0 F4500 X112.231 Y119.019
G1 F1500 X100.979 Y107.768 E75.89173
G0 X100.909 Y107.698
G0 F4500 X100.979 Y108.333
G1 F1500 X111.665 Y119.019 E76.64568
G0 X111.735 Y119.089
G0 F4500 X111.099 Y119.019
G1 F1500 X100.979 Y108.899 E77.3597
G0 X100.909 Y108.829
G0 F4500 X100.979 Y109.465
G1 F1500 X110.534 Y119.019 E78.03382
G0 X110.604 Y119.089
G0 F4500 X109.968 Y119.019
G1 F1500 X100.979 Y110.03 E78.66805
G0 X100.909 Y109.96
G0 F4500 X100.979 Y110.596
G1 F1500 X109.402 Y119.019 E79.26233
G0 X109.472 Y119.089
G0 F4500 X108.837 Y119.019
G1 F1500 X100.979 Y111.162 E79.81672
G0 X100.909 Y111.092
G0 F4500 X100.979 Y111.727
G1 F1500 X108.271 Y119.019 E80.33121
G0 X108.341 Y119.089
G0 F4500 X107.705 Y119.019
G1 F1500 X100.979 Y112.293 E80.80577
G0 X100.909 Y112.223
G0 F4500 X100.979 Y112.859
G1 F1500 X107.14 Y119.019 E81.24043
G0 X107.21 Y119.089
G0 F4500 X106.574 Y119.019
G1 F1500 X100.979 Y113.424 E81.63518
G0 X100.909 Y113.354
G0 F4500 X100.979 Y113.99
G1 F1500 X106.008 Y119.019 E81.99001
G0 X106.078 Y119.089
G0 F4500 X105.443 Y119.019
G1 F1500 X100.979 Y114.556 E82.30493
G0 X100.909 Y114.486
M104 S187
G0 F4500 X100.979 Y115.121
G1 F1500 X104.877 Y119.019 E82.57996
G0 X104.947 Y119.089
G0 F4500 X104.311 Y119.019
G1 F1500 X100.979 Y115.687 E82.81505
G0 X100.909 Y115.617
G0 F4500 X100.979 Y116.253
G1 F1500 X103.745 Y119.019 E83.0102
G0 X103.815 Y119.089
G0 F4500 X103.18 Y119.019
G1 F1500 X100.979 Y116.818 E83.16549
G0 X100.909 Y116.748
G0 F4500 X100.979 Y117.384
G1 F1500 X102.614 Y119.019 E83.28085
G0 X102.684 Y119.089
G0 F4500 X102.048 Y119.019
G1 F1500 X100.979 Y117.95 E83.35628
G0 X100.909 Y117.88
G0 F4500 X100.979 Y118.516
G1 F1500 X101.483 Y119.019 E83.3918
G0 F4500 X101.483 Y118.8
;TIME_ELAPSED:77.289363
;LAYER:1
M140 S60
M106 S255
G0 F6750 X100.8 Y119.2 Z0.5
;TYPE:WALL-INNER
G1 F2250 X100.8 Y100.8 E84.00379
G1 X119.2 Y100.8 E84.61577
G1 X119.2 Y119.2 E85.22776
G1 X100.8 Y119.2 E85.83975
G0 F6750 X100.4 Y119.6
;TYPE:WALL-OUTER
G1 F1500 X100.4 Y100.4 E86.47834
G1 X119.6 Y100.4 E87.11694
G1 X119.6 Y119.6 E87.75553
G1 X100.4 Y119.6 E88.39413
G0 F6750 X100.4 Y119.4
G0 X101.032 Y119.019
;TYPE:SKIN
G1 F1500 X119.019 Y101.032 E89.24018
G0 X119.089 Y100.962
G0 F6750 X118.506 Y100.979
G1 F1500 X100.979 Y118.506 E90.0646
G0 X100.909 Y118.576
G0 F6750 X100.979 Y117.94
G1 F1500 X117.94 Y100.979 E90.86239
G0 X118.01 Y100.909
G0 F6750 X117.374 Y100.979
G1 F1500 X100.979 Y117.374 E91.63356
G0 X100.909 Y117.444
G0 F6750 X100.979 Y116.809
G1 F1500 X116.809 Y100.979 E92.37815
G0 X116.879 Y100.909
G0 F6750 X116.243 Y100.979
G1 F1500 X100.979 Y116.243 E93.09613
G0 X100.909 Y116.313
G0 F6750 X100.979 Y115.677
G1 F1500 X115.677 Y100.979 E93.78747
G0 X115.747 Y100.909
G0 F6750 X115.112 Y100.979
G1 F1500 X100.979 Y115.112 E94.45225
G0 X100.909 Y115.182
G0 F6750 X100.979 Y114.546
G1 F1500 X114.546 Y100.979 E95.0904
G0 X114.616 Y100.909
G0 F6750 X113.98 Y100.979
G1 F1500 X100.979 Y113.98 E95.70192
G0 X100.909 Y114.05
G0 F6750 X100.979 Y113.414
G1 F1500 X113.414 Y100.979 E96.28683
G0 X113.484 Y100.909
G0 F6750 X112.849 Y100.979
G1 F1500 X100.979 Y112.849 E96.84516
G0 X100.909 Y112.919
G0 F6750 X100.979 Y112.283
G1 F1500 X112.283 Y100.979 E97.37686
G0 X112.353 Y100.909
G0 F6750 X111.717 Y100.979
G1 F1500 X100.979 Y111.717 E97.88195
G0 X100.909 Y111.787
G0 F6750 X100.979 Y111.152
G1 F1500 X111.152 Y100.979 E98.36045
G0 X111.222 Y100.909
G0 F6750 X110.586 Y100.979
G1 F1500 X100.979 Y110.586 E98.81234
G0 X100.909 Y110.656
G0 F6750 X100.979 Y110.02
G1 F1500 X110.02 Y100.979 E99.2376
G0 X110.09 Y100.909
G0 F6750 X109.455 Y100.979
G1 F1500 X100.979 Y109.455 E99.63628
G0 X100.909 Y109.525
G0 F6750 X100.979 Y108.889
G1 F1500 X108.889 Y100.979 E100.00834
G0 X108.959 Y100.909
G0 F6750 X108.323 Y100.979
G1 F1500 X100.979 Y108.323 E100.35378
G0 X100.909 Y108.393
G0 F6750 X100.979 Y107.758
G1 F1500 X107.758 Y100.979 E100.67265
G0 X107.828 Y100.909
G0 F6750 X107.192 Y100.979
G1 F1500 X100.979 Y107.192 E100.96489
G0 X100.909 Y107.262
G0 F6750 X100.979 Y106.626
G1 F1500 X106.626 Y100.979 E101.23051
G0 X106.696 Y100.909
G0 F6750 X106.061 Y100.979
G1 F1500 X100.979 Y106.061 E101.46955
G0 X100.909 Y106.131
G0 F6750 X100.979 Y105.495
G1 F1500 X105.495 Y100.979 E101.68197
G0 X105.565 Y100.909
G0 F6750 X104.929 Y100.979
G1 F1500 X100.979 Y104.929 E101.86776
G0 X100.909 Y104.999
