;FLAVOR:RepRap
;TIME:1563
;Filament used: 1.15374m
;Layer height: 0.2
;Generated with Cura_SteamEngine 2.4.0
M190 S60
M104 S192
M109 S192
G21 ;metric values
G90 ;absolute positioning
M82 ;set extruder to absolute mode
M107 ;start with the fan off
G28 X0 Y0 ;move X/Y to min endstops
G28 Z0 ;move Z to min endstops
G1 Z15.0 F9000 ;move the platform down 15mm
G92 E0 ;zero the extruded length
G1 F200 E3 ;extrude 3mm of feed stock
G92 E0 ;zero the extruded length again
G1 F9000;Put printing message on LCD screen
M117 Printing...
;LAYER_COUNT:100
;LAYER:0
M107
G1 F2100 E-2.8
G0 F3000 X97.365 Y97.007 Z0.3
;TYPE:SKIRT
G1 F2100 E0
G1 F1500 X97.815 Y96.665 E0.02904
G1 X98.308 Y96.389 E0.05808
G1 X98.836 Y96.185 E0.08717
G1 X99.666 Y96.024 E0.13061
G1 X104.715 Y95.589 E0.39102
G1 X105.053 Y95.574 E0.40841
G1 X113.009 Y95.564 E0.81725
G1 X113.269 Y95.572 E0.83061
G1 X120.245 Y96.018 E1.18982
G1 X120.805 Y96.094 E1.21886
G1 X121.349 Y96.248 E1.24791
G1 X121.866 Y96.477 E1.27697
G1 X122.345 Y96.777 E1.30601
G1 X122.778 Y97.141 E1.33508
G1 X123.154 Y97.563 E1.36413
G1 X123.468 Y98.034 E1.39321
G1 X123.712 Y98.544 E1.42227
G1 X123.881 Y99.083 E1.45129
G1 X123.973 Y99.644 E1.48051
G1 X124.419 Y104.493 E1.73073
G1 X124.436 Y104.864 E1.74982
G1 X124.423 Y114.632 E2.25177
G1 X124.41 Y114.95 E2.26812
G1 X123.976 Y120.314 E2.54466
G1 X123.891 Y120.872 E2.57366
G1 X123.727 Y121.414 E2.60276
G1 X123.49 Y121.927 E2.6318
G1 X123.182 Y122.401 E2.66085
G1 X122.81 Y122.827 E2.68991
G1 X122.382 Y123.196 E2.71895
G1 X121.906 Y123.502 E2.74803
G1 X121.392 Y123.737 E2.77707
G1 X120.85 Y123.897 E2.80611
G1 X120.291 Y123.98 E2.83515
G1 X119.989 Y123.991 E2.85068
G1 X100.009 Y123.991 E3.87739
G1 X99.445 Y123.951 E3.90645
G1 X98.892 Y123.832 E3.93552
G1 X98.362 Y123.636 E3.96455
G1 X97.865 Y123.368 E3.99357
G1 X97.41 Y123.032 E4.02263
G1 X97.007 Y122.635 E4.0517
G1 X96.665 Y122.185 E4.08075
G1 X96.389 Y121.692 E4.10978
G1 X96.185 Y121.164 E4.13887
G1 X96.058 Y120.614 E4.16788
G1 X96.009 Y119.991 E4.19999
G1 X96.009 Y100.009 E5.2268
G1 X96.049 Y99.445 E5.25586
G1 X96.168 Y98.892 E5.28492
G1 X96.364 Y98.362 E5.31396
G1 X96.632 Y97.865 E5.34298
G1 X96.968 Y97.41 E5.37204
G1 X97.365 Y97.007 E5.40111
G0 F3000 X97.756 Y97.201
G1 F1500 X98.198 Y96.898 E5.42865
G1 X98.681 Y96.663 E5.45625
G1 X99.192 Y96.503 E5.48377
G1 X99.7 Y96.422 E5.5102
G1 X104.749 Y95.987 E5.77061
G1 X105.053 Y95.974 E5.78625
G1 X113.009 Y95.964 E6.19509
G1 X113.244 Y95.971 E6.20717
G1 X120.22 Y96.417 E6.56637
G1 X120.751 Y96.491 E6.59392
G1 X121.265 Y96.643 E6.62147
G1 X121.751 Y96.87 E6.64903
G1 X122.198 Y97.167 E6.67661
G1 X122.596 Y97.526 E6.70415
G1 X122.936 Y97.941 E6.73172
G1 X123.211 Y98.401 E6.75926
G1 X123.414 Y98.898 E6.78685
G1 X123.575 Y99.68 E6.82788
G1 X124.021 Y104.529 E7.0781
G1 X124.036 Y104.864 E7.09533
G1 X124.023 Y114.632 E7.59728
G1 X124.011 Y114.917 E7.61194
G1 X123.577 Y120.281 E7.88848
G1 X123.494 Y120.811 E7.91605
G1 X123.334 Y121.323 E7.94361
G1 X123.099 Y121.805 E7.97117
G1 X122.795 Y122.247 E7.99873
G1 X122.428 Y122.638 E8.02629
G1 X122.008 Y122.971 E8.05383
G1 X121.543 Y123.238 E8.08139
G1 X121.043 Y123.433 E8.10897
G1 X120.52 Y123.552 E8.13653
G1 X119.989 Y123.591 E8.16389
G1 X100.009 Y123.591 E9.1906
G1 X99.474 Y123.551 E9.21817
G1 X98.951 Y123.432 E9.24573
G1 X98.452 Y123.237 E9.27326
G1 X97.987 Y122.969 E9.30084
G1 X97.567 Y122.636 E9.32838
G1 X97.201 Y122.244 E9.35594
G1 X96.898 Y121.802 E9.38348
G1 X96.663 Y121.319 E9.41108
G1 X96.503 Y120.808 E9.4386
G1 X96.42 Y120.278 E9.46616
G1 X96.409 Y119.991 E9.48092
G1 X96.409 Y100.009 E10.50774
G1 X96.449 Y99.474 E10.5353
G1 X96.568 Y98.951 E10.56287
G1 X96.763 Y98.452 E10.5904
G1 X97.031 Y97.987 E10.61798
G1 X97.364 Y97.567 E10.64552
G1 X97.756 Y97.201 E10.67308
G0 F3000 X98.145 Y97.408
G1 F1500 X98.578 Y97.147 E10.69906
G1 X99.046 Y96.957 E10.72501
G1 X99.734 Y96.821 E10.76105
G1 X104.783 Y96.386 E11.02147
G1 X105.054 Y96.374 E11.03541
G1 X113.01 Y96.364 E11.44424
G1 X113.218 Y96.371 E11.45493
G1 X120.194 Y96.817 E11.81414
G1 X120.695 Y96.889 E11.84015
G1 X121.177 Y97.038 E11.86608
G1 X121.631 Y97.263 E11.89211
G1 X122.043 Y97.555 E11.91806
G1 X122.404 Y97.909 E11.94404
G1 X122.705 Y98.316 E11.97006
G1 X122.938 Y98.764 E11.99601
G1 X123.097 Y99.244 E12.02199
G1 X123.177 Y99.717 E12.04664
G1 X123.623 Y104.566 E12.29687
G1 X123.636 Y104.863 E12.31214
G1 X123.623 Y114.631 E12.81409
G1 X123.613 Y114.885 E12.82715
G1 X123.179 Y120.249 E13.10369
G1 X123.098 Y120.748 E13.12967
G1 X122.94 Y121.228 E13.15564
G1 X122.708 Y121.678 E13.18166
G1 X122.409 Y122.085 E13.20761
G1 X122.049 Y122.44 E13.23359
G1 X121.637 Y122.734 E13.2596
G1 X121.185 Y122.959 E13.28554
G1 X120.702 Y123.11 E13.31155
G1 X119.989 Y123.191 E13.34842
G1 X100.009 Y123.191 E14.37513
G1 X99.505 Y123.151 E14.40111
G1 X99.014 Y123.032 E14.42707
G1 X98.547 Y122.838 E14.45306
G1 X98.117 Y122.572 E14.47904
G1 X97.734 Y122.242 E14.50502
G1 X97.408 Y121.855 E14.53102
G1 X97.147 Y121.422 E14.557
G1 X96.957 Y120.954 E14.58296
G1 X96.844 Y120.461 E14.60895
G1 X96.809 Y119.991 E14.63317
G1 X96.809 Y100.009 E15.65998
G1 X96.849 Y99.505 E15.68596
G1 X96.968 Y99.014 E15.71192
G1 X97.162 Y98.547 E15.73791
G1 X97.428 Y98.117 E15.76389
G1 X97.758 Y97.734 E15.78987
G1 X98.145 Y97.408 E15.81587
G1 F2100 E13.01587
G0 F3000 X100.614 Y99.335
G0 X100.614 Y100.614
G0 X100.67 Y100.67
G0 X100.6 Y100.6
;TYPE:WALL-INNER
G1 F2100 E15.81587
G1 F1500 X119.4 Y100.6 E16.78195
G1 X119.4 Y119.4 E17.74802
G1 X100.6 Y119.4 E18.7141
G1 X100.6 Y100.6 E19.68017
G0 F3000 X100.2 Y100.2
;TYPE:WALL-OUTER
G1 F1500 X119.8 Y100.2 E20.68735
G1 X119.8 Y119.8 E21.69454
G1 X100.2 Y119.8 E22.70172
G1 X100.2 Y100.2 E23.7089
G0 F3000 X100.4 Y100.2
G0 X100.779 Y100.779
;TYPE:SKIN
G1 F1500 X119.219 Y119.219 E25.04898
G0 X119.289 Y119.289
G0 F3000 X119.219 Y118.653
G1 F1500 X101.345 Y100.779 E26.34792
G0 X101.275 Y100.709
G0 F3000 X101.911 Y100.779
G1 F1500 X119.219 Y118.088 E27.60576
G0 X119.289 Y118.158
G0 F3000 X119.219 Y117.522
G1 F1500 X102.476 Y100.779 E28.82251
G0 X102.406 Y100.709
G0 F3000 X103.042 Y100.779
G1 F1500 X119.219 Y116.956 E29.99813
G0 X119.289 Y117.026
G0 F3000 X119.219 Y116.391
G1 F1500 X103.608 Y100.779 E31.13265
G0 X103.538 Y100.709
G0 F3000 X104.173 Y100.779
G1 F1500 X119.219 Y115.825 E32.22607
G0 X119.289 Y115.895
G0 F3000 X119.219 Y115.259
G1 F1500 X104.739 Y100.779 E33.27836
G0 X104.669 Y100.709
G0 F3000 X105.305 Y100.779
G1 F1500 X119.219 Y114.694 E34.28956
G0 X119.289 Y114.764
G0 F3000 X119.219 Y114.128
G1 F1500 X105.87 Y100.779 E35.25966
G0 X105.8 Y100.709
G0 F3000 X106.436 Y100.779
G1 F1500 X119.219 Y113.562 E36.18862
G0 X119.289 Y113.632
G0 F3000 X119.219 Y112.997
G1 F1500 X107.002 Y100.779 E37.07649
G0 X106.932 Y100.709
G0 F3000 X107.567 Y100.779
G1 F1500 X119.219 Y112.431 E37.92327
G0 X119.289 Y112.501
G0 F3000 X119.219 Y111.865
G1 F1500 X108.133 Y100.779 E38.72891
G0 X108.063 Y100.709
G0 F3000 X108.699 Y100.779
G1 F1500 X119.219 Y111.3 E39.49346
G0 X119.289 Y111.37
G0 F3000 X119.219 Y110.734
G1 F1500 X109.264 Y100.779 E40.21691
G0 X109.194 Y100.709
G0 F3000 X109.83 Y100.779
G1 F1500 X119.219 Y110.168 E40.89923
G0 X119.289 Y110.238
G0 F3000 X119.219 Y109.602
G1 F1500 X110.396 Y100.779 E41.54041
G0 X110.326 Y100.709
G0 F3000 X110.962 Y100.779
G1 F1500 X119.219 Y109.037 E42.1405
G0 X119.289 Y109.107
G0 F3000 X119.219 Y108.471
G1 F1500 X111.527 Y100.779 E42.69949
G0 X111.457 Y100.709
G0 F3000 X112.093 Y100.779
G1 F1500 X119.219 Y107.905 E43.21736
G0 X119.289 Y107.975
G0 F3000 X119.219 Y107.34
G1 F1500 X112.659 Y100.779 E43.69412
G0 X112.589 Y100.709
G0 F3000 X113.224 Y100.779
G1 F1500 X119.219 Y106.774 E44.12979
G0 X119.289 Y106.844
G0 F3000 X119.219 Y106.208
G1 F1500 X113.79 Y100.779 E44.52433
G0 X113.72 Y100.709
G0 F3000 X114.356 Y100.779
G1 F1500 X119.219 Y105.643 E44.87777
G0 X119.289 Y105.713
G0 F3000 X119.219 Y105.077
G1 F1500 X114.921 Y100.779 E45.19011
G0 X114.851 Y100.709
G0 F3000 X115.487 Y100.779
G1 F1500 X119.219 Y104.511 E45.46132
G0 X119.289 Y104.581
G0 F3000 X119.219 Y103.946
G1 F1500 X116.053 Y100.779 E45.69144
G0 X115.983 Y100.709
G0 F3000 X116.618 Y100.779
G1 F1500 X119.219 Y103.38 E45.88046
G0 X119.289 Y103.45
G0 F3000 X119.219 Y102.814
G1 F1500 X117.184 Y100.779 E46.02835
G0 X117.114 Y100.709
G0 F3000 X117.75 Y100.779
G1 F1500 X119.219 Y102.249 E46.13514
G0 X119.289 Y102.319
G0 F3000 X119.219 Y101.683
G1 F1500 X118.315 Y100.779 E46.20083
G0 X118.245 Y100.709
G0 F3000 X118.881 Y100.779
G1 F1500 X119.219 Y101.117 E46.2254
G0 F3000 X118.653 Y119.219
G1 F1500 X100.779 Y101.345 E47.52434
G0 X100.709 Y101.275
G0 F3000 X100.779 Y101.911
G1 F1500 X118.088 Y119.219 E48.78218
G0 X118.158 Y119.289
G0 F3000 X117.522 Y119.219
G1 F1500 X100.779 Y102.476 E49.99893
G0 X100.709 Y102.406
G0 F3000 X100.779 Y103.042
G1 F1500 X116.956 Y119.219 E51.17455
G0 X117.026 Y119.289
G0 F3000 X116.391 Y119.219
G1 F1500 X100.779 Y103.608 E52.30907
G0 X100.709 Y103.538
G0 F3000 X100.779 Y104.173
G1 F1500 X115.825 Y119.219 E53.40249
G0 X115.895 Y119.289
G0 F3000 X115.259 Y119.219
G1 F1500 X100.779 Y104.739 E54.45478
G0 X100.709 Y104.669
G0 F3000 X100.779 Y105.305
G1 F1500 X114.694 Y119.219 E55.46598
G0 X114.764 Y119.289
G0 F3000 X114.128 Y119.219
G1 F1500 X100.779 Y105.87 E56.43608
G0 X100.709 Y105.8
G0 F3000 X100.779 Y106.436
G1 F1500 X113.562 Y119.219 E57.36504
G0 X113.632 Y119.289
G0 F3000 X112.997 Y119.219
G1 F1500 X100.779 Y107.002 E58.25291
G0 X100.709 Y106.932
G0 F3000 X100.779 Y107.567
G1 F1500 X112.431 Y119.219 E59.09969
G0 X112.501 Y119.289
G0 F3000 X111.865 Y119.219
G1 F1500 X100.779 Y108.133 E59.90533
G0 X100.709 Y108.063
G0 F3000 X100.779 Y108.699
G1 F1500 X111.3 Y119.219 E60.66988
G0 X111.37 Y119.289
G0 F3000 X110.734 Y119.219
G1 F1500 X100.779 Y109.264 E61.39333
G0 X100.709 Y109.194
G0 F3000 X100.779 Y109.83
G1 F1500 X110.168 Y119.219 E62.07565
G0 X110.238 Y119.289
G0 F3000 X109.602 Y119.219
G1 F1500 X100.779 Y110.396 E62.71683
G0 X100.709 Y110.326
G0 F3000 X100.779 Y110.962
G1 F1500 X109.037 Y119.219 E63.31692
G0 X109.107 Y119.289
G0 F3000 X108.471 Y119.219
G1 F1500 X100.779 Y111.527 E63.87592
G0 X100.709 Y111.457
G0 F3000 X100.779 Y112.093
G1 F1500 X107.905 Y119.219 E64.39378
G0 X107.975 Y119.289
G0 F3000 X107.34 Y119.219
G1 F1500 X100.779 Y112.659 E64.87054
G0 X100.709 Y112.589
G0 F3000 X100.779 Y113.224
G1 F1500 X106.774 Y119.219 E65.30621
G0 X106.844 Y119.289
G0 F3000 X106.208 Y119.219
G1 F1500 X100.779 Y113.79 E65.70075
G0 X100.709 Y113.72
G0 F3000 X100.779 Y114.356
G1 F1500 X105.643 Y119.219 E66.05419
G0 X105.713 Y119.289
G0 F3000 X105.077 Y119.219
G1 F1500 X100.779 Y114.921 E66.36653
G0 X100.709 Y114.851
G0 F3000 X100.779 Y115.487
G1 F1500 X104.511 Y119.219 E66.63774
G0 X104.581 Y119.289
G0 F3000 X103.946 Y119.219
M104 S187
G1 F1500 X100.779 Y116.053 E66.86786
G0 X100.709 Y115.983
G0 F3000 X100.779 Y116.618
G1 F1500 X103.38 Y119.219 E67.05688
G0 X103.45 Y119.289
G0 F3000 X102.814 Y119.219
G1 F1500 X100.779 Y117.184 E67.20477
G0 X100.709 Y117.114
G0 F3000 X100.779 Y117.75
G1 F1500 X102.249 Y119.219 E67.31156
G0 X102.319 Y119.289
G0 F3000 X101.683 Y119.219
G1 F1500 X100.779 Y118.315 E67.37726
G0 X100.709 Y118.245
G0 F3000 X100.779 Y118.881
G1 F1500 X101.117 Y119.219 E67.40182
G0 F3000 X101.117 Y119
;TIME_ELAPSED:63.091074
;LAYER:1
M140 S60
M106 S255
G0 F4500 X100.6 Y119.4 Z0.5
;TYPE:WALL-INNER
G1 F1710 X100.6 Y100.6 E68.04587
G1 X119.4 Y100.6 E68.68992
G1 X119.4 Y119.4 E69.33397
G1 X100.6 Y119.4 E69.97802
G0 F4500 X100.2 Y119.8
;TYPE:WALL-OUTER
G1 F1230 X100.2 Y100.2 E70.64947
G1 X119.8 Y100.2 E71.32093
G1 X119.8 Y119.8 E71.99238
G1 X100.2 Y119.8 E72.66384
G0 F4500 X100.2 Y119.6
G0 X100.832 Y119.219
;TYPE:SKIN
G1 F1200 X119.219 Y100.832 E73.55465
G0 X119.289 Y100.762
G0 F4500 X118.706 Y100.779
G1 F1200 X100.779 Y118.706 E74.42318
G0 X100.709 Y118.776
G0 F4500 X100.779 Y118.14
G1 F1200 X118.14 Y100.779 E75.26429
G0 X118.21 Y100.709
G0 F4500 X117.574 Y100.779
G1 F1200 X100.779 Y117.574 E76.07797
G0 X100.709 Y117.644
G0 F4500 X100.779 Y117.009
G1 F1200 X117.009 Y100.779 E76.86428
G0 X117.079 Y100.709
G0 F4500 X116.443 Y100.779
G1 F1200 X100.779 Y116.443 E77.62317
G0 X100.709 Y116.513
G0 F4500 X100.779 Y115.877
G1 F1200 X115.877 Y100.779 E78.35464
G0 X115.947 Y100.709
G0 F4500 X115.312 Y100.779
G1 F1200 X100.779 Y115.312 E79.05874
G0 X100.709 Y115.382
G0 F4500 X100.779 Y114.746
G1 F1200 X114.746 Y100.779 E79.73541
G0 X114.816 Y100.709
G0 F4500 X114.18 Y100.779
G1 F1200 X100.779 Y114.18 E80.38466
G0 X100.709 Y114.25
G0 F4500 X100.779 Y113.615
G1 F1200 X113.615 Y100.779 E81.00654
G0 X113.685 Y100.709
G0 F4500 X113.049 Y100.779
G1 F1200 X100.779 Y113.049 E81.601
G0 X100.709 Y113.119
G0 F4500 X100.779 Y112.483
G1 F1200 X112.483 Y100.779 E82.16804
G0 X112.553 Y100.709
G0 F4500 X111.918 Y100.779
G1 F1200 X100.779 Y111.918 E82.7077
G0 X100.709 Y111.988
G0 F4500 X100.779 Y111.352
G1 F1200 X111.352 Y100.779 E83.21994
G0 X111.422 Y100.709
G0 F4500 X110.786 Y100.779
G1 F1200 X100.779 Y110.786 E83.70476
G0 X100.709 Y110.856
G0 F4500 X100.779 Y110.22
G1 F1200 X110.22 Y100.779 E84.16216
G0 X110.29 Y100.709
G0 F4500 X109.655 Y100.779
G1 F1200 X100.779 Y109.655 E84.59218
G0 X100.709 Y109.725
G0 F4500 X100.779 Y109.089
G1 F1200 X109.089 Y100.779 E84.99479
G0 X109.159 Y100.709
G0 F4500 X108.523 Y100.779
G1 F1200 X100.779 Y108.523 E85.36997
G0 X100.709 Y108.593
G0 F4500 X100.779 Y107.958
G1 F1200 X107.958 Y100.779 E85.71778
G0 X108.028 Y100.709
G0 F4500 X107.392 Y100.779
G1 F1200 X100.779 Y107.392 E86.03816
G0 X100.709 Y107.462
G0 F4500 X100.779 Y106.826
G1 F1200 X106.826 Y100.779 E86.33113
G0 X106.896 Y100.709
G0 F4500 X106.261 Y100.779
G1 F1200 X100.779 Y106.261 E86.59672
G0 X100.709 Y106.331
G0 F4500 X100.779 Y105.695
G1 F1200 X105.695 Y100.779 E86.83489
G0 X105.765 Y100.709
G0 F4500 X105.129 Y100.779
G1 F1200 X100.779 Y105.129 E87.04564
G0 X100.709 Y105.199
G0 F4500 X100.779 Y104.564
G1 F1200 X104.564 Y100.779 E87.22902
G0 X104.634 Y100.709
G0 F4500 X103.998 Y100.779
G1 F1200 X100.779 Y103.998 E87.38497
G0 X100.709 Y104.068
G0 F4500 X100.779 Y103.432
G1 F1200 X103.432 Y100.779 E87.5135
G0 X103.502 Y100.709
G0 F4500 X102.867 Y100.779
G1 F1200 X100.779 Y102.867 E87.61466
G0 X100.709 Y102.937
G0 F4500 X100.779 Y102.301
G1 F1200 X102.301 Y100.779 E87.6884
G0 X102.371 Y100.709
G0 F4500 X101.735 Y100.779
G1 F1200 X100.779 Y101.735 E87.73472
G0 X100.709 Y101.805
G0 F4500 X100.779 Y101.17
G1 F1200 X101.17 Y100.779 E87.75366
G0 F4500 X119.219 Y101.397
G1 F1200 X101.397 Y119.219 E88.6171
G0 X101.327 Y119.289
G0 F4500 X101.963 Y119.219
G1 F1200 X119.219 Y101.963 E89.45312
G0 X119.289 Y101.893
G0 F4500 X119.219 Y102.529
G1 F1200 X102.529 Y119.219 E90.26172
G0 X102.459 Y119.289
G0 F4500 X103.094 Y119.219
G1 F1200 X119.219 Y103.094 E91.04294
G0 X119.289 Y103.024
G0 F4500 X119.219 Y103.66
G1 F1200 X103.66 Y119.219 E91.79675
G0 X103.59 Y119.289
G0 F4500 X104.226 Y119.219
G1 F1200 X119.219 Y104.226 E92.52313
G0 X119.289 Y104.156
G0 F4500 X119.219 Y104.791
G1 F1200 X104.791 Y119.219 E93.22214
G0 X104.721 Y119.289
G0 F4500 X105.357 Y119.219
G1 F1200 X119.219 Y105.357 E93.89372
G0 X119.289 Y105.287
G0 F4500 X119.219 Y105.923
G1 F1200 X105.923 Y119.219 E94.53789
G0 X105.853 Y119.289
G0 F4500 X106.488 Y119.219
G1 F1200 X119.219 Y106.488 E95.15468
G0 X119.289 Y106.418
G0 F4500 X119.219 Y107.054
G1 F1200 X107.054 Y119.219 E95.74405
G0 X106.984 Y119.289
G0 F4500 X107.62 Y119.219
G1 F1200 X119.219 Y107.62 E96.306
G0 X119.289 Y107.55
G0 F4500 X119.219 Y108.185
G1 F1200 X108.185 Y119.219 E96.84057
G0 X108.115 Y119.289
G0 F4500 X108.751 Y119.219
G1 F1200 X119.219 Y108.751 E97.34773
G0 X119.289 Y108.681
G0 F4500 X119.219 Y109.317
G1 F1200 X109.317 Y119.219 E97.82746
G0 X109.247 Y119.289
G0 F4500 X109.882 Y119.219
G1 F1200 X119.219 Y109.882 E98.27982
G0 X119.289 Y109.812
G0 F4500 X119.219 Y110.448
G1 F1200 X110.448 Y119.219 E98.70476
G0 X110.378 Y119.289
G0 F4500 X111.014 Y119.219
G1 F1200 X119.219 Y111.014 E99.10227
G0 X119.289 Y110.944
G0 F4500 X119.219 Y111.58
G1 F1200 X111.58 Y119.219 E99.47237
G0 X111.51 Y119.289
G0 F4500 X112.145 Y119.219
G1 F1200 X119.219 Y112.145 E99.81509
