;FLAVOR:RepRap
;TIME:2100
;Filament used: 1.68549m
;Layer height: 0.2
;Generated with Cura_SteamEngine 2.4.0
M190 S60
M104 S192
M109 S192
G21 ;metric values
G90 ;absolute positioning
M82 ;set extruder to absolute mode
M107 ;start with the fan off
G28 X0 Y0 ;move X/Y to min endstops
G28 Z0 ;move Z to min endstops
G1 Z15.0 F9000 ;move the platform down 15mm
G92 E0 ;zero the extruded length
G1 F200 E3 ;extrude 3mm of feed stock
G92 E0 ;zero the extruded length again
G1 F9000;Put printing message on LCD screen
M117 Printing...
;LAYER_COUNT:25
;LAYER:0
M107
G1 F2100 E-3
G0 F3600 X84.594 Y92.037 Z0.3
;TYPE:SKIRT
G1 F2100 E0
G1 F1800 X84.755 Y91.895 E0.01071
G1 X89.027 Y88.34 E0.28798
G1 X93.011 Y84.624 E0.55979
G1 X94.872 Y82.735 E0.69208
G1 X98.536 Y78.683 E0.96463
G1 X101.95 Y74.454 E1.23579
G1 X105.11 Y70.044 E1.50645
G1 X108.435 Y64.805 E1.81603
G1 X108.668 Y64.475 E1.83618
G1 X109.517 Y63.396 E1.90468
G1 X109.791 Y63.083 E1.92543
G1 X110.224 Y62.637 E1.95644
G1 X110.464 Y62.409 E1.97296
G1 X111.318 Y61.664 E2.0295
G1 X111.837 Y61.281 E2.06168
G1 X113.549 Y60.217 E2.16224
G1 X114.242 Y59.874 E2.20082
G1 X115.896 Y59.247 E2.28907
G1 X116.599 Y59.051 E2.32548
G1 X118.51 Y58.704 E2.42238
G1 X119.177 Y58.64 E2.45581
G1 X120.511 Y58.624 E2.52237
G1 X121.068 Y58.657 E2.5502
G1 X122.4 Y58.828 E2.6172
G1 X122.817 Y58.904 E2.63835
G1 X123.666 Y59.106 E2.68189
G1 X124.121 Y59.243 E2.70559
G1 X125.407 Y59.716 E2.77396
G1 X125.838 Y59.904 E2.79742
G1 X126.757 Y60.371 E2.84884
G1 X127.226 Y60.651 E2.8761
G1 X128.544 Y61.566 E2.95614
G1 X129.082 Y62.014 E2.99107
G1 X130.439 Y63.362 E3.0865
G1 X130.897 Y63.906 E3.12198
G1 X131.798 Y65.193 E3.20036
G1 X132.092 Y65.685 E3.22895
G1 X132.683 Y66.856 E3.29439
G1 X132.916 Y67.42 E3.32484
G1 X133.429 Y68.996 E3.40752
G1 X133.555 Y69.489 E3.43291
G1 X133.72 Y70.359 E3.47709
G1 X133.78 Y70.817 E3.50013
G1 X133.879 Y72.193 E3.56896
G1 X133.881 Y72.737 E3.5961
G1 X133.766 Y74.524 E3.68544
G1 X133.355 Y81.066 E4.01246
G1 X133.355 Y86.476 E4.28237
G1 X133.876 Y95.165 E4.71664
G1 X133.874 Y95.668 E4.74174
G1 X133.359 Y103.443 E5.13049
G1 X133.351 Y108.848 E5.40014
G1 X133.882 Y117.312 E5.82324
G1 X133.881 Y117.834 E5.84929
G1 X133.765 Y119.538 E5.9345
G1 X133.355 Y126.065 E6.26077
G1 X133.355 Y131.475 E6.53068
G1 X133.876 Y140.164 E6.96495
G1 X133.852 Y140.899 E7.00164
G1 X133.647 Y142.54 E7.08415
G1 X133.541 Y143.083 E7.11175
G1 X133.263 Y144.116 E7.16512
G1 X133.084 Y144.634 E7.19246
G1 X132.463 Y146.103 E7.27203
G1 X132.215 Y146.594 E7.29947
G1 X131.601 Y147.624 E7.3593
G1 X131.339 Y148.011 E7.38261
G1 X130.693 Y148.853 E7.43556
G1 X130.329 Y149.265 E7.46299
G1 X129.12 Y150.458 E7.54773
G1 X128.656 Y150.851 E7.57806
G1 X127.568 Y151.639 E7.64508
G1 X127.13 Y151.915 E7.67091
G1 X126.144 Y152.45 E7.72688
G1 X125.623 Y152.686 E7.75541
G1 X123.978 Y153.294 E7.84291
G1 X123.267 Y153.485 E7.87964
G1 X121.394 Y153.806 E7.97445
G1 X120.712 Y153.863 E8.00859
G1 X119.287 Y153.861 E8.07968
G1 X118.679 Y153.814 E8.11011
G1 X117.019 Y153.556 E8.19392
G1 X116.322 Y153.382 E8.22976
G1 X114.59 Y152.781 E8.32122
G1 X114.196 Y152.621 E8.34244
G1 X110.92 Y151.078 E8.5231
G1 X105.898 Y148.987 E8.7945
G1 X100.777 Y147.188 E9.0653
G1 X95.52 Y145.668 E9.33831
G1 X92.925 Y145.035 E9.47157
G1 X88.13 Y144.059 E9.7157
G1 X87.652 Y143.93 E9.7404
G1 X86.707 Y143.612 E9.79015
G1 X85.954 Y143.268 E9.83145
G1 X85.001 Y142.707 E9.88662
G1 X84.535 Y142.387 E9.91482
G1 X84.178 Y142.065 E9.93881
G1 X83.222 Y141.093 E10.00683
G1 X82.855 Y140.663 E10.03503
G1 X82.637 Y140.334 E10.05472
G1 X82.124 Y139.472 E10.10476
G1 X81.87 Y138.967 E10.13297
G1 X81.716 Y138.527 E10.15622
G1 X81.306 Y137.095 E10.23054
G1 X81.189 Y136.542 E10.25874
G1 X81.152 Y135.915 E10.29007
G1 X81.289 Y128.959 E10.63718
G1 X81.113 Y123.492 E10.91007
G1 X81.114 Y123.199 E10.92469
G1 X81.263 Y119.578 E11.10549
G1 X81.236 Y114.107 E11.37844
G1 X81.117 Y111.507 E11.50829
G1 X81.114 Y111.216 E11.52281
G1 X81.288 Y104.728 E11.84662
G1 X81.113 Y99.294 E12.11786
G1 X81.134 Y98.741 E12.14547
G1 X81.255 Y97.607 E12.20237
G1 X81.354 Y97.05 E12.23059
G1 X81.439 Y96.76 E12.24567
G1 X81.77 Y95.772 E12.29765
G1 X81.987 Y95.25 E12.32585
G1 X82.141 Y94.972 E12.34171
G1 X82.76 Y93.949 E12.40136
G1 X83.086 Y93.487 E12.42957
G1 X83.462 Y93.087 E12.45696
G1 X84.594 Y92.037 E12.53399
G0 F3600 X84.866 Y92.331
G1 F1800 X85.011 Y92.203 E12.54364
G1 X89.272 Y88.657 E12.82021
G1 X93.286 Y84.914 E13.09402
G1 X95.194 Y82.977 E13.22967
G1 X98.837 Y78.947 E13.5007
G1 X102.262 Y74.703 E13.77278
G1 X105.435 Y70.278 E14.04444
G1 X108.772 Y65.019 E14.35517
G1 X108.983 Y64.722 E14.37335
G1 X109.832 Y63.643 E14.44185
G1 X110.078 Y63.361 E14.46052
G1 X110.511 Y62.915 E14.49153
G1 X110.727 Y62.71 E14.50639
G1 X111.581 Y61.965 E14.56293
G1 X112.048 Y61.62 E14.59189
G1 X113.76 Y60.556 E14.69246
G1 X114.384 Y60.248 E14.72717
G1 X116.038 Y59.621 E14.81542
G1 X116.671 Y59.445 E14.8482
G1 X118.582 Y59.098 E14.9451
G1 X119.182 Y59.04 E14.97517
G1 X120.516 Y59.024 E15.04173
G1 X121.017 Y59.053 E15.06677
G1 X122.349 Y59.224 E15.13377
G1 X122.724 Y59.293 E15.15279
G1 X123.573 Y59.495 E15.19633
G1 X123.983 Y59.618 E15.21768
G1 X125.269 Y60.091 E15.28605
G1 X125.657 Y60.261 E15.30718
G1 X126.576 Y60.728 E15.35861
G1 X126.998 Y60.98 E15.38313
G1 X128.316 Y61.895 E15.46318
G1 X128.8 Y62.298 E15.4946
G1 X130.157 Y63.646 E15.59003
G1 X130.569 Y64.135 E15.62193
G1 X131.47 Y65.422 E15.70031
G1 X131.735 Y65.865 E15.72606
G1 X132.326 Y67.036 E15.7915
G1 X132.535 Y67.544 E15.81891
G1 X133.048 Y69.12 E15.90159
G1 X133.162 Y69.563 E15.92442
G1 X133.327 Y70.433 E15.96859
G1 X133.381 Y70.846 E15.98937
G1 X133.48 Y72.222 E16.0582
G1 X133.482 Y72.711 E16.0826
G1 X133.367 Y74.498 E16.17194
G1 X132.955 Y81.056 E16.49976
G1 X132.955 Y86.483 E16.77051
G1 X133.477 Y95.189 E17.20564
G1 X133.475 Y95.642 E17.22824
G1 X132.959 Y103.432 E17.61774
G1 X132.951 Y108.857 E17.88839
G1 X133.483 Y117.337 E18.31229
G1 X133.482 Y117.807 E18.33574
G1 X133.366 Y119.511 E18.42095
G1 X132.955 Y126.055 E18.74807
G1 X132.955 Y131.482 E19.01883
G1 X133.477 Y140.188 E19.45395
G1 X133.455 Y140.849 E19.48695
G1 X133.25 Y142.49 E19.56945
G1 X133.154 Y142.98 E19.59436
G1 X132.876 Y144.013 E19.64773
G1 X132.716 Y144.479 E19.67232
G1 X132.095 Y145.948 E19.75188
G1 X131.871 Y146.389 E19.77656
G1 X131.257 Y147.419 E19.83639
G1 X131.021 Y147.767 E19.85736
G1 X130.375 Y148.609 E19.91031
G1 X130.048 Y148.98 E19.93498
G1 X128.839 Y150.173 E20.01972
G1 X128.422 Y150.527 E20.04701
G1 X127.334 Y151.315 E20.11403
G1 X126.939 Y151.563 E20.1373
G1 X125.953 Y152.098 E20.19327
G1 X125.484 Y152.311 E20.21897
G1 X123.839 Y152.919 E20.30646
G1 X123.199 Y153.09 E20.33951
G1 X121.326 Y153.411 E20.43432
G1 X120.713 Y153.463 E20.46501
G1 X119.288 Y153.461 E20.53611
G1 X118.74 Y153.418 E20.56353
G1 X117.08 Y153.16 E20.64734
G1 X116.453 Y153.004 E20.67958
G1 X114.721 Y152.403 E20.77104
G1 X114.367 Y152.259 E20.79011
G1 X111.082 Y150.712 E20.97126
G1 X106.031 Y148.609 E21.24422
G1 X100.9 Y146.806 E21.51556
G1 X95.651 Y145.289 E21.78815
G1 X92.997 Y144.641 E21.92444
G1 X88.21 Y143.667 E22.16816
G1 X87.78 Y143.551 E22.19038
G1 X86.835 Y143.233 E22.24013
G1 X86.157 Y142.923 E22.27732
G1 X85.204 Y142.362 E22.33249
G1 X84.763 Y142.057 E22.35924
G1 X84.463 Y141.784 E22.37948
G1 X83.507 Y140.812 E22.4475
G1 X83.161 Y140.403 E22.47422
G1 X82.98 Y140.129 E22.49061
G1 X82.467 Y139.267 E22.54065
G1 X82.228 Y138.787 E22.5674
G1 X82.1 Y138.417 E22.58694
G1 X81.69 Y136.985 E22.66125
G1 X81.581 Y136.46 E22.688
G1 X81.552 Y135.923 E22.71483
G1 X81.689 Y128.954 E23.06258
G1 X81.513 Y123.479 E23.33587
G1 X81.514 Y123.215 E23.34904
G1 X81.663 Y119.592 E23.52995
G1 X81.636 Y114.086 E23.80465
G1 X81.517 Y111.488 E23.9344
G1 X81.514 Y111.226 E23.94747
G1 X81.688 Y104.728 E24.27177
G1 X81.513 Y99.281 E24.54367
G1 X81.531 Y98.783 E24.56853
G1 X81.652 Y97.649 E24.62542
G1 X81.818 Y96.887 E24.66433
G1 X82.149 Y95.899 E24.71632
G1 X82.483 Y95.179 E24.75591
G1 X83.102 Y94.156 E24.81557
G1 X83.413 Y93.719 E24.84233
G1 X83.734 Y93.381 E24.86558
G1 X84.866 Y92.331 E24.94261
G0 F3600 X85.138 Y92.624
G1 F1800 X85.267 Y92.51 E24.9512
G1 X89.547 Y88.949 E25.22897
G1 X93.561 Y85.205 E25.50282
G1 X95.469 Y83.267 E25.63851
G1 X99.145 Y79.202 E25.91194
G1 X102.583 Y74.942 E26.18505
G1 X105.768 Y70.499 E26.45778
G1 X109.11 Y65.233 E26.76894
G1 X109.297 Y64.969 E26.78508
G1 X110.146 Y63.89 E26.85358
G1 X110.365 Y63.64 E26.87016
G1 X110.798 Y63.194 E26.90118
G1 X110.99 Y63.012 E26.91437
G1 X111.844 Y62.267 E26.97091
G1 X112.259 Y61.96 E26.99667
G1 X113.971 Y60.896 E27.09723
G1 X114.526 Y60.622 E27.12811
G1 X116.18 Y59.995 E27.21636
G1 X116.742 Y59.838 E27.24547
G1 X118.653 Y59.491 E27.34237
G1 X119.187 Y59.44 E27.36913
G1 X120.521 Y59.424 E27.43569
G1 X120.966 Y59.45 E27.45793
G1 X122.298 Y59.621 E27.52493
G1 X122.632 Y59.682 E27.54187
G1 X123.481 Y59.884 E27.58541
G1 X123.845 Y59.994 E27.60438
G1 X125.131 Y60.467 E27.67274
G1 X125.476 Y60.617 E27.69151
G1 X126.395 Y61.084 E27.74294
G1 X126.77 Y61.308 E27.76473
G1 X128.088 Y62.223 E27.84478
G1 X128.518 Y62.582 E27.87272
G1 X129.875 Y63.93 E27.96815
G1 X130.241 Y64.365 E27.99651
G1 X131.142 Y65.652 E28.07489
G1 X131.378 Y66.045 E28.09776
G1 X131.969 Y67.216 E28.1632
G1 X132.155 Y67.668 E28.18759
G1 X132.668 Y69.244 E28.27028
G1 X132.769 Y69.638 E28.29057
G1 X132.934 Y70.508 E28.33475
G1 X132.982 Y70.874 E28.35316
G1 X133.081 Y72.25 E28.42199
G1 X133.082 Y72.686 E28.44374
G1 X132.967 Y74.467 E28.53278
G1 X132.968 Y74.467 E28.53283
G1 X132.555 Y81.046 E28.86171
G1 X132.555 Y86.506 E29.13411
G1 X133.077 Y95.212 E29.56923
G1 X133.076 Y95.616 E29.58939
G1 X132.559 Y103.421 E29.97963
G1 X132.551 Y108.866 E30.25128
G1 X133.084 Y117.362 E30.67598
G1 X133.083 Y117.779 E30.69679
G1 X132.967 Y119.483 E30.782
G1 X132.555 Y126.045 E31.11002
G1 X132.555 Y131.505 E31.38242
G1 X133.077 Y140.211 E31.81755
G1 X133.058 Y140.8 E31.84695
G1 X132.853 Y142.441 E31.92945
G1 X132.768 Y142.876 E31.95157
G1 X132.49 Y143.909 E32.00494
G1 X132.347 Y144.323 E32.02679
G1 X131.726 Y145.792 E32.10636
G1 X131.528 Y146.185 E32.12831
G1 X130.914 Y147.215 E32.18814
G1 X130.704 Y147.524 E32.20678
G1 X130.058 Y148.366 E32.25972
G1 X129.767 Y148.696 E32.28167
G1 X128.558 Y149.889 E32.36641
G1 X128.187 Y150.203 E32.39066
G1 X127.099 Y150.991 E32.45768
G1 X126.748 Y151.212 E32.47838
G1 X125.762 Y151.747 E32.53434
G1 X125.345 Y151.936 E32.55718
G1 X123.7 Y152.544 E32.64468
G1 X123.132 Y152.696 E32.67401
G1 X121.259 Y153.017 E32.76882
G1 X120.714 Y153.063 E32.79611
G1 X119.289 Y153.061 E32.8672
G1 X118.802 Y153.023 E32.89157
G1 X117.142 Y152.765 E32.97538
G1 X116.584 Y152.626 E33.00407
G1 X114.852 Y152.025 E33.09554
G1 X114.537 Y151.897 E33.1125
G1 X111.246 Y150.347 E33.29399
G1 X106.185 Y148.24 E33.56749
G1 X101.017 Y146.424 E33.84078
G1 X95.737 Y144.898 E34.11498
G1 X93.093 Y144.253 E34.25076
G1 X88.29 Y143.275 E34.4953
G1 X87.907 Y143.172 E34.51508
G1 X86.962 Y142.854 E34.56483
G1 X86.36 Y142.579 E34.59785
G1 X85.407 Y142.018 E34.65302
G1 X84.993 Y141.728 E34.67824
G1 X84.749 Y141.504 E34.69476
G1 X83.793 Y140.532 E34.76278
G1 X83.468 Y140.145 E34.78799
G1 X83.324 Y139.925 E34.80111
G1 X82.811 Y139.063 E34.85116
G1 X82.588 Y138.609 E34.87639
G1 X82.485 Y138.307 E34.89231
G1 X82.075 Y136.875 E34.96662
G1 X81.974 Y136.379 E34.99188
G1 X81.952 Y135.931 E35.01425
G1 X82.089 Y128.949 E35.36265
G1 X81.913 Y123.466 E35.63634
G1 X81.914 Y123.232 E35.64802
G1 X82.063 Y119.607 E35.82902
G1 X82.036 Y114.09 E36.10427
G1 X81.916 Y111.47 E36.23512
G1 X81.914 Y111.237 E36.24674
G1 X82.089 Y104.728 E36.5716
G1 X81.913 Y99.268 E36.84414
G1 X81.929 Y98.825 E36.86625
G1 X82.05 Y97.691 E36.92315
G1 X82.198 Y97.014 E36.95772
G1 X82.529 Y96.026 E37.00971
G1 X82.825 Y95.386 E37.04489
G1 X83.444 Y94.363 E37.10454
G1 X83.739 Y93.953 E37.12974
G1 X84.006 Y93.674 E37.14901
G1 X85.138 Y92.624 E37.22604
G1 F2100 E34.22604
G0 F3600 X86.618 Y94.659
G0 X87.427 Y95.656
G0 X87.475 Y95.72
G0 X87.415 Y95.641
;TYPE:WALL-INNER
G1 F2100 E37.22604
G1 F1800 X87.654 Y95.474 E37.24058
G1 X87.899 Y95.327 E37.25484
G1 X88.172 Y95.185 E37.27019
G1 X88.443 Y95.069 E37.2849
G1 X88.709 Y94.974 E37.29899
G1 X88.987 Y94.897 E37.31338
G1 X89.292 Y94.836 E37.3289
G1 X89.559 Y94.799 E37.34235
G1 X89.872 Y94.779 E37.35799
G1 X90.15 Y94.78 E37.37186
G1 X90.464 Y94.802 E37.38757
G1 X90.74 Y94.841 E37.40147
G1 X91.03 Y94.902 E37.41626
G1 X91.313 Y94.981 E37.43092
G1 X91.589 Y95.08 E37.44555
G1 X91.863 Y95.201 E37.46049
G1 X92.108 Y95.329 E37.47428
G1 X92.365 Y95.487 E37.48933
G1 X92.629 Y95.673 E37.50544
G1 X92.823 Y95.833 E37.51799
G1 X93.062 Y96.057 E37.53433
G1 X93.243 Y96.252 E37.5476
G1 X93.436 Y96.491 E37.56293
G1 X93.593 Y96.717 E37.57666
G1 X93.755 Y96.984 E37.59224
G1 X93.887 Y97.237 E37.60648
G1 X94.004 Y97.509 E37.62125
G1 X94.107 Y97.802 E37.63674
G1 X94.175 Y98.047 E37.64943
G1 X94.239 Y98.357 E37.66522
G1 X94.278 Y98.652 E37.68007
G1 X94.298 Y98.946 E37.69477
G1 X94.297 Y99.237 E37.70929
G1 X94.277 Y99.521 E37.72349
G1 X94.239 Y99.795 E37.73729
G1 X94.173 Y100.112 E37.75345
G1 X94.093 Y100.397 E37.76821
G1 X93.996 Y100.665 E37.78243
G1 X93.881 Y100.929 E37.7968
G1 X93.748 Y101.186 E37.81124
G1 X93.593 Y101.437 E37.82596
G1 X93.414 Y101.692 E37.8415
G1 X93.245 Y101.897 E37.85475
G1 X93.027 Y102.13 E37.87067
G1 X92.819 Y102.325 E37.8849
G1 X92.596 Y102.504 E37.89916
G1 X92.353 Y102.673 E37.91393
G1 X92.093 Y102.831 E37.92911
G1 X91.835 Y102.965 E37.94361
G1 X91.558 Y103.083 E37.95863
G1 X91.292 Y103.178 E37.97273
G1 X91.014 Y103.255 E37.98712
G1 X90.711 Y103.316 E38.00254
G1 X90.442 Y103.353 E38.01608
G1 X90.129 Y103.373 E38.03173
G1 X89.851 Y103.372 E38.0456
G1 X89.537 Y103.35 E38.06131
G1 X89.271 Y103.312 E38.07471
G1 X88.968 Y103.25 E38.09014
G1 X88.682 Y103.169 E38.10497
G1 X88.412 Y103.072 E38.11928
G1 X88.138 Y102.951 E38.13423
G1 X87.891 Y102.822 E38.14813
G1 X87.635 Y102.665 E38.16311
G1 X87.381 Y102.485 E38.17864
G1 X87.166 Y102.31 E38.19247
G1 X86.941 Y102.097 E38.20793
G1 X86.756 Y101.898 E38.22149
G1 X86.565 Y101.661 E38.23667
G1 X86.403 Y101.43 E38.25075
G1 X86.246 Y101.171 E38.26586
G1 X86.109 Y100.906 E38.28074
G1 X85.988 Y100.622 E38.29614
G1 X85.9 Y100.369 E38.30951
G1 X85.82 Y100.078 E38.32456
G1 X85.76 Y99.788 E38.33934
G1 X85.723 Y99.5 E38.35383
G1 X85.703 Y99.206 E38.36853
G1 X85.704 Y98.915 E38.38305
G1 X85.725 Y98.628 E38.3974
G1 X85.762 Y98.357 E38.41105
G1 X85.832 Y98.024 E38.42802
G1 X85.905 Y97.766 E38.4414
G1 X86.006 Y97.484 E38.45635
G1 X86.118 Y97.228 E38.47029
G1 X86.259 Y96.958 E38.48548
G1 X86.41 Y96.713 E38.49984
G1 X86.587 Y96.461 E38.5152
G1 X86.756 Y96.254 E38.52854
G1 X86.981 Y96.015 E38.54491
G1 X87.176 Y95.834 E38.55819
G1 X87.415 Y95.641 E38.57351
G0 F3600 X87.475 Y95.72
G0 X88.571 Y97.271
G0 X88.633 Y97.349
G1 F1800 X88.432 Y97.534 E38.58714
G1 X88.254 Y97.737 E38.60061
G1 X88.1 Y97.965 E38.61434
G1 X87.976 Y98.212 E38.62813
G1 X87.885 Y98.469 E38.64173
G1 X87.826 Y98.735 E38.65532
G1 X87.8 Y99.005 E38.66885
G1 X87.808 Y99.281 E38.68263
G1 X87.851 Y99.552 E38.69632
G1 X87.927 Y99.816 E38.71003
G1 X88.035 Y100.067 E38.72366
G1 X88.172 Y100.302 E38.73723
G1 X88.338 Y100.52 E38.7509
G1 X88.53 Y100.715 E38.76455
G1 X88.746 Y100.885 E38.77827
G1 X88.98 Y101.027 E38.79192
G1 X89.231 Y101.139 E38.80563
G1 X89.493 Y101.217 E38.81927
G1 X89.761 Y101.264 E38.83285
G1 X90.037 Y101.277 E38.84663
G1 X90.307 Y101.255 E38.86015
G1 X90.574 Y101.202 E38.87373
G1 X90.836 Y101.113 E38.88753
G1 X91.082 Y100.993 E38.90119
G1 X91.31 Y100.844 E38.91478
G1 X91.519 Y100.67 E38.92834
G1 X91.706 Y100.468 E38.94208
G1 X91.865 Y100.247 E38.95566
G1 X91.998 Y100.005 E38.96944
G1 X92.097 Y99.747 E38.98322
G1 X92.163 Y99.486 E38.99665
G1 X92.197 Y99.224 E39.00983
G1 X92.201 Y99.062 E39.01792
G1 X92.185 Y98.801 E39.03097
G1 X92.133 Y98.533 E39.04459
G1 X92.05 Y98.275 E39.05811
G1 X91.935 Y98.024 E39.07188
G1 X91.789 Y97.794 E39.08547
G1 X91.618 Y97.581 E39.0991
G1 X91.418 Y97.391 E39.11286
G1 X91.199 Y97.23 E39.12642
G1 X90.961 Y97.096 E39.14005
G1 X90.706 Y96.99 E39.15383
G1 X90.442 Y96.92 E39.16745
